Ultramotiv/Mauris-Progress-/All_other_stuff/ashutosh_sitting.csv
timestamp,joint1,joint2,joint3,joint4,joint5,joint6
0.0001220703125,1.4116888046264648,-98.75425720214844,137.2688446044922,-116.22621154785156,-93.43817901611328,-91.63772583007812
0.0025615692138671875,1.4116888046264648,-98.75447082519531,137.2688446044922,-116.22643280029297,-93.43839263916016,-91.637939453125
0.004779338836669922,1.4116888046264648,-98.75447082519531,137.2688446044922,-116.22643280029297,-93.43839263916016,-91.637939453125
0.007115602493286133,1.4116888046264648,-98.75447082519531,137.2688446044922,-116.22643280029297,-93.43839263916016,-91.637939453125
0.009326934814453125,1.4116888046264648,-98.75447082519531,137.2688446044922,-116.22643280029297,-93.43839263916016,-91.637939453125
0.011533021926879883,1.4116888046264648,-98.75447082519531,137.2688446044922,-116.22643280029297,-93.43839263916016,-91.637939453125
0.013796091079711914,1.4116888046264648,-98.75447082519531,137.26905822753906,-116.22643280029297,-93.43817901611328,-91.63772583007812
0.016070127487182617,1.4116888046264648,-98.75447082519531,137.26905822753906,-116.22643280029297,-93.43817901611328,-91.63772583007812
0.018243074417114258,1.4116888046264648,-98.75447082519531,137.26905822753906,-116.22643280029297,-93.43817901611328,-91.63772583007812
0.020407676696777344,1.4116888046264648,-98.75447082519531,137.26905822753906,-116.22643280029297,-93.43817901611328,-91.63772583007812
0.022568941116333008,1.4116888046264648,-98.75447082519531,137.2688446044922,-116.22643280029297,-93.43839263916016,-91.63772583007812
0.024747133255004883,1.4116888046264648,-98.75447082519531,137.2688446044922,-116.22643280029297,-93.43839263916016,-91.63772583007812
0.026998043060302734,1.4116888046264648,-98.75447082519531,137.2688446044922,-116.22643280029297,-93.43839263916016,-91.63772583007812
0.0293426513671875,1.4116888046264648,-98.75447082519531,137.2688446044922,-116.22643280029297,-93.43839263916016,-91.63772583007812
0.031569719314575195,1.4116888046264648,-98.75447082519531,137.2688446044922,-116.22643280029297,-93.43839263916016,-91.63772583007812
0.03386878967285156,1.4116888046264648,-98.75447082519531,137.2688446044922,-116.22643280029297,-93.43839263916016,-91.63772583007812
0.03619790077209473,1.4116888046264648,-98.75447082519531,137.2688446044922,-116.22643280029297,-93.43839263916016,-91.63772583007812
0.03840327262878418,1.4116888046264648,-98.75447082519531,137.2688446044922,-116.22643280029297,-93.43839263916016,-91.63772583007812
0.04063129425048828,1.4116888046264648,-98.75447082519531,137.2688446044922,-116.22643280029297,-93.43839263916016,-91.63772583007812
0.04293513298034668,1.4116888046264648,-98.75425720214844,137.26861572265625,-116.22643280029297,-93.43839263916016,-91.637939453125
0.04524850845336914,1.4116888046264648,-98.75425720214844,137.26861572265625,-116.22643280029297,-93.43839263916016,-91.637939453125
0.047463417053222656,1.4116888046264648,-98.75425720214844,137.26861572265625,-116.22643280029297,-93.43839263916016,-91.637939453125
0.04967904090881348,1.4116888046264648,-98.75425720214844,137.26861572265625,-116.22643280029297,-93.43839263916016,-91.637939453125
0.05284714698791504,1.4116888046264648,-98.75425720214844,137.2688446044922,-116.22664642333984,-93.43817901611328,-91.63772583007812
0.055213212966918945,1.4116888046264648,-98.75425720214844,137.2688446044922,-116.22664642333984,-93.43817901611328,-91.63772583007812
0.057427406311035156,1.4116888046264648,-98.75425720214844,137.2688446044922,-116.22664642333984,-93.43817901611328,-91.63772583007812
0.05968213081359863,1.4116888046264648,-98.75425720214844,137.2688446044922,-116.22664642333984,-93.43817901611328,-91.63772583007812
0.06285572052001953,1.411906361579895,-98.75425720214844,137.2688446044922,-116.22643280029297,-93.43839263916016,-91.637939453125
0.06519937515258789,1.411906361579895,-98.75425720214844,137.2688446044922,-116.22643280029297,-93.43839263916016,-91.637939453125
0.06742644309997559,1.411906361579895,-98.75425720214844,137.2688446044922,-116.22643280029297,-93.43839263916016,-91.637939453125
0.0696554183959961,1.411906361579895,-98.75425720214844,137.2688446044922,-116.22643280029297,-93.43839263916016,-91.637939453125
0.07293248176574707,1.4116888046264648,-98.75425720214844,137.26861572265625,-116.22643280029297,-93.43817901611328,-91.63772583007812
0.07532858848571777,1.4116888046264648,-98.75425720214844,137.26861572265625,-116.22643280029297,-93.43817901611328,-91.63772583007812
0.07750868797302246,1.4116888046264648,-98.75425720214844,137.26861572265625,-116.22643280029297,-93.43817901611328,-91.63772583007812
0.0797266960144043,1.4116888046264648,-98.75425720214844,137.26861572265625,-116.22643280029297,-93.43817901611328,-91.63772583007812
0.08235788345336914,1.4116888046264648,-98.75469207763672,137.2688446044922,-116.22664642333984,-93.43817901611328,-91.637939453125
0.0845181941986084,1.4116888046264648,-98.75469207763672,137.2688446044922,-116.22664642333984,-93.43817901611328,-91.637939453125
0.08681106567382812,1.4116888046264648,-98.75469207763672,137.2688446044922,-116.22664642333984,-93.43817901611328,-91.637939453125
0.08910679817199707,1.4116888046264648,-98.75469207763672,137.2688446044922,-116.22664642333984,-93.43817901611328,-91.637939453125
0.09129571914672852,1.4116888046264648,-98.75469207763672,137.2688446044922,-116.22664642333984,-93.43817901611328,-91.637939453125
0.09348368644714355,1.4116888046264648,-98.75425720214844,137.2688446044922,-116.22643280029297,-93.43839263916016,-91.63772583007812
0.0956728458404541,1.4116888046264648,-98.75425720214844,137.2688446044922,-116.22643280029297,-93.43839263916016,-91.63772583007812
0.09795331954956055,1.4116888046264648,-98.75425720214844,137.2688446044922,-116.22643280029297,-93.43839263916016,-91.63772583007812
0.10024809837341309,1.4116888046264648,-98.75425720214844,137.2688446044922,-116.22643280029297,-93.43839263916016,-91.63772583007812
0.10283374786376953,1.4116888046264648,-98.75447082519531,137.2688446044922,-116.22664642333984,-93.43817901611328,-91.63772583007812
0.10512948036193848,1.4116888046264648,-98.75447082519531,137.2688446044922,-116.22664642333984,-93.43817901611328,-91.63772583007812
0.10730600357055664,1.4116888046264648,-98.75447082519531,137.2688446044922,-116.22664642333984,-93.43817901611328,-91.63772583007812
0.10948657989501953,1.4116888046264648,-98.75447082519531,137.2688446044922,-116.22664642333984,-93.43817901611328,-91.63772583007812
0.11287689208984375,1.4114712476730347,-98.75447082519531,137.2688446044922,-116.22664642333984,-93.43839263916016,-91.637939453125
0.11515927314758301,1.4114712476730347,-98.75447082519531,137.2688446044922,-116.22664642333984,-93.43839263916016,-91.637939453125
0.11733436584472656,1.4114712476730347,-98.75447082519531,137.2688446044922,-116.22664642333984,-93.43839263916016,-91.637939453125
0.11951351165771484,1.4114712476730347,-98.75447082519531,137.2688446044922,-116.22664642333984,-93.43839263916016,-91.637939453125
0.12284088134765625,1.4116888046264648,-98.75425720214844,137.2688446044922,-116.22664642333984,-93.43839263916016,-91.637939453125
0.12513089179992676,1.4116888046264648,-98.75425720214844,137.2688446044922,-116.22664642333984,-93.43839263916016,-91.637939453125
0.1273939609527588,1.4116888046264648,-98.75425720214844,137.2688446044922,-116.22664642333984,-93.43839263916016,-91.637939453125
0.1295769214630127,1.4116888046264648,-98.75425720214844,137.2688446044922,-116.22664642333984,-93.43839263916016,-91.637939453125
0.1326439380645752,1.4116888046264648,-98.75447082519531,137.2688446044922,-116.22643280029297,-93.43817901611328,-91.637939453125
0.13492774963378906,1.4116888046264648,-98.75447082519531,137.2688446044922,-116.22643280029297,-93.43817901611328,-91.637939453125
0.13722825050354004,1.4116888046264648,-98.75447082519531,137.2688446044922,-116.22643280029297,-93.43817901611328,-91.637939453125
0.1394355297088623,1.4116888046264648,-98.75447082519531,137.2688446044922,-116.22643280029297,-93.43817901611328,-91.637939453125
0.14275240898132324,1.4116888046264648,-98.75447082519531,137.2688446044922,-116.22664642333984,-93.43839263916016,-91.63772583007812
0.14505577087402344,1.4116888046264648,-98.75447082519531,137.2688446044922,-116.22664642333984,-93.43839263916016,-91.63772583007812
0.1472477912902832,1.4116888046264648,-98.75447082519531,137.2688446044922,-116.22664642333984,-93.43839263916016,-91.63772583007812
0.14945530891418457,1.4116888046264648,-98.75447082519531,137.2688446044922,-116.22664642333984,-93.43839263916016,-91.63772583007812
0.151641845703125,1.4116888046264648,-98.75447082519531,137.2688446044922,-116.22664642333984,-93.43839263916016,-91.63772583007812
0.15391278266906738,1.4114712476730347,-98.75447082519531,137.26861572265625,-116.22643280029297,-93.43839263916016,-91.63772583007812
0.15619850158691406,1.4114712476730347,-98.75447082519531,137.26861572265625,-116.22643280029297,-93.43839263916016,-91.63772583007812
0.1583724021911621,1.4114712476730347,-98.75447082519531,137.26861572265625,-116.22643280029297,-93.43839263916016,-91.63772583007812
0.16054844856262207,1.4114712476730347,-98.75447082519531,137.26861572265625,-116.22643280029297,-93.43839263916016,-91.63772583007812
0.16279006004333496,1.4116888046264648,-98.75447082519531,137.2688446044922,-116.22664642333984,-93.43839263916016,-91.63772583007812
0.16509008407592773,1.4116888046264648,-98.75447082519531,137.2688446044922,-116.22664642333984,-93.43839263916016,-91.63772583007812
0.1672499179840088,1.4116888046264648,-98.75447082519531,137.2688446044922,-116.22664642333984,-93.43839263916016,-91.63772583007812
0.16943788528442383,1.4116888046264648,-98.75447082519531,137.2688446044922,-116.22664642333984,-93.43839263916016,-91.63772583007812
0.17162370681762695,1.4116888046264648,-98.75447082519531,137.2688446044922,-116.22664642333984,-93.43839263916016,-91.63772583007812
0.17392325401306152,1.4114712476730347,-98.75425720214844,137.2688446044922,-116.22664642333984,-93.43817901611328,-91.637939453125
0.17618560791015625,1.4114712476730347,-98.75425720214844,137.2688446044922,-116.22664642333984,-93.43817901611328,-91.637939453125
0.17835712432861328,1.4114712476730347,-98.75425720214844,137.2688446044922,-116.22664642333984,-93.43817901611328,-91.637939453125
0.18053388595581055,1.4114712476730347,-98.75425720214844,137.2688446044922,-116.22664642333984,-93.43817901611328,-91.637939453125
0.1827692985534668,1.4114712476730347,-98.75447082519531,137.26861572265625,-116.22664642333984,-93.43839263916016,-91.63772583007812
0.1850569248199463,1.4114712476730347,-98.75447082519531,137.26861572265625,-116.22664642333984,-93.43839263916016,-91.63772583007812
0.1872849464416504,1.4114712476730347,-98.75447082519531,137.26861572265625,-116.22664642333984,-93.43839263916016,-91.63772583007812
0.18949174880981445,1.4114712476730347,-98.75447082519531,137.26861572265625,-116.22664642333984,-93.43839263916016,-91.63772583007812
0.19274544715881348,1.4116888046264648,-98.75447082519531,137.2688446044922,-116.22664642333984,-93.43839263916016,-91.63772583007812
0.19499969482421875,1.4116888046264648,-98.75447082519531,137.2688446044922,-116.22664642333984,-93.43839263916016,-91.63772583007812
0.19724011421203613,1.4116888046264648,-98.75447082519531,137.2688446044922,-116.22664642333984,-93.43839263916016,-91.63772583007812
0.19941282272338867,1.4116888046264648,-98.75447082519531,137.2688446044922,-116.22664642333984,-93.43839263916016,-91.63772583007812
0.20159149169921875,1.4116888046264648,-98.75447082519531,137.2688446044922,-116.22664642333984,-93.43839263916016,-91.63772583007812
0.2039024829864502,1.4114712476730347,-98.75425720214844,137.2688446044922,-116.22664642333984,-93.43839263916016,-91.637939453125
0.20618844032287598,1.4114712476730347,-98.75425720214844,137.2688446044922,-116.22664642333984,-93.43839263916016,-91.637939453125
0.2083740234375,1.4114712476730347,-98.75425720214844,137.2688446044922,-116.22664642333984,-93.43839263916016,-91.637939453125
0.21055984497070312,1.4114712476730347,-98.75425720214844,137.2688446044922,-116.22664642333984,-93.43839263916016,-91.637939453125
0.21281981468200684,1.4116888046264648,-98.75425720214844,137.2688446044922,-116.22664642333984,-93.43839263916016,-91.63772583007812
0.21509456634521484,1.4116888046264648,-98.75425720214844,137.2688446044922,-116.22664642333984,-93.43839263916016,-91.63772583007812
0.21725916862487793,1.4116888046264648,-98.75425720214844,137.2688446044922,-116.22664642333984,-93.43839263916016,-91.63772583007812
0.21943211555480957,1.4116888046264648,-98.75425720214844,137.2688446044922,-116.22664642333984,-93.43839263916016,-91.63772583007812
0.22161149978637695,1.4116888046264648,-98.75425720214844,137.2688446044922,-116.22664642333984,-93.43839263916016,-91.63772583007812
0.22388386726379395,1.4114712476730347,-98.75447082519531,137.2688446044922,-116.22664642333984,-93.43839263916016,-91.63772583007812
0.22618317604064941,1.4114712476730347,-98.75447082519531,137.2688446044922,-116.22664642333984,-93.43839263916016,-91.63772583007812
0.22836709022521973,1.4114712476730347,-98.75447082519531,137.2688446044922,-116.22664642333984,-93.43839263916016,-91.63772583007812
0.2305736541748047,1.4114712476730347,-98.75447082519531,137.2688446044922,-116.22664642333984,-93.43839263916016,-91.63772583007812
0.23281192779541016,1.4114712476730347,-98.75447082519531,137.26905822753906,-116.22664642333984,-93.43817901611328,-91.63772583007812
0.23508667945861816,1.4114712476730347,-98.75447082519531,137.26905822753906,-116.22664642333984,-93.43817901611328,-91.63772583007812
0.2372422218322754,1.4114712476730347,-98.75447082519531,137.26905822753906,-116.22664642333984,-93.43817901611328,-91.63772583007812
0.23941969871520996,1.4114712476730347,-98.75447082519531,137.26905822753906,-116.22664642333984,-93.43817901611328,-91.63772583007812
0.24159741401672363,1.4114712476730347,-98.75447082519531,137.26905822753906,-116.22664642333984,-93.43817901611328,-91.63772583007812
0.24387073516845703,1.4116888046264648,-98.75447082519531,137.26861572265625,-116.22643280029297,-93.43817901611328,-91.63772583007812
0.24616265296936035,1.4116888046264648,-98.75447082519531,137.26861572265625,-116.22643280029297,-93.43817901611328,-91.63772583007812
0.24834752082824707,1.4116888046264648,-98.75447082519531,137.26861572265625,-116.22643280029297,-93.43817901611328,-91.63772583007812
0.2505342960357666,1.4116888046264648,-98.75447082519531,137.26861572265625,-116.22643280029297,-93.43817901611328,-91.63772583007812
0.25278139114379883,1.4116888046264648,-98.75425720214844,137.26861572265625,-116.22643280029297,-93.43839263916016,-91.63772583007812
0.2550687789916992,1.4116888046264648,-98.75425720214844,137.26861572265625,-116.22643280029297,-93.43839263916016,-91.63772583007812
0.2572484016418457,1.4116888046264648,-98.75425720214844,137.26861572265625,-116.22643280029297,-93.43839263916016,-91.63772583007812
0.25942254066467285,1.4116888046264648,-98.75425720214844,137.26861572265625,-116.22643280029297,-93.43839263916016,-91.63772583007812
0.26160168647766113,1.4116888046264648,-98.75425720214844,137.26861572265625,-116.22643280029297,-93.43839263916016,-91.63772583007812
0.26386260986328125,1.411906361579895,-98.75425720214844,137.2688446044922,-116.22643280029297,-93.43839263916016,-91.63772583007812
0.2661244869232178,1.411906361579895,-98.75425720214844,137.2688446044922,-116.22643280029297,-93.43839263916016,-91.63772583007812
0.2682805061340332,1.411906361579895,-98.75425720214844,137.2688446044922,-116.22643280029297,-93.43839263916016,-91.63772583007812
0.2704203128814697,1.411906361579895,-98.75425720214844,137.2688446044922,-116.22643280029297,-93.43839263916016,-91.63772583007812
0.27256059646606445,1.411906361579895,-98.75447082519531,137.2688446044922,-116.22664642333984,-93.43839263916016,-91.637939453125
0.2747836112976074,1.411906361579895,-98.75447082519531,137.2688446044922,-116.22664642333984,-93.43839263916016,-91.637939453125
0.2769808769226074,1.411906361579895,-98.75447082519531,137.2688446044922,-116.22664642333984,-93.43839263916016,-91.637939453125
0.2791917324066162,1.411906361579895,-98.75447082519531,137.2688446044922,-116.22664642333984,-93.43839263916016,-91.637939453125
0.2813096046447754,1.411906361579895,-98.75447082519531,137.2688446044922,-116.22664642333984,-93.43839263916016,-91.637939453125
0.28343677520751953,1.4123414754867554,-98.75447082519531,137.2688446044922,-116.22664642333984,-93.43839263916016,-91.63772583007812
0.2855851650238037,1.4123414754867554,-98.75447082519531,137.2688446044922,-116.22664642333984,-93.43839263916016,-91.63772583007812
0.28785157203674316,1.4123414754867554,-98.75447082519531,137.2688446044922,-116.22664642333984,-93.43839263916016,-91.63772583007812
0.29012227058410645,1.4123414754867554,-98.75447082519531,137.2688446044922,-116.22664642333984,-93.43839263916016,-91.63772583007812
0.29241418838500977,1.4121239185333252,-98.75425720214844,137.26861572265625,-116.22664642333984,-93.43839263916016,-91.63772583007812
0.2945992946624756,1.4121239185333252,-98.75425720214844,137.26861572265625,-116.22664642333984,-93.43839263916016,-91.63772583007812
0.2969024181365967,1.4121239185333252,-98.75425720214844,137.26861572265625,-116.22664642333984,-93.43839263916016,-91.63772583007812
0.29918670654296875,1.4121239185333252,-98.75425720214844,137.26861572265625,-116.22664642333984,-93.43839263916016,-91.63772583007812
0.3013725280761719,1.4121239185333252,-98.75425720214844,137.26861572265625,-116.22664642333984,-93.43839263916016,-91.63772583007812
0.3035585880279541,1.4121239185333252,-98.75425720214844,137.2688446044922,-116.22664642333984,-93.43839263916016,-91.63750457763672
0.3058016300201416,1.4121239185333252,-98.75425720214844,137.2688446044922,-116.22664642333984,-93.43839263916016,-91.63750457763672
0.30807018280029297,1.4121239185333252,-98.75425720214844,137.2688446044922,-116.22664642333984,-93.43839263916016,-91.63750457763672
0.3102235794067383,1.4121239185333252,-98.75425720214844,137.2688446044922,-116.22664642333984,-93.43839263916016,-91.63750457763672
0.3127894401550293,1.411906361579895,-98.75425720214844,137.2688446044922,-116.22664642333984,-93.43839263916016,-91.63772583007812
0.31502294540405273,1.411906361579895,-98.75425720214844,137.2688446044922,-116.22664642333984,-93.43839263916016,-91.63772583007812
0.31721949577331543,1.411906361579895,-98.75425720214844,137.2688446044922,-116.22664642333984,-93.43839263916016,-91.63772583007812
0.31940484046936035,1.411906361579895,-98.75425720214844,137.2688446044922,-116.22664642333984,-93.43839263916016,-91.63772583007812
0.32158994674682617,1.411906361579895,-98.75425720214844,137.2688446044922,-116.22664642333984,-93.43839263916016,-91.63772583007812
0.3238823413848877,1.4121239185333252,-98.75425720214844,137.26861572265625,-116.22664642333984,-93.43839263916016,-91.63772583007812
0.32616257667541504,1.4121239185333252,-98.75425720214844,137.26861572265625,-116.22664642333984,-93.43839263916016,-91.63772583007812
0.3283357620239258,1.4121239185333252,-98.75425720214844,137.26861572265625,-116.22664642333984,-93.43839263916016,-91.63772583007812
0.3305180072784424,1.4121239185333252,-98.75425720214844,137.26861572265625,-116.22664642333984,-93.43839263916016,-91.63772583007812
0.3331601619720459,1.411906361579895,-98.75425720214844,137.2688446044922,-116.22643280029297,-93.43817901611328,-91.637939453125
0.3353250026702881,1.411906361579895,-98.75425720214844,137.2688446044922,-116.22643280029297,-93.43817901611328,-91.637939453125
0.3374967575073242,1.411906361579895,-98.75425720214844,137.2688446044922,-116.22643280029297,-93.43817901611328,-91.637939453125
0.3397867679595947,1.411906361579895,-98.75425720214844,137.2688446044922,-116.22643280029297,-93.43817901611328,-91.637939453125
0.3431112766265869,1.4121239185333252,-98.75425720214844,137.2688446044922,-116.22664642333984,-93.43839263916016,-91.63772583007812
0.34527587890625,1.4121239185333252,-98.75425720214844,137.2688446044922,-116.22664642333984,-93.43839263916016,-91.63772583007812
0.34744930267333984,1.4121239185333252,-98.75425720214844,137.2688446044922,-116.22664642333984,-93.43839263916016,-91.63772583007812
0.3496260643005371,1.4121239185333252,-98.75425720214844,137.2688446044922,-116.22664642333984,-93.43839263916016,-91.63772583007812
0.3528711795806885,1.4121239185333252,-98.75447082519531,137.2688446044922,-116.22643280029297,-93.43817901611328,-91.63772583007812
0.3551638126373291,1.4121239185333252,-98.75447082519531,137.2688446044922,-116.22643280029297,-93.43817901611328,-91.63772583007812
0.35735487937927246,1.4121239185333252,-98.75447082519531,137.2688446044922,-116.22643280029297,-93.43817901611328,-91.63772583007812
0.35951781272888184,1.4121239185333252,-98.75447082519531,137.2688446044922,-116.22643280029297,-93.43817901611328,-91.63772583007812
0.3625788688659668,1.4123414754867554,-98.75425720214844,137.26861572265625,-116.22664642333984,-93.43839263916016,-91.63772583007812
0.36487412452697754,1.4123414754867554,-98.75425720214844,137.26861572265625,-116.22664642333984,-93.43839263916016,-91.63772583007812
0.3671591281890869,1.4123414754867554,-98.75425720214844,137.26861572265625,-116.22664642333984,-93.43839263916016,-91.63772583007812
0.36933183670043945,1.4123414754867554,-98.75425720214844,137.26861572265625,-116.22664642333984,-93.43839263916016,-91.63772583007812
0.3715181350708008,1.4123414754867554,-98.75425720214844,137.26861572265625,-116.22664642333984,-93.43839263916016,-91.63772583007812
0.373812198638916,1.4121239185333252,-98.75447082519531,137.26861572265625,-116.22664642333984,-93.43839263916016,-91.63772583007812
0.37607288360595703,1.4121239185333252,-98.75447082519531,137.26861572265625,-116.22664642333984,-93.43839263916016,-91.63772583007812
0.37820911407470703,1.4121239185333252,-98.75447082519531,137.26861572265625,-116.22664642333984,-93.43839263916016,-91.63772583007812
0.38035082817077637,1.4121239185333252,-98.75447082519531,137.26861572265625,-116.22664642333984,-93.43839263916016,-91.63772583007812
0.3824770450592041,1.4121239185333252,-98.75447082519531,137.26861572265625,-116.22643280029297,-93.43839263916016,-91.63772583007812
0.38463258743286133,1.4121239185333252,-98.75447082519531,137.26861572265625,-116.22643280029297,-93.43839263916016,-91.63772583007812
0.3868997097015381,1.4121239185333252,-98.75447082519531,137.26861572265625,-116.22643280029297,-93.43839263916016,-91.63772583007812
0.38916754722595215,1.4121239185333252,-98.75447082519531,137.26861572265625,-116.22643280029297,-93.43839263916016,-91.63772583007812
0.391340970993042,1.4121239185333252,-98.75447082519531,137.26861572265625,-116.22643280029297,-93.43839263916016,-91.63772583007812
0.39350414276123047,1.4121239185333252,-98.75447082519531,137.2688446044922,-116.22664642333984,-93.43839263916016,-91.63750457763672
0.39568161964416504,1.4121239185333252,-98.75447082519531,137.2688446044922,-116.22664642333984,-93.43839263916016,-91.63750457763672
0.39793968200683594,1.4121239185333252,-98.75447082519531,137.2688446044922,-116.22664642333984,-93.43839263916016,-91.63750457763672
0.40020227432250977,1.4121239185333252,-98.75447082519531,137.2688446044922,-116.22664642333984,-93.43839263916016,-91.63750457763672
0.40273237228393555,1.4121239185333252,-98.75447082519531,137.2688446044922,-116.22643280029297,-93.43817901611328,-91.63772583007812
0.4050297737121582,1.4121239185333252,-98.75447082519531,137.2688446044922,-116.22643280029297,-93.43817901611328,-91.63772583007812
0.4072573184967041,1.4121239185333252,-98.75447082519531,137.2688446044922,-116.22643280029297,-93.43817901611328,-91.63772583007812
0.4094417095184326,1.4121239185333252,-98.75447082519531,137.2688446044922,-116.22643280029297,-93.43817901611328,-91.63772583007812
0.41162800788879395,1.4121239185333252,-98.75447082519531,137.2688446044922,-116.22643280029297,-93.43817901611328,-91.63772583007812
0.4139244556427002,1.4121239185333252,-98.75447082519531,137.2688446044922,-116.22664642333984,-93.43839263916016,-91.63772583007812
0.4162013530731201,1.4121239185333252,-98.75447082519531,137.2688446044922,-116.22664642333984,-93.43839263916016,-91.63772583007812
0.41837191581726074,1.4121239185333252,-98.75447082519531,137.2688446044922,-116.22664642333984,-93.43839263916016,-91.63772583007812
0.4205491542816162,1.4121239185333252,-98.75447082519531,137.2688446044922,-116.22664642333984,-93.43839263916016,-91.63772583007812
0.42278552055358887,1.411906361579895,-98.75447082519531,137.26861572265625,-116.22664642333984,-93.43839263916016,-91.63772583007812
0.42508840560913086,1.411906361579895,-98.75447082519531,137.26861572265625,-116.22664642333984,-93.43839263916016,-91.63772583007812
0.42725253105163574,1.411906361579895,-98.75447082519531,137.26861572265625,-116.22664642333984,-93.43839263916016,-91.63772583007812
0.4294588565826416,1.411906361579895,-98.75447082519531,137.26861572265625,-116.22664642333984,-93.43839263916016,-91.63772583007812
0.43164706230163574,1.411906361579895,-98.75447082519531,137.26861572265625,-116.22664642333984,-93.43839263916016,-91.63772583007812
0.433912992477417,1.4121239185333252,-98.75447082519531,137.2688446044922,-116.22643280029297,-93.43817901611328,-91.63750457763672
0.4362053871154785,1.4121239185333252,-98.75447082519531,137.2688446044922,-116.22643280029297,-93.43817901611328,-91.63750457763672
0.4383690357208252,1.4121239185333252,-98.75447082519531,137.2688446044922,-116.22643280029297,-93.43817901611328,-91.63750457763672
0.44054532051086426,1.4121239185333252,-98.75447082519531,137.2688446044922,-116.22643280029297,-93.43817901611328,-91.63750457763672
0.4427783489227295,1.4121239185333252,-98.75447082519531,137.2688446044922,-116.22664642333984,-93.43839263916016,-91.63750457763672
0.4450523853302002,1.4121239185333252,-98.75447082519531,137.2688446044922,-116.22664642333984,-93.43839263916016,-91.63750457763672
0.4472482204437256,1.4121239185333252,-98.75447082519531,137.2688446044922,-116.22664642333984,-93.43839263916016,-91.63750457763672
0.44942164421081543,1.4121239185333252,-98.75447082519531,137.2688446044922,-116.22664642333984,-93.43839263916016,-91.63750457763672
0.4515995979309082,1.4121239185333252,-98.75447082519531,137.2688446044922,-116.22664642333984,-93.43839263916016,-91.63750457763672
0.4539029598236084,1.4121239185333252,-98.75425720214844,137.2688446044922,-116.22664642333984,-93.43817901611328,-91.63772583007812
0.4561896324157715,1.4121239185333252,-98.75425720214844,137.2688446044922,-116.22664642333984,-93.43817901611328,-91.63772583007812
0.4583728313446045,1.4121239185333252,-98.75425720214844,137.2688446044922,-116.22664642333984,-93.43817901611328,-91.63772583007812
0.4605593681335449,1.4121239185333252,-98.75425720214844,137.2688446044922,-116.22664642333984,-93.43817901611328,-91.63772583007812
0.4627988338470459,1.4121239185333252,-98.75425720214844,137.2688446044922,-116.22664642333984,-93.43839263916016,-91.637939453125
0.4650695323944092,1.4121239185333252,-98.75425720214844,137.2688446044922,-116.22664642333984,-93.43839263916016,-91.637939453125
0.46723341941833496,1.4121239185333252,-98.75425720214844,137.2688446044922,-116.22664642333984,-93.43839263916016,-91.637939453125
0.4694061279296875,1.4121239185333252,-98.75425720214844,137.2688446044922,-116.22664642333984,-93.43839263916016,-91.637939453125
0.47158360481262207,1.4121239185333252,-98.75425720214844,137.2688446044922,-116.22664642333984,-93.43839263916016,-91.637939453125
0.4738762378692627,1.4121239185333252,-98.75425720214844,137.2688446044922,-116.22686767578125,-93.43817901611328,-91.637939453125
0.4760780334472656,1.4121239185333252,-98.75425720214844,137.2688446044922,-116.22686767578125,-93.43817901611328,-91.637939453125
0.4782421588897705,1.4121239185333252,-98.75425720214844,137.2688446044922,-116.22686767578125,-93.43817901611328,-91.637939453125
0.4803907871246338,1.4121239185333252,-98.75425720214844,137.2688446044922,-116.22686767578125,-93.43817901611328,-91.637939453125
0.48254895210266113,1.4121239185333252,-98.75447082519531,137.26861572265625,-116.22664642333984,-93.43839263916016,-91.63772583007812
0.48479795455932617,1.4121239185333252,-98.75447082519531,137.26861572265625,-116.22664642333984,-93.43839263916016,-91.63772583007812
0.4869651794433594,1.4121239185333252,-98.75447082519531,137.26861572265625,-116.22664642333984,-93.43839263916016,-91.63772583007812
0.48921847343444824,1.4121239185333252,-98.75447082519531,137.26861572265625,-116.22664642333984,-93.43839263916016,-91.63772583007812
0.4913661479949951,1.4121239185333252,-98.75447082519531,137.26861572265625,-116.22664642333984,-93.43839263916016,-91.63772583007812
0.49353456497192383,1.4121239185333252,-98.75425720214844,137.26861572265625,-116.22664642333984,-93.43817901611328,-91.63772583007812
0.4957756996154785,1.4121239185333252,-98.75425720214844,137.26861572265625,-116.22664642333984,-93.43817901611328,-91.63772583007812
0.4980735778808594,1.4121239185333252,-98.75425720214844,137.26861572265625,-116.22664642333984,-93.43817901611328,-91.63772583007812
0.5002903938293457,1.4121239185333252,-98.75425720214844,137.26861572265625,-116.22664642333984,-93.43817901611328,-91.63772583007812
0.5028624534606934,1.4121239185333252,-98.75403594970703,137.2688446044922,-116.22664642333984,-93.43861389160156,-91.63772583007812
0.5051465034484863,1.4121239185333252,-98.75403594970703,137.2688446044922,-116.22664642333984,-93.43861389160156,-91.63772583007812
0.5073180198669434,1.4121239185333252,-98.75403594970703,137.2688446044922,-116.22664642333984,-93.43861389160156,-91.63772583007812
0.5094916820526123,1.4121239185333252,-98.75403594970703,137.2688446044922,-116.22664642333984,-93.43861389160156,-91.63772583007812
0.512723445892334,1.4121239185333252,-98.75425720214844,137.2688446044922,-116.22664642333984,-93.43839263916016,-91.63772583007812
0.5150210857391357,1.4121239185333252,-98.75425720214844,137.2688446044922,-116.22664642333984,-93.43839263916016,-91.63772583007812
0.5172593593597412,1.4121239185333252,-98.75425720214844,137.2688446044922,-116.22664642333984,-93.43839263916016,-91.63772583007812
0.5194656848907471,1.4121239185333252,-98.75425720214844,137.2688446044922,-116.22664642333984,-93.43839263916016,-91.63772583007812
0.5227577686309814,1.4121239185333252,-98.75447082519531,137.26861572265625,-116.22664642333984,-93.43839263916016,-91.637939453125
0.5249810218811035,1.4121239185333252,-98.75447082519531,137.26861572265625,-116.22664642333984,-93.43839263916016,-91.637939453125
0.5272576808929443,1.4121239185333252,-98.75447082519531,137.26861572265625,-116.22664642333984,-93.43839263916016,-91.637939453125
0.5294303894042969,1.4121239185333252,-98.75447082519531,137.26861572265625,-116.22664642333984,-93.43839263916016,-91.637939453125
0.5326073169708252,1.4121239185333252,-98.75447082519531,137.26861572265625,-116.22664642333984,-93.43839263916016,-91.63750457763672
0.5348989963531494,1.4121239185333252,-98.75447082519531,137.26861572265625,-116.22664642333984,-93.43839263916016,-91.63750457763672
0.537193775177002,1.4121239185333252,-98.75447082519531,137.26861572265625,-116.22664642333984,-93.43839263916016,-91.63750457763672
0.5393800735473633,1.4121239185333252,-98.75447082519531,137.26861572265625,-116.22664642333984,-93.43839263916016,-91.63750457763672
0.5415666103363037,1.4121239185333252,-98.75447082519531,137.26861572265625,-116.22664642333984,-93.43839263916016,-91.63750457763672
0.5438697338104248,1.4121239185333252,-98.75425720214844,137.26861572265625,-116.22664642333984,-93.43839263916016,-91.637939453125
0.5461642742156982,1.4121239185333252,-98.75425720214844,137.26861572265625,-116.22664642333984,-93.43839263916016,-91.637939453125
0.5483505725860596,1.4121239185333252,-98.75425720214844,137.26861572265625,-116.22664642333984,-93.43839263916016,-91.637939453125
0.5505361557006836,1.4121239185333252,-98.75425720214844,137.26861572265625,-116.22664642333984,-93.43839263916016,-91.637939453125
0.5527830123901367,1.4121239185333252,-98.75447082519531,137.26861572265625,-116.22643280029297,-93.43839263916016,-91.63750457763672
0.5550713539123535,1.4121239185333252,-98.75447082519531,137.26861572265625,-116.22643280029297,-93.43839263916016,-91.63750457763672
0.557239294052124,1.4121239185333252,-98.75447082519531,137.26861572265625,-116.22643280029297,-93.43839263916016,-91.63750457763672
0.559412956237793,1.4121239185333252,-98.75447082519531,137.26861572265625,-116.22643280029297,-93.43839263916016,-91.63750457763672
0.5616114139556885,1.4121239185333252,-98.75447082519531,137.26861572265625,-116.22643280029297,-93.43839263916016,-91.63750457763672
0.5639019012451172,1.4121239185333252,-98.75447082519531,137.2688446044922,-116.22664642333984,-93.43839263916016,-91.637939453125
0.5661962032318115,1.4121239185333252,-98.75447082519531,137.2688446044922,-116.22664642333984,-93.43839263916016,-91.637939453125
0.5683796405792236,1.4121239185333252,-98.75447082519531,137.2688446044922,-116.22664642333984,-93.43839263916016,-91.637939453125
0.5705668926239014,1.4121239185333252,-98.75447082519531,137.2688446044922,-116.22664642333984,-93.43839263916016,-91.637939453125
0.5728268623352051,1.4121239185333252,-98.75447082519531,137.26861572265625,-116.22664642333984,-93.43839263916016,-91.63772583007812
0.57509446144104,1.4121239185333252,-98.75447082519531,137.26861572265625,-116.22664642333984,-93.43839263916016,-91.63772583007812
0.5772495269775391,1.4121239185333252,-98.75447082519531,137.26861572265625,-116.22664642333984,-93.43839263916016,-91.63772583007812
0.5794227123260498,1.4121239185333252,-98.75447082519531,137.26861572265625,-116.22664642333984,-93.43839263916016,-91.63772583007812
0.5816001892089844,1.4121239185333252,-98.75447082519531,137.26861572265625,-116.22664642333984,-93.43839263916016,-91.63772583007812
0.5838706493377686,1.4121239185333252,-98.75447082519531,137.2688446044922,-116.22664642333984,-93.43839263916016,-91.637939453125
0.5861644744873047,1.4121239185333252,-98.75447082519531,137.2688446044922,-116.22664642333984,-93.43839263916016,-91.637939453125
0.5883481502532959,1.4121239185333252,-98.75447082519531,137.2688446044922,-116.22664642333984,-93.43839263916016,-91.637939453125
0.5905330181121826,1.4121239185333252,-98.75447082519531,137.2688446044922,-116.22664642333984,-93.43839263916016,-91.637939453125
0.5929965972900391,1.411906361579895,-98.75425720214844,137.26861572265625,-116.22664642333984,-93.43839263916016,-91.637939453125
0.5952305793762207,1.411906361579895,-98.75425720214844,137.26861572265625,-116.22664642333984,-93.43839263916016,-91.637939453125
0.5974042415618896,1.411906361579895,-98.75425720214844,137.26861572265625,-116.22664642333984,-93.43839263916016,-91.637939453125
0.5995817184448242,1.411906361579895,-98.75425720214844,137.26861572265625,-116.22664642333984,-93.43839263916016,-91.637939453125
0.6027939319610596,1.4121239185333252,-98.75447082519531,137.26861572265625,-116.22664642333984,-93.43817901611328,-91.637939453125
0.605065107345581,1.4121239185333252,-98.75447082519531,137.26861572265625,-116.22664642333984,-93.43817901611328,-91.637939453125
0.6072278022766113,1.4121239185333252,-98.75447082519531,137.26861572265625,-116.22664642333984,-93.43817901611328,-91.637939453125
0.6094002723693848,1.4121239185333252,-98.75447082519531,137.26861572265625,-116.22664642333984,-93.43817901611328,-91.637939453125
0.6115801334381104,1.4121239185333252,-98.75447082519531,137.26861572265625,-116.22664642333984,-93.43817901611328,-91.637939453125
0.6138911247253418,1.4123414754867554,-98.75425720214844,137.2688446044922,-116.22643280029297,-93.43839263916016,-91.637939453125
0.6161785125732422,1.4123414754867554,-98.75425720214844,137.2688446044922,-116.22643280029297,-93.43839263916016,-91.637939453125
0.6183643341064453,1.4123414754867554,-98.75425720214844,137.2688446044922,-116.22643280029297,-93.43839263916016,-91.637939453125
0.6205489635467529,1.4123414754867554,-98.75425720214844,137.2688446044922,-116.22643280029297,-93.43839263916016,-91.637939453125
0.6227915287017822,1.4121239185333252,-98.75425720214844,137.26861572265625,-116.22664642333984,-93.43839263916016,-91.63772583007812
0.6250793933868408,1.4121239185333252,-98.75425720214844,137.26861572265625,-116.22664642333984,-93.43839263916016,-91.63772583007812
0.6272680759429932,1.4121239185333252,-98.75425720214844,137.26861572265625,-116.22664642333984,-93.43839263916016,-91.63772583007812
0.6294553279876709,1.4121239185333252,-98.75425720214844,137.26861572265625,-116.22664642333984,-93.43839263916016,-91.63772583007812
0.631643533706665,1.4121239185333252,-98.75425720214844,137.26861572265625,-116.22664642333984,-93.43839263916016,-91.63772583007812
0.6339206695556641,1.4121239185333252,-98.75447082519531,137.26861572265625,-116.22664642333984,-93.43839263916016,-91.63772583007812
0.6362006664276123,1.4121239185333252,-98.75447082519531,137.26861572265625,-116.22664642333984,-93.43839263916016,-91.63772583007812
0.6383848190307617,1.4121239185333252,-98.75447082519531,137.26861572265625,-116.22664642333984,-93.43839263916016,-91.63772583007812
0.6405713558197021,1.4121239185333252,-98.75447082519531,137.26861572265625,-116.22664642333984,-93.43839263916016,-91.63772583007812
0.6428134441375732,1.4121239185333252,-98.75447082519531,137.26861572265625,-116.22643280029297,-93.43817901611328,-91.637939453125
0.6451113224029541,1.4121239185333252,-98.75447082519531,137.26861572265625,-116.22643280029297,-93.43817901611328,-91.637939453125
0.6472752094268799,1.4121239185333252,-98.75447082519531,137.26861572265625,-116.22643280029297,-93.43817901611328,-91.637939453125
0.6494474411010742,1.4121239185333252,-98.75447082519531,137.26861572265625,-116.22643280029297,-93.43817901611328,-91.637939453125
0.6516261100769043,1.4121239185333252,-98.75447082519531,137.26861572265625,-116.22643280029297,-93.43817901611328,-91.637939453125
0.6539316177368164,1.4121239185333252,-98.75447082519531,137.2688446044922,-116.22686767578125,-93.43817901611328,-91.63772583007812
0.6562294960021973,1.4121239185333252,-98.75447082519531,137.2688446044922,-116.22686767578125,-93.43817901611328,-91.63772583007812
0.6584146022796631,1.4121239185333252,-98.75447082519531,137.2688446044922,-116.22686767578125,-93.43817901611328,-91.63772583007812
0.6606016159057617,1.4121239185333252,-98.75447082519531,137.2688446044922,-116.22686767578125,-93.43817901611328,-91.63772583007812
0.6628453731536865,1.411906361579895,-98.75447082519531,137.26905822753906,-116.22708129882812,-93.4375228881836,-91.63772583007812
0.6651144027709961,1.411906361579895,-98.75447082519531,137.26905822753906,-116.22708129882812,-93.4375228881836,-91.63772583007812
0.6672625541687012,1.411906361579895,-98.75447082519531,137.26905822753906,-116.22708129882812,-93.4375228881836,-91.63772583007812
0.6694357395172119,1.411906361579895,-98.75447082519531,137.26905822753906,-116.22708129882812,-93.4375228881836,-91.63772583007812
0.6716139316558838,1.411906361579895,-98.75447082519531,137.26905822753906,-116.22708129882812,-93.4375228881836,-91.63772583007812
0.6739165782928467,1.4108185768127441,-98.75534057617188,137.27166748046875,-116.22795104980469,-93.43382263183594,-91.63772583007812
0.6761727333068848,1.4108185768127441,-98.75534057617188,137.27166748046875,-116.22795104980469,-93.43382263183594,-91.63772583007812
0.6783380508422852,1.4108185768127441,-98.75534057617188,137.27166748046875,-116.22795104980469,-93.43382263183594,-91.63772583007812
0.6804873943328857,1.4108185768127441,-98.75534057617188,137.27166748046875,-116.22795104980469,-93.43382263183594,-91.63772583007812
0.682755708694458,1.4073377847671509,-98.75773620605469,137.28102111816406,-116.22599792480469,-93.43534851074219,-91.63772583007812
0.6850681304931641,1.4073377847671509,-98.75773620605469,137.28102111816406,-116.22599792480469,-93.43534851074219,-91.63772583007812
0.6872413158416748,1.4073377847671509,-98.75773620605469,137.28102111816406,-116.22599792480469,-93.43534851074219,-91.63772583007812
0.6894159317016602,1.4073377847671509,-98.75773620605469,137.28102111816406,-116.22599792480469,-93.43534851074219,-91.63772583007812
0.6916027069091797,1.4073377847671509,-98.75773620605469,137.28102111816406,-116.22599792480469,-93.43534851074219,-91.63772583007812
0.6938893795013428,1.40625,-98.75968933105469,137.2947235107422,-116.22686767578125,-93.43687438964844,-91.637939453125
0.6961512565612793,1.40625,-98.75968933105469,137.2947235107422,-116.22686767578125,-93.43687438964844,-91.637939453125
0.6983203887939453,1.40625,-98.75968933105469,137.2947235107422,-116.22686767578125,-93.43687438964844,-91.637939453125
0.700493574142456,1.40625,-98.75968933105469,137.2947235107422,-116.22686767578125,-93.43687438964844,-91.637939453125
0.7027320861816406,1.409295678138733,-98.76078033447266,137.31234741210938,-116.22686767578125,-93.43643951416016,-91.637939453125
0.7050175666809082,1.409295678138733,-98.76078033447266,137.31234741210938,-116.22686767578125,-93.43643951416016,-91.637939453125
0.7072563171386719,1.409295678138733,-98.76078033447266,137.31234741210938,-116.22686767578125,-93.43643951416016,-91.637939453125
0.7094428539276123,1.409295678138733,-98.76078033447266,137.31234741210938,-116.22686767578125,-93.43643951416016,-91.637939453125
0.7116291522979736,1.409295678138733,-98.76078033447266,137.31234741210938,-116.22686767578125,-93.43643951416016,-91.637939453125
0.7139298915863037,1.4114712476730347,-98.76056671142578,137.3317108154297,-116.22577667236328,-93.43600463867188,-91.637939453125
0.7162113189697266,1.4114712476730347,-98.76056671142578,137.3317108154297,-116.22577667236328,-93.43600463867188,-91.637939453125
0.7183833122253418,1.4114712476730347,-98.76056671142578,137.3317108154297,-116.22577667236328,-93.43600463867188,-91.637939453125
0.7205603122711182,1.4114712476730347,-98.76056671142578,137.3317108154297,-116.22577667236328,-93.43600463867188,-91.637939453125
0.7227990627288818,1.4114712476730347,-98.75860595703125,137.34933471679688,-116.2255630493164,-93.43665313720703,-91.63772583007812
0.7250919342041016,1.4114712476730347,-98.75860595703125,137.34933471679688,-116.2255630493164,-93.43665313720703,-91.63772583007812
0.727247953414917,1.4114712476730347,-98.75860595703125,137.34933471679688,-116.2255630493164,-93.43665313720703,-91.63772583007812
0.7294220924377441,1.4114712476730347,-98.75860595703125,137.34933471679688,-116.2255630493164,-93.43665313720703,-91.63772583007812
0.7316021919250488,1.4114712476730347,-98.75860595703125,137.34933471679688,-116.2255630493164,-93.43665313720703,-91.63772583007812
0.7338743209838867,1.4121239185333252,-98.75577545166016,137.3636932373047,-116.22577667236328,-93.43643951416016,-91.637939453125
0.7361750602722168,1.4121239185333252,-98.75577545166016,137.3636932373047,-116.22577667236328,-93.43643951416016,-91.637939453125
0.7383580207824707,1.4121239185333252,-98.75577545166016,137.3636932373047,-116.22577667236328,-93.43643951416016,-91.637939453125
0.7405428886413574,1.4121239185333252,-98.75577545166016,137.3636932373047,-116.22577667236328,-93.43643951416016,-91.637939453125
0.7427845001220703,1.4134291410446167,-98.75447082519531,137.37457275390625,-116.225341796875,-93.43621826171875,-91.63750457763672
0.7450854778289795,1.4134291410446167,-98.75447082519531,137.37457275390625,-116.225341796875,-93.43621826171875,-91.63750457763672
0.747251033782959,1.4134291410446167,-98.75447082519531,137.37457275390625,-116.225341796875,-93.43621826171875,-91.63750457763672
0.7494368553161621,1.4134291410446167,-98.75447082519531,137.37457275390625,-116.225341796875,-93.43621826171875,-91.63750457763672
0.7516236305236816,1.4134291410446167,-98.75447082519531,137.37457275390625,-116.225341796875,-93.43621826171875,-91.63750457763672
0.7539303302764893,1.4136466979980469,-98.75425720214844,137.381103515625,-116.22577667236328,-93.43621826171875,-91.63772583007812
0.7561960220336914,1.4136466979980469,-98.75425720214844,137.381103515625,-116.22577667236328,-93.43621826171875,-91.63772583007812
0.7583675384521484,1.4136466979980469,-98.75425720214844,137.381103515625,-116.22577667236328,-93.43621826171875,-91.63772583007812
0.7605447769165039,1.4136466979980469,-98.75425720214844,137.381103515625,-116.22577667236328,-93.43621826171875,-91.63772583007812
0.7628304958343506,1.4116888046264648,-98.75469207763672,137.3837127685547,-116.22599792480469,-93.43708801269531,-91.63772583007812
0.7651464939117432,1.4116888046264648,-98.75469207763672,137.3837127685547,-116.22599792480469,-93.43708801269531,-91.63772583007812
0.7673330307006836,1.4116888046264648,-98.75469207763672,137.3837127685547,-116.22599792480469,-93.43708801269531,-91.63772583007812
0.7695202827453613,1.4116888046264648,-98.75469207763672,137.3837127685547,-116.22599792480469,-93.43708801269531,-91.63772583007812
0.772759199142456,1.4103834629058838,-98.755126953125,137.3837127685547,-116.22621154785156,-93.43730926513672,-91.63772583007812
0.7749953269958496,1.4103834629058838,-98.755126953125,137.3837127685547,-116.22621154785156,-93.43730926513672,-91.63772583007812
0.7772068977355957,1.4103834629058838,-98.755126953125,137.3837127685547,-116.22621154785156,-93.43730926513672,-91.63772583007812
0.7793478965759277,1.4103834629058838,-98.755126953125,137.3837127685547,-116.22621154785156,-93.43730926513672,-91.63772583007812
0.781491756439209,1.4103834629058838,-98.755126953125,137.3837127685547,-116.22621154785156,-93.43730926513672,-91.63772583007812
0.7836606502532959,1.4112536907196045,-98.75534057617188,137.38218688964844,-116.22664642333984,-93.43687438964844,-91.63772583007812
0.7859020233154297,1.4112536907196045,-98.75534057617188,137.38218688964844,-116.22664642333984,-93.43687438964844,-91.63772583007812
0.7881543636322021,1.4112536907196045,-98.75534057617188,137.38218688964844,-116.22664642333984,-93.43687438964844,-91.63772583007812
0.7902858257293701,1.4112536907196045,-98.75534057617188,137.38218688964844,-116.22664642333984,-93.43687438964844,-91.63772583007812
0.7924275398254395,1.4125590324401855,-98.75469207763672,137.38131713867188,-116.22708129882812,-93.43621826171875,-91.637939453125
0.7945950031280518,1.4125590324401855,-98.75469207763672,137.38131713867188,-116.22708129882812,-93.43621826171875,-91.637939453125
0.7968556880950928,1.4125590324401855,-98.75469207763672,137.38131713867188,-116.22708129882812,-93.43621826171875,-91.637939453125
0.7991642951965332,1.4125590324401855,-98.75469207763672,137.38131713867188,-116.22708129882812,-93.43621826171875,-91.637939453125
0.8013501167297363,1.4125590324401855,-98.75469207763672,137.38131713867188,-116.22708129882812,-93.43621826171875,-91.637939453125
0.8035376071929932,1.4132115840911865,-98.75447082519531,137.38218688964844,-116.22643280029297,-93.43643951416016,-91.637939453125
0.805856466293335,1.4132115840911865,-98.75447082519531,137.38218688964844,-116.22643280029297,-93.43643951416016,-91.637939453125
0.8081634044647217,1.4132115840911865,-98.75447082519531,137.38218688964844,-116.22643280029297,-93.43643951416016,-91.637939453125
0.8103475570678711,1.4132115840911865,-98.75447082519531,137.38218688964844,-116.22643280029297,-93.43643951416016,-91.637939453125
0.8128230571746826,1.4129940271377563,-98.75469207763672,137.38327026367188,-116.22599792480469,-93.43665313720703,-91.63772583007812
0.8150970935821533,1.4129940271377563,-98.75469207763672,137.38327026367188,-116.22599792480469,-93.43665313720703,-91.63772583007812
0.8172745704650879,1.4129940271377563,-98.75469207763672,137.38327026367188,-116.22599792480469,-93.43665313720703,-91.63772583007812
0.8194484710693359,1.4129940271377563,-98.75469207763672,137.38327026367188,-116.22599792480469,-93.43665313720703,-91.63772583007812
0.8216273784637451,1.4129940271377563,-98.75469207763672,137.38327026367188,-116.22599792480469,-93.43665313720703,-91.63772583007812
0.8238883018493652,1.4129940271377563,-98.755126953125,137.383056640625,-116.22643280029297,-93.43665313720703,-91.63772583007812
0.826157808303833,1.4129940271377563,-98.755126953125,137.383056640625,-116.22643280029297,-93.43665313720703,-91.63772583007812
0.8283312320709229,1.4129940271377563,-98.755126953125,137.383056640625,-116.22643280029297,-93.43665313720703,-91.63772583007812
0.830507755279541,1.4129940271377563,-98.755126953125,137.383056640625,-116.22643280029297,-93.43665313720703,-91.63772583007812
0.8327438831329346,1.4125590324401855,-98.75534057617188,137.38218688964844,-116.22686767578125,-93.43665313720703,-91.63772583007812
0.8350224494934082,1.4125590324401855,-98.75534057617188,137.38218688964844,-116.22686767578125,-93.43665313720703,-91.63772583007812
0.8372631072998047,1.4125590324401855,-98.75534057617188,137.38218688964844,-116.22686767578125,-93.43665313720703,-91.63772583007812
0.8394374847412109,1.4125590324401855,-98.75534057617188,137.38218688964844,-116.22686767578125,-93.43665313720703,-91.63772583007812
0.8426101207733154,1.411906361579895,-98.75534057617188,137.38174438476562,-116.22708129882812,-93.43687438964844,-91.63772583007812
0.8448731899261475,1.411906361579895,-98.75534057617188,137.38174438476562,-116.22708129882812,-93.43687438964844,-91.63772583007812
0.8471882343292236,1.411906361579895,-98.75534057617188,137.38174438476562,-116.22708129882812,-93.43687438964844,-91.63772583007812
0.8493623733520508,1.411906361579895,-98.75534057617188,137.38174438476562,-116.22708129882812,-93.43687438964844,-91.63772583007812
0.8516066074371338,1.411906361579895,-98.75534057617188,137.38174438476562,-116.22708129882812,-93.43687438964844,-91.63772583007812
0.8538315296173096,1.4116888046264648,-98.75469207763672,137.3826141357422,-116.22643280029297,-93.43708801269531,-91.637939453125
0.8560452461242676,1.4116888046264648,-98.75469207763672,137.3826141357422,-116.22643280029297,-93.43708801269531,-91.637939453125
0.8581953048706055,1.4116888046264648,-98.75469207763672,137.3826141357422,-116.22643280029297,-93.43708801269531,-91.637939453125
0.8603222370147705,1.4116888046264648,-98.75469207763672,137.3826141357422,-116.22643280029297,-93.43708801269531,-91.637939453125
0.8624398708343506,1.4123414754867554,-98.75425720214844,137.38284301757812,-116.22643280029297,-93.43665313720703,-91.63772583007812
0.8645761013031006,1.4123414754867554,-98.75425720214844,137.38284301757812,-116.22643280029297,-93.43665313720703,-91.63772583007812
0.8667593002319336,1.4123414754867554,-98.75425720214844,137.38284301757812,-116.22643280029297,-93.43665313720703,-91.63772583007812
0.8689470291137695,1.4123414754867554,-98.75425720214844,137.38284301757812,-116.22643280029297,-93.43665313720703,-91.63772583007812
0.8711440563201904,1.4123414754867554,-98.75425720214844,137.38284301757812,-116.22643280029297,-93.43665313720703,-91.63772583007812
0.8732616901397705,1.4132115840911865,-98.75425720214844,137.38284301757812,-116.22643280029297,-93.43643951416016,-91.63772583007812
0.8753790855407715,1.4132115840911865,-98.75425720214844,137.38284301757812,-116.22643280029297,-93.43643951416016,-91.63772583007812
0.8775124549865723,1.4132115840911865,-98.75425720214844,137.38284301757812,-116.22643280029297,-93.43643951416016,-91.63772583007812
0.8796231746673584,1.4132115840911865,-98.75425720214844,137.38284301757812,-116.22643280029297,-93.43643951416016,-91.63772583007812
0.8821332454681396,1.4132115840911865,-98.75534057617188,137.3826141357422,-116.22664642333984,-93.43665313720703,-91.63772583007812
0.8842580318450928,1.4132115840911865,-98.75534057617188,137.3826141357422,-116.22664642333984,-93.43665313720703,-91.63772583007812
0.8864014148712158,1.4132115840911865,-98.75534057617188,137.3826141357422,-116.22664642333984,-93.43665313720703,-91.63772583007812
0.8885805606842041,1.4132115840911865,-98.75534057617188,137.3826141357422,-116.22664642333984,-93.43665313720703,-91.63772583007812
0.8907575607299805,1.4132115840911865,-98.75534057617188,137.3826141357422,-116.22664642333984,-93.43665313720703,-91.63772583007812
0.8930082321166992,1.4127765893936157,-98.75577545166016,137.3824005126953,-116.22664642333984,-93.43687438964844,-91.637939453125
0.8952732086181641,1.4127765893936157,-98.75577545166016,137.3824005126953,-116.22664642333984,-93.43687438964844,-91.637939453125
0.8974456787109375,1.4127765893936157,-98.75577545166016,137.3824005126953,-116.22664642333984,-93.43687438964844,-91.637939453125
0.8996305465698242,1.4127765893936157,-98.75577545166016,137.3824005126953,-116.22664642333984,-93.43687438964844,-91.637939453125
0.9029800891876221,1.4121239185333252,-98.75556182861328,137.3826141357422,-116.22664642333984,-93.43665313720703,-91.63772583007812
0.9052400588989258,1.4121239185333252,-98.75556182861328,137.3826141357422,-116.22664642333984,-93.43665313720703,-91.63772583007812
0.9074134826660156,1.4121239185333252,-98.75556182861328,137.3826141357422,-116.22664642333984,-93.43665313720703,-91.63772583007812
0.9095973968505859,1.4121239185333252,-98.75556182861328,137.3826141357422,-116.22664642333984,-93.43665313720703,-91.63772583007812
0.9129962921142578,1.4121239185333252,-98.7549057006836,137.3826141357422,-116.22664642333984,-93.43687438964844,-91.63772583007812
0.9152765274047852,1.4121239185333252,-98.7549057006836,137.3826141357422,-116.22664642333984,-93.43687438964844,-91.63772583007812
0.9174492359161377,1.4121239185333252,-98.7549057006836,137.3826141357422,-116.22664642333984,-93.43687438964844,-91.63772583007812
0.9196338653564453,1.4121239185333252,-98.7549057006836,137.3826141357422,-116.22664642333984,-93.43687438964844,-91.63772583007812
0.9227726459503174,1.4121239185333252,-98.75425720214844,137.3826141357422,-116.22664642333984,-93.43687438964844,-91.63772583007812
0.9250752925872803,1.4121239185333252,-98.75425720214844,137.3826141357422,-116.22664642333984,-93.43687438964844,-91.63772583007812
0.9272599220275879,1.4121239185333252,-98.75425720214844,137.3826141357422,-116.22664642333984,-93.43687438964844,-91.63772583007812
0.9294331073760986,1.4121239185333252,-98.75425720214844,137.3826141357422,-116.22664642333984,-93.43687438964844,-91.63772583007812
0.9316284656524658,1.4121239185333252,-98.75425720214844,137.3826141357422,-116.22664642333984,-93.43687438964844,-91.63772583007812
0.9339308738708496,1.4123414754867554,-98.75425720214844,137.3824005126953,-116.22664642333984,-93.43665313720703,-91.637939453125
0.9362242221832275,1.4123414754867554,-98.75425720214844,137.3824005126953,-116.22664642333984,-93.43665313720703,-91.637939453125
0.9384098052978516,1.4123414754867554,-98.75425720214844,137.3824005126953,-116.22664642333984,-93.43665313720703,-91.637939453125
0.9405961036682129,1.4123414754867554,-98.75425720214844,137.3824005126953,-116.22664642333984,-93.43665313720703,-91.637939453125
0.9429817199707031,1.4127765893936157,-98.7549057006836,137.3826141357422,-116.22643280029297,-93.43643951416016,-91.637939453125
0.9452548027038574,1.4127765893936157,-98.7549057006836,137.3826141357422,-116.22643280029297,-93.43643951416016,-91.637939453125
0.9474267959594727,1.4127765893936157,-98.7549057006836,137.3826141357422,-116.22643280029297,-93.43643951416016,-91.637939453125
0.9496026039123535,1.4127765893936157,-98.7549057006836,137.3826141357422,-116.22643280029297,-93.43643951416016,-91.637939453125
0.9528598785400391,1.4129940271377563,-98.75556182861328,137.38284301757812,-116.22664642333984,-93.43643951416016,-91.63772583007812
0.9551455974578857,1.4129940271377563,-98.75556182861328,137.38284301757812,-116.22664642333984,-93.43643951416016,-91.63772583007812
0.9573159217834473,1.4129940271377563,-98.75556182861328,137.38284301757812,-116.22664642333984,-93.43643951416016,-91.63772583007812
0.9594900608062744,1.4129940271377563,-98.75556182861328,137.38284301757812,-116.22664642333984,-93.43643951416016,-91.63772583007812
0.9627466201782227,1.4127765893936157,-98.75599670410156,137.38284301757812,-116.22643280029297,-93.43665313720703,-91.63772583007812
0.9650294780731201,1.4127765893936157,-98.75599670410156,137.38284301757812,-116.22643280029297,-93.43665313720703,-91.63772583007812
0.9672610759735107,1.4127765893936157,-98.75599670410156,137.38284301757812,-116.22643280029297,-93.43665313720703,-91.63772583007812
0.9694483280181885,1.4127765893936157,-98.75599670410156,137.38284301757812,-116.22643280029297,-93.43665313720703,-91.63772583007812
0.971635103225708,1.4127765893936157,-98.75599670410156,137.38284301757812,-116.22643280029297,-93.43665313720703,-91.63772583007812
0.9739429950714111,1.4121239185333252,-98.75556182861328,137.3824005126953,-116.22643280029297,-93.43687438964844,-91.63750457763672
0.97621750831604,1.4121239185333252,-98.75556182861328,137.3824005126953,-116.22643280029297,-93.43687438964844,-91.63750457763672
0.9783883094787598,1.4121239185333252,-98.75556182861328,137.3824005126953,-116.22643280029297,-93.43687438964844,-91.63750457763672
0.980567216873169,1.4121239185333252,-98.75556182861328,137.3824005126953,-116.22643280029297,-93.43687438964844,-91.63750457763672
0.9828026294708252,1.4121239185333252,-98.7549057006836,137.3826141357422,-116.22664642333984,-93.43665313720703,-91.63772583007812
0.9850072860717773,1.4121239185333252,-98.7549057006836,137.3826141357422,-116.22664642333984,-93.43665313720703,-91.63772583007812
0.987236738204956,1.4121239185333252,-98.7549057006836,137.3826141357422,-116.22664642333984,-93.43665313720703,-91.63772583007812
0.9893841743469238,1.4121239185333252,-98.7549057006836,137.3826141357422,-116.22664642333984,-93.43665313720703,-91.63772583007812
0.9915473461151123,1.4121239185333252,-98.7549057006836,137.3826141357422,-116.22664642333984,-93.43665313720703,-91.63772583007812
0.9938528537750244,1.4121239185333252,-98.75425720214844,137.3826141357422,-116.22664642333984,-93.43687438964844,-91.63772583007812
0.9961156845092773,1.4121239185333252,-98.75425720214844,137.3826141357422,-116.22664642333984,-93.43687438964844,-91.63772583007812
0.9983017444610596,1.4121239185333252,-98.75425720214844,137.3826141357422,-116.22664642333984,-93.43687438964844,-91.63772583007812
1.0004875659942627,1.4121239185333252,-98.75425720214844,137.3826141357422,-116.22664642333984,-93.43687438964844,-91.63772583007812
1.0029137134552002,1.4123414754867554,-98.75425720214844,137.3826141357422,-116.22664642333984,-93.43665313720703,-91.63772583007812
1.0051429271697998,1.4123414754867554,-98.75425720214844,137.3826141357422,-116.22664642333984,-93.43665313720703,-91.63772583007812
1.0073010921478271,1.4123414754867554,-98.75425720214844,137.3826141357422,-116.22664642333984,-93.43665313720703,-91.63772583007812
1.0094242095947266,1.4123414754867554,-98.75425720214844,137.3826141357422,-116.22664642333984,-93.43665313720703,-91.63772583007812
1.012190341949463,1.4127765893936157,-98.755126953125,137.3826141357422,-116.22664642333984,-93.43665313720703,-91.63772583007812
1.0143187046051025,1.4127765893936157,-98.755126953125,137.3826141357422,-116.22664642333984,-93.43665313720703,-91.63772583007812
1.016437292098999,1.4127765893936157,-98.755126953125,137.3826141357422,-116.22664642333984,-93.43665313720703,-91.63772583007812
1.0185725688934326,1.4127765893936157,-98.755126953125,137.3826141357422,-116.22664642333984,-93.43665313720703,-91.63772583007812
1.020763874053955,1.4127765893936157,-98.755126953125,137.3826141357422,-116.22664642333984,-93.43665313720703,-91.63772583007812
1.0229504108428955,1.4127765893936157,-98.75534057617188,137.3826141357422,-116.22664642333984,-93.43665313720703,-91.63772583007812
1.0251553058624268,1.4127765893936157,-98.75534057617188,137.3826141357422,-116.22664642333984,-93.43665313720703,-91.63772583007812
1.0272729396820068,1.4127765893936157,-98.75534057617188,137.3826141357422,-116.22664642333984,-93.43665313720703,-91.63772583007812
1.029390573501587,1.4127765893936157,-98.75534057617188,137.3826141357422,-116.22664642333984,-93.43665313720703,-91.63772583007812
1.0315301418304443,1.4127765893936157,-98.75534057617188,137.3826141357422,-116.22664642333984,-93.43665313720703,-91.63772583007812
1.0337212085723877,1.4127765893936157,-98.75577545166016,137.3826141357422,-116.22643280029297,-93.43665313720703,-91.637939453125
1.035912036895752,1.4127765893936157,-98.75577545166016,137.3826141357422,-116.22643280029297,-93.43665313720703,-91.637939453125
1.0381364822387695,1.4127765893936157,-98.75577545166016,137.3826141357422,-116.22643280029297,-93.43665313720703,-91.637939453125
1.0402553081512451,1.4127765893936157,-98.75577545166016,137.3826141357422,-116.22643280029297,-93.43665313720703,-91.637939453125
1.0424094200134277,1.4123414754867554,-98.75534057617188,137.38284301757812,-116.22643280029297,-93.43665313720703,-91.63772583007812
1.0445473194122314,1.4123414754867554,-98.75534057617188,137.38284301757812,-116.22643280029297,-93.43665313720703,-91.63772583007812
1.0467469692230225,1.4123414754867554,-98.75534057617188,137.38284301757812,-116.22643280029297,-93.43665313720703,-91.63772583007812
1.0489580631256104,1.4123414754867554,-98.75534057617188,137.38284301757812,-116.22643280029297,-93.43665313720703,-91.63772583007812
1.0512490272521973,1.4123414754867554,-98.75534057617188,137.38284301757812,-116.22643280029297,-93.43665313720703,-91.63772583007812
1.0534029006958008,1.411906361579895,-98.75469207763672,137.3826141357422,-116.22664642333984,-93.43665313720703,-91.63772583007812
1.0555922985076904,1.411906361579895,-98.75469207763672,137.3826141357422,-116.22664642333984,-93.43665313720703,-91.63772583007812
1.0578255653381348,1.411906361579895,-98.75469207763672,137.3826141357422,-116.22664642333984,-93.43665313720703,-91.63772583007812
1.0600883960723877,1.411906361579895,-98.75469207763672,137.3826141357422,-116.22664642333984,-93.43665313720703,-91.63772583007812
1.0630698204040527,1.4121239185333252,-98.75447082519531,137.3826141357422,-116.22664642333984,-93.43687438964844,-91.63772583007812
1.0652399063110352,1.4121239185333252,-98.75447082519531,137.3826141357422,-116.22664642333984,-93.43687438964844,-91.63772583007812
1.067396879196167,1.4121239185333252,-98.75447082519531,137.3826141357422,-116.22664642333984,-93.43687438964844,-91.63772583007812
1.0695455074310303,1.4121239185333252,-98.75447082519531,137.3826141357422,-116.22664642333984,-93.43687438964844,-91.63772583007812
1.07234787940979,1.4125590324401855,-98.75469207763672,137.3826141357422,-116.22664642333984,-93.43665313720703,-91.637939453125
1.0745007991790771,1.4125590324401855,-98.75469207763672,137.3826141357422,-116.22664642333984,-93.43665313720703,-91.637939453125
1.0768489837646484,1.4125590324401855,-98.75469207763672,137.3826141357422,-116.22664642333984,-93.43665313720703,-91.637939453125
1.079172134399414,1.4125590324401855,-98.75469207763672,137.3826141357422,-116.22664642333984,-93.43665313720703,-91.637939453125
1.0813565254211426,1.4125590324401855,-98.75469207763672,137.3826141357422,-116.22664642333984,-93.43665313720703,-91.637939453125
1.083533525466919,1.4125590324401855,-98.755126953125,137.3826141357422,-116.22643280029297,-93.43687438964844,-91.63772583007812
1.085810661315918,1.4125590324401855,-98.755126953125,137.3826141357422,-116.22643280029297,-93.43687438964844,-91.63772583007812
1.088050365447998,1.4125590324401855,-98.755126953125,137.3826141357422,-116.22643280029297,-93.43687438964844,-91.63772583007812
1.090224266052246,1.4125590324401855,-98.755126953125,137.3826141357422,-116.22643280029297,-93.43687438964844,-91.63772583007812
1.092778205871582,1.4127765893936157,-98.75556182861328,137.38284301757812,-116.22643280029297,-93.43687438964844,-91.63772583007812
1.0950698852539062,1.4127765893936157,-98.75556182861328,137.38284301757812,-116.22643280029297,-93.43687438964844,-91.63772583007812
1.0972998142242432,1.4127765893936157,-98.75556182861328,137.38284301757812,-116.22643280029297,-93.43687438964844,-91.63772583007812
1.0994744300842285,1.4127765893936157,-98.75556182861328,137.38284301757812,-116.22643280029297,-93.43687438964844,-91.63772583007812
1.1029980182647705,1.4125590324401855,-98.75534057617188,137.3826141357422,-116.22643280029297,-93.43687438964844,-91.63772583007812
1.1052637100219727,1.4125590324401855,-98.75534057617188,137.3826141357422,-116.22643280029297,-93.43687438964844,-91.63772583007812
1.107438087463379,1.4125590324401855,-98.75534057617188,137.3826141357422,-116.22643280029297,-93.43687438964844,-91.63772583007812
1.1096141338348389,1.4125590324401855,-98.75534057617188,137.3826141357422,-116.22643280029297,-93.43687438964844,-91.63772583007812
1.1128864288330078,1.4121239185333252,-98.755126953125,137.3826141357422,-116.22686767578125,-93.43687438964844,-91.637939453125
1.1151509284973145,1.4121239185333252,-98.755126953125,137.3826141357422,-116.22686767578125,-93.43687438964844,-91.637939453125
1.1173129081726074,1.4121239185333252,-98.755126953125,137.3826141357422,-116.22686767578125,-93.43687438964844,-91.637939453125
1.119485855102539,1.4121239185333252,-98.755126953125,137.3826141357422,-116.22686767578125,-93.43687438964844,-91.637939453125
1.1217551231384277,1.4121239185333252,-98.755126953125,137.3826141357422,-116.22686767578125,-93.43687438964844,-91.637939453125
1.1240482330322266,1.4123414754867554,-98.75469207763672,137.38284301757812,-116.22686767578125,-93.43687438964844,-91.63772583007812
1.1262507438659668,1.4123414754867554,-98.75469207763672,137.38284301757812,-116.22686767578125,-93.43687438964844,-91.63772583007812
1.1284236907958984,1.4123414754867554,-98.75469207763672,137.38284301757812,-116.22686767578125,-93.43687438964844,-91.63772583007812
1.1306004524230957,1.4123414754867554,-98.75469207763672,137.38284301757812,-116.22686767578125,-93.43687438964844,-91.63772583007812
1.1329052448272705,1.4123414754867554,-98.75469207763672,137.3826141357422,-116.22664642333984,-93.43687438964844,-91.63772583007812
1.135197401046753,1.4123414754867554,-98.75469207763672,137.3826141357422,-116.22664642333984,-93.43687438964844,-91.63772583007812
1.1373798847198486,1.4123414754867554,-98.75469207763672,137.3826141357422,-116.22664642333984,-93.43687438964844,-91.63772583007812
1.139587640762329,1.4123414754867554,-98.75469207763672,137.3826141357422,-116.22664642333984,-93.43687438964844,-91.63772583007812
1.1427943706512451,1.4125590324401855,-98.75469207763672,137.3826141357422,-116.22664642333984,-93.43665313720703,-91.63772583007812
1.1450858116149902,1.4125590324401855,-98.75469207763672,137.3826141357422,-116.22664642333984,-93.43665313720703,-91.63772583007812
1.1472373008728027,1.4125590324401855,-98.75469207763672,137.3826141357422,-116.22664642333984,-93.43665313720703,-91.63772583007812
1.1494100093841553,1.4125590324401855,-98.75469207763672,137.3826141357422,-116.22664642333984,-93.43665313720703,-91.63772583007812
1.151604413986206,1.4125590324401855,-98.75469207763672,137.3826141357422,-116.22664642333984,-93.43665313720703,-91.63772583007812
1.15388822555542,1.4125590324401855,-98.755126953125,137.3826141357422,-116.22643280029297,-93.43665313720703,-91.63772583007812
1.156175136566162,1.4125590324401855,-98.755126953125,137.3826141357422,-116.22643280029297,-93.43665313720703,-91.63772583007812
1.1583585739135742,1.4125590324401855,-98.755126953125,137.3826141357422,-116.22643280029297,-93.43665313720703,-91.63772583007812
1.16054368019104,1.4125590324401855,-98.755126953125,137.3826141357422,-116.22643280029297,-93.43665313720703,-91.63772583007812
1.1627895832061768,1.4127765893936157,-98.75534057617188,137.3826141357422,-116.22643280029297,-93.43687438964844,-91.63772583007812
1.1650872230529785,1.4127765893936157,-98.75534057617188,137.3826141357422,-116.22643280029297,-93.43687438964844,-91.63772583007812
1.1672513484954834,1.4127765893936157,-98.75534057617188,137.3826141357422,-116.22643280029297,-93.43687438964844,-91.63772583007812
1.1694376468658447,1.4127765893936157,-98.75534057617188,137.3826141357422,-116.22643280029297,-93.43687438964844,-91.63772583007812
1.1727569103240967,1.4123414754867554,-98.755126953125,137.3826141357422,-116.22664642333984,-93.43687438964844,-91.637939453125
1.174997329711914,1.4123414754867554,-98.755126953125,137.3826141357422,-116.22664642333984,-93.43687438964844,-91.637939453125
1.1772210597991943,1.4123414754867554,-98.755126953125,137.3826141357422,-116.22664642333984,-93.43687438964844,-91.637939453125
1.179384469985962,1.4123414754867554,-98.755126953125,137.3826141357422,-116.22664642333984,-93.43687438964844,-91.637939453125
1.1815533638000488,1.4123414754867554,-98.755126953125,137.3826141357422,-116.22664642333984,-93.43687438964844,-91.637939453125
1.1837713718414307,1.4121239185333252,-98.7549057006836,137.38284301757812,-116.22664642333984,-93.43665313720703,-91.637939453125
1.186028003692627,1.4121239185333252,-98.7549057006836,137.38284301757812,-116.22664642333984,-93.43665313720703,-91.637939453125
1.1882116794586182,1.4121239185333252,-98.7549057006836,137.38284301757812,-116.22664642333984,-93.43665313720703,-91.637939453125
1.1903588771820068,1.4121239185333252,-98.7549057006836,137.38284301757812,-116.22664642333984,-93.43665313720703,-91.637939453125
1.1926729679107666,1.4123414754867554,-98.7549057006836,137.38284301757812,-116.22664642333984,-93.43665313720703,-91.63772583007812
1.1949357986450195,1.4123414754867554,-98.7549057006836,137.38284301757812,-116.22664642333984,-93.43665313720703,-91.63772583007812
1.1972439289093018,1.4123414754867554,-98.7549057006836,137.38284301757812,-116.22664642333984,-93.43665313720703,-91.63772583007812
1.199429988861084,1.4123414754867554,-98.7549057006836,137.38284301757812,-116.22664642333984,-93.43665313720703,-91.63772583007812
1.2027223110198975,1.4123414754867554,-98.7549057006836,137.38284301757812,-116.22643280029297,-93.43665313720703,-91.637939453125
1.2049872875213623,1.4123414754867554,-98.7549057006836,137.38284301757812,-116.22643280029297,-93.43665313720703,-91.637939453125
1.207261085510254,1.4123414754867554,-98.7549057006836,137.38284301757812,-116.22643280029297,-93.43665313720703,-91.637939453125
1.209446907043457,1.4123414754867554,-98.7549057006836,137.38284301757812,-116.22643280029297,-93.43665313720703,-91.637939453125
1.2116303443908691,1.4123414754867554,-98.7549057006836,137.38284301757812,-116.22643280029297,-93.43665313720703,-91.637939453125
1.213914394378662,1.4123414754867554,-98.755126953125,137.3826141357422,-116.22643280029297,-93.43687438964844,-91.63772583007812
1.2161900997161865,1.4123414754867554,-98.755126953125,137.3826141357422,-116.22643280029297,-93.43687438964844,-91.63772583007812
1.2183632850646973,1.4123414754867554,-98.755126953125,137.3826141357422,-116.22643280029297,-93.43687438964844,-91.63772583007812
1.2205395698547363,1.4123414754867554,-98.755126953125,137.3826141357422,-116.22643280029297,-93.43687438964844,-91.63772583007812
1.222792387008667,1.4125590324401855,-98.75534057617188,137.3826141357422,-116.22664642333984,-93.43687438964844,-91.63772583007812
1.2251055240631104,1.4125590324401855,-98.75534057617188,137.3826141357422,-116.22664642333984,-93.43687438964844,-91.63772583007812
1.2272677421569824,1.4125590324401855,-98.75534057617188,137.3826141357422,-116.22664642333984,-93.43687438964844,-91.63772583007812
1.2294530868530273,1.4125590324401855,-98.75534057617188,137.3826141357422,-116.22664642333984,-93.43687438964844,-91.63772583007812
1.232759714126587,1.4125590324401855,-98.75534057617188,137.38284301757812,-116.22643280029297,-93.43687438964844,-91.63772583007812
1.2350759506225586,1.4125590324401855,-98.75534057617188,137.38284301757812,-116.22643280029297,-93.43687438964844,-91.63772583007812
1.2372517585754395,1.4125590324401855,-98.75534057617188,137.38284301757812,-116.22643280029297,-93.43687438964844,-91.63772583007812
1.2394378185272217,1.4125590324401855,-98.75534057617188,137.38284301757812,-116.22643280029297,-93.43687438964844,-91.63772583007812
1.2427310943603516,1.4125590324401855,-98.7549057006836,137.38284301757812,-116.22643280029297,-93.43687438964844,-91.63772583007812
1.2449049949645996,1.4125590324401855,-98.7549057006836,137.38284301757812,-116.22643280029297,-93.43687438964844,-91.63772583007812
1.2472059726715088,1.4125590324401855,-98.7549057006836,137.38284301757812,-116.22643280029297,-93.43687438964844,-91.63772583007812
1.249391794204712,1.4125590324401855,-98.7549057006836,137.38284301757812,-116.22643280029297,-93.43687438964844,-91.63772583007812
1.2515788078308105,1.4125590324401855,-98.7549057006836,137.38284301757812,-116.22643280029297,-93.43687438964844,-91.63772583007812
1.2538776397705078,1.4121239185333252,-98.7549057006836,137.38284301757812,-116.22643280029297,-93.43708801269531,-91.63772583007812
1.2561626434326172,1.4121239185333252,-98.7549057006836,137.38284301757812,-116.22643280029297,-93.43708801269531,-91.63772583007812
1.2583351135253906,1.4121239185333252,-98.7549057006836,137.38284301757812,-116.22643280029297,-93.43708801269531,-91.63772583007812
1.2605111598968506,1.4121239185333252,-98.7549057006836,137.38284301757812,-116.22643280029297,-93.43708801269531,-91.63772583007812
1.2627537250518799,1.4123414754867554,-98.755126953125,137.38284301757812,-116.22686767578125,-93.43687438964844,-91.63772583007812
1.2650072574615479,1.4123414754867554,-98.755126953125,137.38284301757812,-116.22686767578125,-93.43687438964844,-91.63772583007812
1.267256259918213,1.4123414754867554,-98.755126953125,137.38284301757812,-116.22686767578125,-93.43687438964844,-91.63772583007812
1.2694275379180908,1.4123414754867554,-98.755126953125,137.38284301757812,-116.22686767578125,-93.43687438964844,-91.63772583007812
1.2716073989868164,1.4123414754867554,-98.755126953125,137.38284301757812,-116.22686767578125,-93.43687438964844,-91.63772583007812
1.273897409439087,1.4123414754867554,-98.7549057006836,137.38284301757812,-116.22643280029297,-93.43665313720703,-91.63772583007812
1.276158332824707,1.4123414754867554,-98.7549057006836,137.38284301757812,-116.22643280029297,-93.43665313720703,-91.63772583007812
1.2783448696136475,1.4123414754867554,-98.7549057006836,137.38284301757812,-116.22643280029297,-93.43665313720703,-91.63772583007812
1.280515432357788,1.4123414754867554,-98.7549057006836,137.38284301757812,-116.22643280029297,-93.43665313720703,-91.63772583007812
1.2827894687652588,1.4125590324401855,-98.755126953125,137.3826141357422,-116.22664642333984,-93.43687438964844,-91.63772583007812
1.2850778102874756,1.4125590324401855,-98.755126953125,137.3826141357422,-116.22664642333984,-93.43687438964844,-91.63772583007812
1.2872328758239746,1.4125590324401855,-98.755126953125,137.3826141357422,-116.22664642333984,-93.43687438964844,-91.63772583007812
1.2894055843353271,1.4125590324401855,-98.755126953125,137.3826141357422,-116.22664642333984,-93.43687438964844,-91.63772583007812
1.2915840148925781,1.4125590324401855,-98.755126953125,137.3826141357422,-116.22664642333984,-93.43687438964844,-91.63772583007812
1.2938923835754395,1.4125590324401855,-98.75534057617188,137.3826141357422,-116.22643280029297,-93.43665313720703,-91.63772583007812
1.2961792945861816,1.4125590324401855,-98.75534057617188,137.3826141357422,-116.22643280029297,-93.43665313720703,-91.63772583007812
1.2983829975128174,1.4125590324401855,-98.75534057617188,137.3826141357422,-116.22643280029297,-93.43665313720703,-91.63772583007812
1.3005704879760742,1.4125590324401855,-98.75534057617188,137.3826141357422,-116.22643280029297,-93.43665313720703,-91.63772583007812
1.3028779029846191,1.4125590324401855,-98.755126953125,137.3826141357422,-116.22664642333984,-93.43665313720703,-91.63772583007812
1.3051483631134033,1.4125590324401855,-98.755126953125,137.3826141357422,-116.22664642333984,-93.43665313720703,-91.63772583007812
1.3073406219482422,1.4125590324401855,-98.755126953125,137.3826141357422,-116.22664642333984,-93.43665313720703,-91.63772583007812
1.3095135688781738,1.4125590324401855,-98.755126953125,137.3826141357422,-116.22664642333984,-93.43665313720703,-91.63772583007812
1.3127436637878418,1.4123414754867554,-98.7549057006836,137.38284301757812,-116.22664642333984,-93.43687438964844,-91.63772583007812
1.3150298595428467,1.4123414754867554,-98.7549057006836,137.38284301757812,-116.22664642333984,-93.43687438964844,-91.63772583007812
1.3172807693481445,1.4123414754867554,-98.7549057006836,137.38284301757812,-116.22664642333984,-93.43687438964844,-91.63772583007812
1.319467544555664,1.4123414754867554,-98.7549057006836,137.38284301757812,-116.22664642333984,-93.43687438964844,-91.63772583007812
1.3227787017822266,1.4123414754867554,-98.755126953125,137.3826141357422,-116.22643280029297,-93.43665313720703,-91.63772583007812
1.3250620365142822,1.4123414754867554,-98.755126953125,137.3826141357422,-116.22643280029297,-93.43665313720703,-91.63772583007812
1.3272480964660645,1.4123414754867554,-98.755126953125,137.3826141357422,-116.22643280029297,-93.43665313720703,-91.63772583007812
1.3294217586517334,1.4123414754867554,-98.755126953125,137.3826141357422,-116.22643280029297,-93.43665313720703,-91.63772583007812
1.331587791442871,1.4123414754867554,-98.755126953125,137.3826141357422,-116.22643280029297,-93.43665313720703,-91.63772583007812
1.3338654041290283,1.4125590324401855,-98.7549057006836,137.3824005126953,-116.22664642333984,-93.43665313720703,-91.63772583007812
1.3361518383026123,1.4125590324401855,-98.7549057006836,137.3824005126953,-116.22664642333984,-93.43665313720703,-91.63772583007812
1.338325023651123,1.4125590324401855,-98.7549057006836,137.3824005126953,-116.22664642333984,-93.43665313720703,-91.63772583007812
1.340498924255371,1.4125590324401855,-98.7549057006836,137.3824005126953,-116.22664642333984,-93.43665313720703,-91.63772583007812
1.3427691459655762,1.4125590324401855,-98.755126953125,137.3826141357422,-116.22643280029297,-93.43687438964844,-91.63772583007812
1.3450260162353516,1.4125590324401855,-98.755126953125,137.3826141357422,-116.22643280029297,-93.43687438964844,-91.63772583007812
1.3472557067871094,1.4125590324401855,-98.755126953125,137.3826141357422,-116.22643280029297,-93.43687438964844,-91.63772583007812
1.349449872970581,1.4125590324401855,-98.755126953125,137.3826141357422,-116.22643280029297,-93.43687438964844,-91.63772583007812
1.3516297340393066,1.4125590324401855,-98.755126953125,137.3826141357422,-116.22643280029297,-93.43687438964844,-91.63772583007812
1.3539364337921143,1.4125590324401855,-98.75534057617188,137.38284301757812,-116.22643280029297,-93.43665313720703,-91.63772583007812
1.3562157154083252,1.4125590324401855,-98.75534057617188,137.38284301757812,-116.22643280029297,-93.43665313720703,-91.63772583007812
1.3584003448486328,1.4125590324401855,-98.75534057617188,137.38284301757812,-116.22643280029297,-93.43665313720703,-91.63772583007812
1.360586404800415,1.4125590324401855,-98.75534057617188,137.38284301757812,-116.22643280029297,-93.43665313720703,-91.63772583007812
1.3628168106079102,1.4125590324401855,-98.755126953125,137.38284301757812,-116.22664642333984,-93.43687438964844,-91.637939453125
1.3650851249694824,1.4125590324401855,-98.755126953125,137.38284301757812,-116.22664642333984,-93.43687438964844,-91.637939453125
1.3672435283660889,1.4125590324401855,-98.755126953125,137.38284301757812,-116.22664642333984,-93.43687438964844,-91.637939453125
1.3694171905517578,1.4125590324401855,-98.755126953125,137.38284301757812,-116.22664642333984,-93.43687438964844,-91.637939453125
1.3716237545013428,1.4125590324401855,-98.755126953125,137.38284301757812,-116.22664642333984,-93.43687438964844,-91.637939453125
1.3739242553710938,1.4125590324401855,-98.7549057006836,137.3826141357422,-116.22664642333984,-93.43687438964844,-91.63772583007812
1.3761866092681885,1.4125590324401855,-98.7549057006836,137.3826141357422,-116.22664642333984,-93.43687438964844,-91.63772583007812
1.3783478736877441,1.4125590324401855,-98.7549057006836,137.3826141357422,-116.22664642333984,-93.43687438964844,-91.63772583007812
1.3805160522460938,1.4125590324401855,-98.7549057006836,137.3826141357422,-116.22664642333984,-93.43687438964844,-91.63772583007812
1.3827006816864014,1.4123414754867554,-98.7549057006836,137.38284301757812,-116.22664642333984,-93.43687438964844,-91.637939453125
1.384969711303711,1.4123414754867554,-98.7549057006836,137.38284301757812,-116.22664642333984,-93.43687438964844,-91.637939453125
1.387256145477295,1.4123414754867554,-98.7549057006836,137.38284301757812,-116.22664642333984,-93.43687438964844,-91.637939453125
1.3894705772399902,1.4123414754867554,-98.7549057006836,137.38284301757812,-116.22664642333984,-93.43687438964844,-91.637939453125
1.391658067703247,1.4123414754867554,-98.7549057006836,137.38284301757812,-116.22664642333984,-93.43687438964844,-91.637939453125
1.3939197063446045,1.4125590324401855,-98.755126953125,137.38284301757812,-116.22664642333984,-93.43687438964844,-91.63772583007812
1.3962008953094482,1.4125590324401855,-98.755126953125,137.38284301757812,-116.22664642333984,-93.43687438964844,-91.63772583007812
1.398371934890747,1.4125590324401855,-98.755126953125,137.38284301757812,-116.22664642333984,-93.43687438964844,-91.63772583007812
1.4005510807037354,1.4125590324401855,-98.755126953125,137.38284301757812,-116.22664642333984,-93.43687438964844,-91.63772583007812
1.4027931690216064,1.4123414754867554,-98.75534057617188,137.3826141357422,-116.22664642333984,-93.43665313720703,-91.63772583007812
1.4050889015197754,1.4123414754867554,-98.75534057617188,137.3826141357422,-116.22664642333984,-93.43665313720703,-91.63772583007812
1.4072632789611816,1.4123414754867554,-98.75534057617188,137.3826141357422,-116.22664642333984,-93.43665313720703,-91.63772583007812
1.409449577331543,1.4123414754867554,-98.75534057617188,137.3826141357422,-116.22664642333984,-93.43665313720703,-91.63772583007812
1.412731647491455,1.4125590324401855,-98.755126953125,137.3826141357422,-116.22664642333984,-93.43665313720703,-91.63772583007812
1.4149854183197021,1.4125590324401855,-98.755126953125,137.3826141357422,-116.22664642333984,-93.43665313720703,-91.63772583007812
1.4172587394714355,1.4125590324401855,-98.755126953125,137.3826141357422,-116.22664642333984,-93.43665313720703,-91.63772583007812
1.419431209564209,1.4125590324401855,-98.755126953125,137.3826141357422,-116.22664642333984,-93.43665313720703,-91.63772583007812
1.421609878540039,1.4125590324401855,-98.755126953125,137.3826141357422,-116.22664642333984,-93.43665313720703,-91.63772583007812
1.423863410949707,1.4125590324401855,-98.755126953125,137.38284301757812,-116.22664642333984,-93.43687438964844,-91.63750457763672
1.4261393547058105,1.4125590324401855,-98.755126953125,137.38284301757812,-116.22664642333984,-93.43687438964844,-91.63750457763672
1.4283125400543213,1.4125590324401855,-98.755126953125,137.38284301757812,-116.22664642333984,-93.43687438964844,-91.63750457763672
1.4304864406585693,1.4125590324401855,-98.755126953125,137.38284301757812,-116.22664642333984,-93.43687438964844,-91.63750457763672
1.43272066116333,1.4125590324401855,-98.755126953125,137.38284301757812,-116.22643280029297,-93.43687438964844,-91.63772583007812
1.4349901676177979,1.4125590324401855,-98.755126953125,137.38284301757812,-116.22643280029297,-93.43687438964844,-91.63772583007812
1.4372551441192627,1.4125590324401855,-98.755126953125,137.38284301757812,-116.22643280029297,-93.43687438964844,-91.63772583007812
1.439439296722412,1.4125590324401855,-98.755126953125,137.38284301757812,-116.22643280029297,-93.43687438964844,-91.63772583007812
1.4416248798370361,1.4125590324401855,-98.755126953125,137.38284301757812,-116.22643280029297,-93.43687438964844,-91.63772583007812
1.4439520835876465,1.4125590324401855,-98.7549057006836,137.38284301757812,-116.22664642333984,-93.43665313720703,-91.63772583007812
1.4462370872497559,1.4125590324401855,-98.7549057006836,137.38284301757812,-116.22664642333984,-93.43665313720703,-91.63772583007812
1.4484233856201172,1.4125590324401855,-98.7549057006836,137.38284301757812,-116.22664642333984,-93.43665313720703,-91.63772583007812
1.4506103992462158,1.4125590324401855,-98.7549057006836,137.38284301757812,-116.22664642333984,-93.43665313720703,-91.63772583007812
1.4529201984405518,1.4123414754867554,-98.7549057006836,137.38284301757812,-116.22643280029297,-93.43665313720703,-91.63772583007812
1.4551970958709717,1.4123414754867554,-98.7549057006836,137.38284301757812,-116.22643280029297,-93.43665313720703,-91.63772583007812
1.4573700428009033,1.4123414754867554,-98.7549057006836,137.38284301757812,-116.22643280029297,-93.43665313720703,-91.63772583007812
1.4595472812652588,1.4123414754867554,-98.7549057006836,137.38284301757812,-116.22643280029297,-93.43665313720703,-91.63772583007812
1.4627158641815186,1.4125590324401855,-98.7549057006836,137.38284301757812,-116.22664642333984,-93.43687438964844,-91.63772583007812
1.4649572372436523,1.4125590324401855,-98.7549057006836,137.38284301757812,-116.22664642333984,-93.43687438964844,-91.63772583007812
1.4672589302062988,1.4125590324401855,-98.7549057006836,137.38284301757812,-116.22664642333984,-93.43687438964844,-91.63772583007812
1.4694442749023438,1.4125590324401855,-98.7549057006836,137.38284301757812,-116.22664642333984,-93.43687438964844,-91.63772583007812
1.4716308116912842,1.4125590324401855,-98.7549057006836,137.38284301757812,-116.22664642333984,-93.43687438964844,-91.63772583007812
1.4739134311676025,1.4125590324401855,-98.755126953125,137.38284301757812,-116.22643280029297,-93.43687438964844,-91.63750457763672
1.4761731624603271,1.4125590324401855,-98.755126953125,137.38284301757812,-116.22643280029297,-93.43687438964844,-91.63750457763672
1.4783306121826172,1.4125590324401855,-98.755126953125,137.38284301757812,-116.22643280029297,-93.43687438964844,-91.63750457763672
1.4804811477661133,1.4125590324401855,-98.755126953125,137.38284301757812,-116.22643280029297,-93.43687438964844,-91.63750457763672
1.4827346801757812,1.4125590324401855,-98.755126953125,137.38284301757812,-116.22643280029297,-93.43708801269531,-91.63772583007812
1.4850056171417236,1.4125590324401855,-98.755126953125,137.38284301757812,-116.22643280029297,-93.43708801269531,-91.63772583007812
1.4872422218322754,1.4125590324401855,-98.755126953125,137.38284301757812,-116.22643280029297,-93.43708801269531,-91.63772583007812
1.4894139766693115,1.4125590324401855,-98.755126953125,137.38284301757812,-116.22643280029297,-93.43708801269531,-91.63772583007812
1.4915928840637207,1.4125590324401855,-98.755126953125,137.38284301757812,-116.22643280029297,-93.43708801269531,-91.63772583007812
1.493898868560791,1.4127765893936157,-98.7549057006836,137.3826141357422,-116.22664642333984,-93.43665313720703,-91.637939453125
1.4962000846862793,1.4127765893936157,-98.7549057006836,137.3826141357422,-116.22664642333984,-93.43665313720703,-91.637939453125
1.4983863830566406,1.4127765893936157,-98.7549057006836,137.3826141357422,-116.22664642333984,-93.43665313720703,-91.637939453125
1.5005731582641602,1.4127765893936157,-98.7549057006836,137.3826141357422,-116.22664642333984,-93.43665313720703,-91.637939453125
1.502814769744873,1.4125590324401855,-98.7549057006836,137.38284301757812,-116.22664642333984,-93.43665313720703,-91.63772583007812
1.5051026344299316,1.4125590324401855,-98.7549057006836,137.38284301757812,-116.22664642333984,-93.43665313720703,-91.63772583007812
1.5072658061981201,1.4125590324401855,-98.7549057006836,137.38284301757812,-116.22664642333984,-93.43665313720703,-91.63772583007812
1.5094518661499023,1.4125590324401855,-98.7549057006836,137.38284301757812,-116.22664642333984,-93.43665313720703,-91.63772583007812
1.5116379261016846,1.4125590324401855,-98.7549057006836,137.38284301757812,-116.22664642333984,-93.43665313720703,-91.63772583007812
1.5139377117156982,1.4125590324401855,-98.755126953125,137.38284301757812,-116.22664642333984,-93.43665313720703,-91.63772583007812
1.516225814819336,1.4125590324401855,-98.755126953125,137.38284301757812,-116.22664642333984,-93.43665313720703,-91.63772583007812
1.518397569656372,1.4125590324401855,-98.755126953125,137.38284301757812,-116.22664642333984,-93.43665313720703,-91.63772583007812
1.5205752849578857,1.4125590324401855,-98.755126953125,137.38284301757812,-116.22664642333984,-93.43665313720703,-91.63772583007812
1.5228188037872314,1.4125590324401855,-98.755126953125,137.38284301757812,-116.22664642333984,-93.43687438964844,-91.637939453125
1.525062084197998,1.4125590324401855,-98.755126953125,137.38284301757812,-116.22664642333984,-93.43687438964844,-91.637939453125
1.527254581451416,1.4125590324401855,-98.755126953125,137.38284301757812,-116.22664642333984,-93.43687438964844,-91.637939453125
1.5294280052185059,1.4125590324401855,-98.755126953125,137.38284301757812,-116.22664642333984,-93.43687438964844,-91.637939453125
1.5316059589385986,1.4125590324401855,-98.755126953125,137.38284301757812,-116.22664642333984,-93.43687438964844,-91.637939453125
1.533902645111084,1.4123414754867554,-98.755126953125,137.38284301757812,-116.22664642333984,-93.43687438964844,-91.63772583007812
1.5362021923065186,1.4123414754867554,-98.755126953125,137.38284301757812,-116.22664642333984,-93.43687438964844,-91.63772583007812
1.5383872985839844,1.4123414754867554,-98.755126953125,137.38284301757812,-116.22664642333984,-93.43687438964844,-91.63772583007812
1.5405733585357666,1.4123414754867554,-98.755126953125,137.38284301757812,-116.22664642333984,-93.43687438964844,-91.63772583007812
1.5428102016448975,1.4125590324401855,-98.755126953125,137.3826141357422,-116.22664642333984,-93.43687438964844,-91.63772583007812
1.545078992843628,1.4125590324401855,-98.755126953125,137.3826141357422,-116.22664642333984,-93.43687438964844,-91.63772583007812
1.5472602844238281,1.4125590324401855,-98.755126953125,137.3826141357422,-116.22664642333984,-93.43687438964844,-91.63772583007812
1.5494344234466553,1.4125590324401855,-98.755126953125,137.3826141357422,-116.22664642333984,-93.43687438964844,-91.63772583007812
1.5516135692596436,1.4125590324401855,-98.755126953125,137.3826141357422,-116.22664642333984,-93.43687438964844,-91.63772583007812
1.553929328918457,1.4125590324401855,-98.7549057006836,137.38284301757812,-116.22664642333984,-93.43665313720703,-91.637939453125
1.5562162399291992,1.4125590324401855,-98.7549057006836,137.38284301757812,-116.22664642333984,-93.43665313720703,-91.637939453125
1.5584001541137695,1.4125590324401855,-98.7549057006836,137.38284301757812,-116.22664642333984,-93.43665313720703,-91.637939453125
1.56058669090271,1.4125590324401855,-98.7549057006836,137.38284301757812,-116.22664642333984,-93.43665313720703,-91.637939453125
1.5628225803375244,1.4125590324401855,-98.755126953125,137.38284301757812,-116.22643280029297,-93.43665313720703,-91.63772583007812
1.56510591506958,1.4125590324401855,-98.755126953125,137.38284301757812,-116.22643280029297,-93.43665313720703,-91.63772583007812
1.567244291305542,1.4125590324401855,-98.755126953125,137.38284301757812,-116.22643280029297,-93.43665313720703,-91.63772583007812
1.5694174766540527,1.4125590324401855,-98.755126953125,137.38284301757812,-116.22643280029297,-93.43665313720703,-91.63772583007812
1.5715973377227783,1.4125590324401855,-98.755126953125,137.38284301757812,-116.22643280029297,-93.43665313720703,-91.63772583007812
1.573906421661377,1.4123414754867554,-98.755126953125,137.3826141357422,-116.22664642333984,-93.43687438964844,-91.63772583007812
1.576164960861206,1.4123414754867554,-98.755126953125,137.3826141357422,-116.22664642333984,-93.43687438964844,-91.63772583007812
1.5783379077911377,1.4123414754867554,-98.755126953125,137.3826141357422,-116.22664642333984,-93.43687438964844,-91.63772583007812
1.5804994106292725,1.4123414754867554,-98.755126953125,137.3826141357422,-116.22664642333984,-93.43687438964844,-91.63772583007812
1.5827586650848389,1.4125590324401855,-98.755126953125,137.38284301757812,-116.22643280029297,-93.43687438964844,-91.637939453125
1.585003137588501,1.4125590324401855,-98.755126953125,137.38284301757812,-116.22643280029297,-93.43687438964844,-91.637939453125
1.5872251987457275,1.4125590324401855,-98.755126953125,137.38284301757812,-116.22643280029297,-93.43687438964844,-91.637939453125
1.589369773864746,1.4125590324401855,-98.755126953125,137.38284301757812,-116.22643280029297,-93.43687438964844,-91.637939453125
1.5915241241455078,1.4125590324401855,-98.755126953125,137.38284301757812,-116.22643280029297,-93.43687438964844,-91.637939453125
1.59382963180542,1.4123414754867554,-98.7549057006836,137.3826141357422,-116.22664642333984,-93.43665313720703,-91.63772583007812
1.5961177349090576,1.4123414754867554,-98.7549057006836,137.3826141357422,-116.22664642333984,-93.43665313720703,-91.63772583007812
1.5983006954193115,1.4123414754867554,-98.7549057006836,137.3826141357422,-116.22664642333984,-93.43665313720703,-91.63772583007812
1.6004860401153564,1.4123414754867554,-98.7549057006836,137.3826141357422,-116.22664642333984,-93.43665313720703,-91.63772583007812
1.6027326583862305,1.4125590324401855,-98.755126953125,137.38284301757812,-116.22664642333984,-93.43687438964844,-91.63772583007812
1.6049833297729492,1.4125590324401855,-98.755126953125,137.38284301757812,-116.22664642333984,-93.43687438964844,-91.63772583007812
1.607224464416504,1.4125590324401855,-98.755126953125,137.38284301757812,-116.22664642333984,-93.43687438964844,-91.63772583007812
1.6093971729278564,1.4125590324401855,-98.755126953125,137.38284301757812,-116.22664642333984,-93.43687438964844,-91.63772583007812
1.6115758419036865,1.4125590324401855,-98.755126953125,137.38284301757812,-116.22664642333984,-93.43687438964844,-91.63772583007812
1.6138815879821777,1.4123414754867554,-98.7549057006836,137.38284301757812,-116.22664642333984,-93.43665313720703,-91.637939453125
1.6161818504333496,1.4123414754867554,-98.7549057006836,137.38284301757812,-116.22664642333984,-93.43665313720703,-91.637939453125
1.6183667182922363,1.4123414754867554,-98.7549057006836,137.38284301757812,-116.22664642333984,-93.43665313720703,-91.637939453125
1.6205523014068604,1.4123414754867554,-98.7549057006836,137.38284301757812,-116.22664642333984,-93.43665313720703,-91.637939453125
1.62278151512146,1.4125590324401855,-98.7549057006836,137.3826141357422,-116.22643280029297,-93.43665313720703,-91.637939453125
1.6250317096710205,1.4125590324401855,-98.7549057006836,137.3826141357422,-116.22643280029297,-93.43665313720703,-91.637939453125
1.6272263526916504,1.4125590324401855,-98.7549057006836,137.3826141357422,-116.22643280029297,-93.43665313720703,-91.637939453125
1.6293792724609375,1.4125590324401855,-98.7549057006836,137.3826141357422,-116.22643280029297,-93.43665313720703,-91.637939453125
1.6315479278564453,1.4125590324401855,-98.7549057006836,137.3826141357422,-116.22643280029297,-93.43665313720703,-91.637939453125
1.6338474750518799,1.4125590324401855,-98.7549057006836,137.38284301757812,-116.22664642333984,-93.43665313720703,-91.63772583007812
1.636141061782837,1.4125590324401855,-98.7549057006836,137.38284301757812,-116.22664642333984,-93.43665313720703,-91.63772583007812
1.6383140087127686,1.4125590324401855,-98.7549057006836,137.38284301757812,-116.22664642333984,-93.43665313720703,-91.63772583007812
1.6404991149902344,1.4125590324401855,-98.7549057006836,137.38284301757812,-116.22664642333984,-93.43665313720703,-91.63772583007812
1.6427364349365234,1.4125590324401855,-98.755126953125,137.38284301757812,-116.22664642333984,-93.43665313720703,-91.63772583007812
1.6449904441833496,1.4125590324401855,-98.755126953125,137.38284301757812,-116.22664642333984,-93.43665313720703,-91.63772583007812
1.6472508907318115,1.4125590324401855,-98.755126953125,137.38284301757812,-116.22664642333984,-93.43665313720703,-91.63772583007812
1.6494243144989014,1.4125590324401855,-98.755126953125,137.38284301757812,-116.22664642333984,-93.43665313720703,-91.63772583007812
1.652620553970337,1.4125590324401855,-98.755126953125,137.38284301757812,-116.22664642333984,-93.43665313720703,-91.637939453125
1.6549115180969238,1.4125590324401855,-98.755126953125,137.38284301757812,-116.22664642333984,-93.43665313720703,-91.637939453125
1.6571664810180664,1.4125590324401855,-98.755126953125,137.38284301757812,-116.22664642333984,-93.43665313720703,-91.637939453125
1.6593499183654785,1.4125590324401855,-98.755126953125,137.38284301757812,-116.22664642333984,-93.43665313720703,-91.637939453125
1.6615080833435059,1.4125590324401855,-98.755126953125,137.38284301757812,-116.22664642333984,-93.43665313720703,-91.637939453125
1.663825273513794,1.4123414754867554,-98.755126953125,137.3826141357422,-116.22643280029297,-93.43665313720703,-91.637939453125
1.666076898574829,1.4123414754867554,-98.755126953125,137.3826141357422,-116.22643280029297,-93.43665313720703,-91.637939453125
1.6682639122009277,1.4123414754867554,-98.755126953125,137.3826141357422,-116.22643280029297,-93.43665313720703,-91.637939453125
1.6704487800598145,1.4123414754867554,-98.755126953125,137.3826141357422,-116.22643280029297,-93.43665313720703,-91.637939453125
1.6730296611785889,1.4123414754867554,-98.7549057006836,137.38284301757812,-116.22664642333984,-93.43687438964844,-91.63772583007812
1.6752338409423828,1.4123414754867554,-98.7549057006836,137.38284301757812,-116.22664642333984,-93.43687438964844,-91.63772583007812
1.6774144172668457,1.4123414754867554,-98.7549057006836,137.38284301757812,-116.22664642333984,-93.43687438964844,-91.63772583007812
1.6795735359191895,1.4123414754867554,-98.7549057006836,137.38284301757812,-116.22664642333984,-93.43687438964844,-91.63772583007812
1.6823148727416992,1.4125590324401855,-98.755126953125,137.38284301757812,-116.22643280029297,-93.43687438964844,-91.63750457763672
1.6844415664672852,1.4125590324401855,-98.755126953125,137.38284301757812,-116.22643280029297,-93.43687438964844,-91.63750457763672
1.6865782737731934,1.4125590324401855,-98.755126953125,137.38284301757812,-116.22643280029297,-93.43687438964844,-91.63750457763672
1.6888535022735596,1.4125590324401855,-98.755126953125,137.38284301757812,-116.22643280029297,-93.43687438964844,-91.63750457763672
1.6911211013793945,1.4125590324401855,-98.755126953125,137.38284301757812,-116.22643280029297,-93.43687438964844,-91.63750457763672
1.6932690143585205,1.4125590324401855,-98.7549057006836,137.38284301757812,-116.22664642333984,-93.43687438964844,-91.63772583007812
1.6954309940338135,1.4125590324401855,-98.7549057006836,137.38284301757812,-116.22664642333984,-93.43687438964844,-91.63772583007812
1.6976730823516846,1.4125590324401855,-98.7549057006836,137.38284301757812,-116.22664642333984,-93.43687438964844,-91.63772583007812
1.6999008655548096,1.4125590324401855,-98.7549057006836,137.38284301757812,-116.22664642333984,-93.43687438964844,-91.63772583007812
1.702759027481079,1.4123414754867554,-98.7549057006836,137.3826141357422,-116.22664642333984,-93.43687438964844,-91.63772583007812
