Ultramotiv/Mauris-Progress-/All_other_stuff/ashu.csv
timestamp,joint1,joint2,joint3,joint4,joint5,joint6
9.250640869140625e-05,-7.132846355438232,-69.7022705078125,126.63407135009766,-143.10203552246094,-90.47382354736328,-91.63880920410156
0.002273082733154297,-7.132846355438232,-69.7022705078125,126.63407135009766,-143.10203552246094,-90.47382354736328,-91.63880920410156
0.004515886306762695,-7.132846355438232,-69.7022705078125,126.63407135009766,-143.10203552246094,-90.47382354736328,-91.63880920410156
0.006811857223510742,-7.132846355438232,-69.7022705078125,126.63407135009766,-143.10203552246094,-90.47382354736328,-91.63880920410156
0.008953332901000977,-7.133063793182373,-69.7020492553711,126.63429260253906,-143.1022491455078,-90.47382354736328,-91.63880920410156
0.011121749877929688,-7.133063793182373,-69.7020492553711,126.63429260253906,-143.1022491455078,-90.47382354736328,-91.63880920410156
0.01329350471496582,-7.133063793182373,-69.7020492553711,126.63429260253906,-143.1022491455078,-90.47382354736328,-91.63880920410156
0.015552520751953125,-7.133063793182373,-69.7020492553711,126.63429260253906,-143.1022491455078,-90.47382354736328,-91.63880920410156
0.018416881561279297,-7.133063793182373,-69.7022705078125,126.63407135009766,-143.10203552246094,-90.47382354736328,-91.63903045654297
0.020692825317382812,-7.133063793182373,-69.7022705078125,126.63407135009766,-143.10203552246094,-90.47382354736328,-91.63903045654297
0.022996187210083008,-7.133063793182373,-69.7022705078125,126.63407135009766,-143.10203552246094,-90.47382354736328,-91.63903045654297
0.025183916091918945,-7.133063793182373,-69.7022705078125,126.63407135009766,-143.10203552246094,-90.47382354736328,-91.63903045654297
0.02738642692565918,-7.133063793182373,-69.7022705078125,126.63407135009766,-143.10203552246094,-90.47382354736328,-91.63903045654297
0.029706239700317383,-7.132846355438232,-69.7020492553711,126.63429260253906,-143.10203552246094,-90.47382354736328,-91.63880920410156
0.03204512596130371,-7.132846355438232,-69.7020492553711,126.63429260253906,-143.10203552246094,-90.47382354736328,-91.63880920410156
0.03428816795349121,-7.132846355438232,-69.7020492553711,126.63429260253906,-143.10203552246094,-90.47382354736328,-91.63880920410156
0.03661155700683594,-7.132846355438232,-69.7020492553711,126.63429260253906,-143.10203552246094,-90.47382354736328,-91.63880920410156
0.03934454917907715,-7.132846355438232,-69.7020492553711,126.63407135009766,-143.10203552246094,-90.47382354736328,-91.63880920410156
0.04165053367614746,-7.132846355438232,-69.7020492553711,126.63407135009766,-143.10203552246094,-90.47382354736328,-91.63880920410156
0.044014692306518555,-7.132846355438232,-69.7020492553711,126.63407135009766,-143.10203552246094,-90.47382354736328,-91.63880920410156
0.04624819755554199,-7.132846355438232,-69.7020492553711,126.63407135009766,-143.10203552246094,-90.47382354736328,-91.63880920410156
0.04906964302062988,-7.132846355438232,-69.7020492553711,126.63385772705078,-143.10203552246094,-90.4736099243164,-91.63859558105469
0.051291704177856445,-7.132846355438232,-69.7020492553711,126.63385772705078,-143.10203552246094,-90.4736099243164,-91.63859558105469
0.05365777015686035,-7.132846355438232,-69.7020492553711,126.63385772705078,-143.10203552246094,-90.4736099243164,-91.63859558105469
0.0561525821685791,-7.132846355438232,-69.7020492553711,126.63385772705078,-143.10203552246094,-90.4736099243164,-91.63859558105469
0.05890679359436035,-7.133063793182373,-69.7020492553711,126.63429260253906,-143.10203552246094,-90.47382354736328,-91.63880920410156
0.06109261512756348,-7.133063793182373,-69.7020492553711,126.63429260253906,-143.10203552246094,-90.47382354736328,-91.63880920410156
0.06326889991760254,-7.133063793182373,-69.7020492553711,126.63429260253906,-143.10203552246094,-90.47382354736328,-91.63880920410156
0.06544733047485352,-7.133063793182373,-69.7020492553711,126.63429260253906,-143.10203552246094,-90.47382354736328,-91.63880920410156
0.06776642799377441,-7.133063793182373,-69.7020492553711,126.63429260253906,-143.10203552246094,-90.47382354736328,-91.63880920410156
0.07004666328430176,-7.133063793182373,-69.7020492553711,126.63429260253906,-143.1022491455078,-90.47382354736328,-91.63880920410156
0.0722196102142334,-7.133063793182373,-69.7020492553711,126.63429260253906,-143.1022491455078,-90.47382354736328,-91.63880920410156
0.07439470291137695,-7.133063793182373,-69.7020492553711,126.63429260253906,-143.1022491455078,-90.47382354736328,-91.63880920410156
0.07669520378112793,-7.133063793182373,-69.7020492553711,126.63429260253906,-143.1022491455078,-90.47382354736328,-91.63880920410156
0.07897424697875977,-7.132846355438232,-69.7022705078125,126.63407135009766,-143.10247802734375,-90.47382354736328,-91.63859558105469
0.08114075660705566,-7.132846355438232,-69.7022705078125,126.63407135009766,-143.10247802734375,-90.47382354736328,-91.63859558105469
0.08331894874572754,-7.132846355438232,-69.7022705078125,126.63407135009766,-143.10247802734375,-90.47382354736328,-91.63859558105469
0.08559036254882812,-7.132846355438232,-69.7022705078125,126.63407135009766,-143.10247802734375,-90.47382354736328,-91.63859558105469
0.08788871765136719,-7.132846355438232,-69.7022705078125,126.63407135009766,-143.10247802734375,-90.47382354736328,-91.63859558105469
0.09006357192993164,-7.133063793182373,-69.7022705078125,126.63407135009766,-143.10269165039062,-90.4736099243164,-91.63880920410156
0.0922386646270752,-7.133063793182373,-69.7022705078125,126.63407135009766,-143.10269165039062,-90.4736099243164,-91.63880920410156
0.09441661834716797,-7.133063793182373,-69.7022705078125,126.63407135009766,-143.10269165039062,-90.4736099243164,-91.63880920410156
0.09667706489562988,-7.133063793182373,-69.7022705078125,126.63407135009766,-143.10269165039062,-90.4736099243164,-91.63880920410156
0.09912323951721191,-7.133063793182373,-69.7022705078125,126.63385772705078,-143.10311889648438,-90.47382354736328,-91.63880920410156
0.10130095481872559,-7.133063793182373,-69.7022705078125,126.63385772705078,-143.10311889648438,-90.47382354736328,-91.63880920410156
0.10355257987976074,-7.133063793182373,-69.7022705078125,126.63385772705078,-143.10311889648438,-90.47382354736328,-91.63880920410156
0.1058495044708252,-7.133063793182373,-69.7022705078125,126.63385772705078,-143.10311889648438,-90.47382354736328,-91.63880920410156
0.1087498664855957,-7.132846355438232,-69.7022705078125,126.63407135009766,-143.1029052734375,-90.47382354736328,-91.63880920410156
0.11098170280456543,-7.132846355438232,-69.7022705078125,126.63407135009766,-143.1029052734375,-90.47382354736328,-91.63880920410156
0.1131446361541748,-7.132846355438232,-69.7022705078125,126.63407135009766,-143.1029052734375,-90.47382354736328,-91.63880920410156
0.11532211303710938,-7.132846355438232,-69.7022705078125,126.63407135009766,-143.1029052734375,-90.47382354736328,-91.63880920410156
0.11762571334838867,-7.132846355438232,-69.7022705078125,126.63407135009766,-143.1029052734375,-90.47382354736328,-91.63880920410156
0.12001752853393555,-7.132846355438232,-69.70248413085938,126.63407135009766,-143.10269165039062,-90.4736099243164,-91.63880920410156
0.12218379974365234,-7.132846355438232,-69.70248413085938,126.63407135009766,-143.10269165039062,-90.4736099243164,-91.63880920410156
0.1243581771850586,-7.132846355438232,-69.70248413085938,126.63407135009766,-143.10269165039062,-90.4736099243164,-91.63880920410156
0.12665319442749023,-7.132846355438232,-69.70248413085938,126.63407135009766,-143.10269165039062,-90.4736099243164,-91.63880920410156
0.12890195846557617,-7.132846355438232,-69.7022705078125,126.63407135009766,-143.1029052734375,-90.47382354736328,-91.63859558105469
0.1310882568359375,-7.132846355438232,-69.7022705078125,126.63407135009766,-143.1029052734375,-90.47382354736328,-91.63859558105469
0.13327527046203613,-7.132846355438232,-69.7022705078125,126.63407135009766,-143.1029052734375,-90.47382354736328,-91.63859558105469
0.13556981086730957,-7.132846355438232,-69.7022705078125,126.63407135009766,-143.1029052734375,-90.47382354736328,-91.63859558105469
0.1378781795501709,-7.132846355438232,-69.7022705078125,126.63407135009766,-143.1029052734375,-90.47382354736328,-91.63859558105469
0.14004921913146973,-7.132846355438232,-69.7020492553711,126.63429260253906,-143.1029052734375,-90.4736099243164,-91.63880920410156
0.14221405982971191,-7.132846355438232,-69.7020492553711,126.63429260253906,-143.1029052734375,-90.4736099243164,-91.63880920410156
0.1444091796875,-7.132846355438232,-69.7020492553711,126.63429260253906,-143.1029052734375,-90.4736099243164,-91.63880920410156
0.1466987133026123,-7.132846355438232,-69.7020492553711,126.63429260253906,-143.1029052734375,-90.4736099243164,-91.63880920410156
0.1491248607635498,-7.132846355438232,-69.7020492553711,126.63407135009766,-143.1029052734375,-90.47382354736328,-91.63880920410156
0.15131115913391113,-7.132846355438232,-69.7020492553711,126.63407135009766,-143.1029052734375,-90.47382354736328,-91.63880920410156
0.15361714363098145,-7.132846355438232,-69.7020492553711,126.63407135009766,-143.1029052734375,-90.47382354736328,-91.63880920410156
0.1559298038482666,-7.132846355438232,-69.7020492553711,126.63407135009766,-143.1029052734375,-90.47382354736328,-91.63880920410156
0.15908598899841309,-7.133063793182373,-69.7022705078125,126.63407135009766,-143.10311889648438,-90.4736099243164,-91.63903045654297
0.16125011444091797,-7.133063793182373,-69.7022705078125,126.63407135009766,-143.10311889648438,-90.4736099243164,-91.63903045654297
0.16354084014892578,-7.133063793182373,-69.7022705078125,126.63407135009766,-143.10311889648438,-90.4736099243164,-91.63903045654297
0.16586065292358398,-7.133063793182373,-69.7022705078125,126.63407135009766,-143.10311889648438,-90.4736099243164,-91.63903045654297
0.16803503036499023,-7.133063793182373,-69.7022705078125,126.63407135009766,-143.10311889648438,-90.4736099243164,-91.63903045654297
0.17020320892333984,-7.132846355438232,-69.7020492553711,126.63429260253906,-143.1029052734375,-90.4736099243164,-91.63859558105469
0.17249250411987305,-7.132846355438232,-69.7020492553711,126.63429260253906,-143.1029052734375,-90.4736099243164,-91.63859558105469
0.17476534843444824,-7.132846355438232,-69.7020492553711,126.63429260253906,-143.1029052734375,-90.4736099243164,-91.63859558105469
0.17701482772827148,-7.132846355438232,-69.7020492553711,126.63429260253906,-143.1029052734375,-90.4736099243164,-91.63859558105469
0.17918872833251953,-7.132846355438232,-69.7022705078125,126.63429260253906,-143.10311889648438,-90.47382354736328,-91.63880920410156
0.1813647747039795,-7.132846355438232,-69.7022705078125,126.63429260253906,-143.10311889648438,-90.47382354736328,-91.63880920410156
0.1836555004119873,-7.132846355438232,-69.7022705078125,126.63429260253906,-143.10311889648438,-90.47382354736328,-91.63880920410156
0.1859283447265625,-7.132846355438232,-69.7022705078125,126.63429260253906,-143.10311889648438,-90.47382354736328,-91.63880920410156
0.1890857219696045,-7.132846355438232,-69.7020492553711,126.63407135009766,-143.10269165039062,-90.4736099243164,-91.63859558105469
0.19132709503173828,-7.132846355438232,-69.7020492553711,126.63407135009766,-143.10269165039062,-90.4736099243164,-91.63859558105469
0.19356107711791992,-7.132846355438232,-69.7020492553711,126.63407135009766,-143.10269165039062,-90.4736099243164,-91.63859558105469
0.1957695484161377,-7.132846355438232,-69.7020492553711,126.63407135009766,-143.10269165039062,-90.4736099243164,-91.63859558105469
0.19854474067687988,-7.133063793182373,-69.7022705078125,126.63407135009766,-143.1029052734375,-90.47382354736328,-91.63880920410156
0.20077180862426758,-7.133063793182373,-69.7022705078125,126.63407135009766,-143.1029052734375,-90.47382354736328,-91.63880920410156
0.20294523239135742,-7.133063793182373,-69.7022705078125,126.63407135009766,-143.1029052734375,-90.47382354736328,-91.63880920410156
0.20509600639343262,-7.133063793182373,-69.7022705078125,126.63407135009766,-143.1029052734375,-90.47382354736328,-91.63880920410156
0.207244873046875,-7.133063793182373,-69.7022705078125,126.63407135009766,-143.1029052734375,-90.47382354736328,-91.63880920410156
0.2094426155090332,-7.132846355438232,-69.7022705078125,126.63385772705078,-143.1029052734375,-90.4736099243164,-91.63880920410156
0.21163368225097656,-7.132846355438232,-69.7022705078125,126.63385772705078,-143.1029052734375,-90.4736099243164,-91.63880920410156
0.21384906768798828,-7.132846355438232,-69.7022705078125,126.63385772705078,-143.1029052734375,-90.4736099243164,-91.63880920410156
0.2159407138824463,-7.132846355438232,-69.7022705078125,126.63385772705078,-143.1029052734375,-90.4736099243164,-91.63880920410156
0.21832942962646484,-7.132846355438232,-69.7020492553711,126.63407135009766,-143.1029052734375,-90.4736099243164,-91.63880920410156
0.2205181121826172,-7.132846355438232,-69.7020492553711,126.63407135009766,-143.1029052734375,-90.4736099243164,-91.63880920410156
0.22270774841308594,-7.132846355438232,-69.7020492553711,126.63407135009766,-143.1029052734375,-90.4736099243164,-91.63880920410156
0.22490477561950684,-7.132846355438232,-69.7020492553711,126.63407135009766,-143.1029052734375,-90.4736099243164,-91.63880920410156
0.2270200252532959,-7.132846355438232,-69.7020492553711,126.63407135009766,-143.1029052734375,-90.4736099243164,-91.63880920410156
0.22911882400512695,-7.132846355438232,-69.7020492553711,126.63407135009766,-143.1029052734375,-90.47382354736328,-91.63880920410156
0.23121929168701172,-7.132846355438232,-69.7020492553711,126.63407135009766,-143.1029052734375,-90.47382354736328,-91.63880920410156
0.23341870307922363,-7.132846355438232,-69.7020492553711,126.63407135009766,-143.1029052734375,-90.47382354736328,-91.63880920410156
0.23561978340148926,-7.132846355438232,-69.7020492553711,126.63407135009766,-143.1029052734375,-90.47382354736328,-91.63880920410156
0.2386026382446289,-7.132846355438232,-69.7022705078125,126.63407135009766,-143.1029052734375,-90.47382354736328,-91.63880920410156
0.24086403846740723,-7.132846355438232,-69.7022705078125,126.63407135009766,-143.1029052734375,-90.47382354736328,-91.63880920410156
0.24305033683776855,-7.132846355438232,-69.7022705078125,126.63407135009766,-143.1029052734375,-90.47382354736328,-91.63880920410156
0.24523687362670898,-7.132846355438232,-69.7022705078125,126.63407135009766,-143.1029052734375,-90.47382354736328,-91.63880920410156
0.24747371673583984,-7.132846355438232,-69.7022705078125,126.63407135009766,-143.1029052734375,-90.47382354736328,-91.63880920410156
0.24970316886901855,-7.133063793182373,-69.7020492553711,126.63407135009766,-143.10311889648438,-90.47382354736328,-91.63880920410156
0.2518949508666992,-7.133063793182373,-69.7020492553711,126.63407135009766,-143.10311889648438,-90.47382354736328,-91.63880920410156
0.2540700435638428,-7.133063793182373,-69.7020492553711,126.63407135009766,-143.10311889648438,-90.47382354736328,-91.63880920410156
0.2562558650970459,-7.133063793182373,-69.7020492553711,126.63407135009766,-143.10311889648438,-90.47382354736328,-91.63880920410156
0.2588024139404297,-7.133063793182373,-69.7020492553711,126.63407135009766,-143.1029052734375,-90.47382354736328,-91.63880920410156
0.26094484329223633,-7.133063793182373,-69.7020492553711,126.63407135009766,-143.1029052734375,-90.47382354736328,-91.63880920410156
0.26308727264404297,-7.133063793182373,-69.7020492553711,126.63407135009766,-143.1029052734375,-90.47382354736328,-91.63880920410156
0.2652304172515869,-7.133063793182373,-69.7020492553711,126.63407135009766,-143.1029052734375,-90.47382354736328,-91.63880920410156
0.26742029190063477,-7.133063793182373,-69.7020492553711,126.63407135009766,-143.1029052734375,-90.47382354736328,-91.63880920410156
0.26961350440979004,-7.133063793182373,-69.7020492553711,126.63407135009766,-143.10311889648438,-90.47382354736328,-91.63880920410156
0.2718203067779541,-7.133063793182373,-69.7020492553711,126.63407135009766,-143.10311889648438,-90.47382354736328,-91.63880920410156
0.27391958236694336,-7.133063793182373,-69.7020492553711,126.63407135009766,-143.10311889648438,-90.47382354736328,-91.63880920410156
0.27603840827941895,-7.133063793182373,-69.7020492553711,126.63407135009766,-143.10311889648438,-90.47382354736328,-91.63880920410156
0.2783172130584717,-7.133063793182373,-69.7022705078125,126.63429260253906,-143.10269165039062,-90.47382354736328,-91.63880920410156
0.28050661087036133,-7.133063793182373,-69.7022705078125,126.63429260253906,-143.10269165039062,-90.47382354736328,-91.63880920410156
0.2827000617980957,-7.133063793182373,-69.7022705078125,126.63429260253906,-143.10269165039062,-90.47382354736328,-91.63880920410156
0.2848832607269287,-7.133063793182373,-69.7022705078125,126.63429260253906,-143.10269165039062,-90.47382354736328,-91.63880920410156
0.28702449798583984,-7.133063793182373,-69.7022705078125,126.63429260253906,-143.10269165039062,-90.47382354736328,-91.63880920410156
0.28913021087646484,-7.132846355438232,-69.7020492553711,126.63407135009766,-143.10311889648438,-90.4736099243164,-91.63880920410156
0.29121923446655273,-7.132846355438232,-69.7020492553711,126.63407135009766,-143.10311889648438,-90.4736099243164,-91.63880920410156
0.29332470893859863,-7.132846355438232,-69.7020492553711,126.63407135009766,-143.10311889648438,-90.4736099243164,-91.63880920410156
0.2954092025756836,-7.132846355438232,-69.7020492553711,126.63407135009766,-143.10311889648438,-90.4736099243164,-91.63880920410156
0.29749202728271484,-7.132846355438232,-69.7020492553711,126.63407135009766,-143.10311889648438,-90.4736099243164,-91.63880920410156
0.2995774745941162,-7.132846355438232,-69.7020492553711,126.63407135009766,-143.10311889648438,-90.47382354736328,-91.63880920410156
0.3016684055328369,-7.132846355438232,-69.7020492553711,126.63407135009766,-143.10311889648438,-90.47382354736328,-91.63880920410156
0.3037581443786621,-7.132846355438232,-69.7020492553711,126.63407135009766,-143.10311889648438,-90.47382354736328,-91.63880920410156
0.3058161735534668,-7.132846355438232,-69.7020492553711,126.63407135009766,-143.10311889648438,-90.47382354736328,-91.63880920410156
0.30851197242736816,-7.132846355438232,-69.7020492553711,126.63407135009766,-143.1029052734375,-90.47382354736328,-91.63859558105469
0.3106257915496826,-7.132846355438232,-69.7020492553711,126.63407135009766,-143.1029052734375,-90.47382354736328,-91.63859558105469
0.31272339820861816,-7.132846355438232,-69.7020492553711,126.63407135009766,-143.1029052734375,-90.47382354736328,-91.63859558105469
0.31481337547302246,-7.132846355438232,-69.7020492553711,126.63407135009766,-143.1029052734375,-90.47382354736328,-91.63859558105469
0.31690454483032227,-7.132846355438232,-69.7020492553711,126.63407135009766,-143.1029052734375,-90.47382354736328,-91.63859558105469
0.3189995288848877,-7.133063793182373,-69.7020492553711,126.63429260253906,-143.10311889648438,-90.4736099243164,-91.63880920410156
0.32108497619628906,-7.133063793182373,-69.7020492553711,126.63429260253906,-143.10311889648438,-90.4736099243164,-91.63880920410156
0.3232553005218506,-7.133063793182373,-69.7020492553711,126.63429260253906,-143.10311889648438,-90.4736099243164,-91.63880920410156
0.32555413246154785,-7.133063793182373,-69.7020492553711,126.63429260253906,-143.10311889648438,-90.4736099243164,-91.63880920410156
0.32781529426574707,-7.133063793182373,-69.7020492553711,126.63429260253906,-143.10311889648438,-90.4736099243164,-91.63880920410156
0.329988956451416,-7.133063793182373,-69.7020492553711,126.63429260253906,-143.10311889648438,-90.47382354736328,-91.63880920410156
0.3321542739868164,-7.133063793182373,-69.7020492553711,126.63429260253906,-143.10311889648438,-90.47382354736328,-91.63880920410156
0.33432960510253906,-7.133063793182373,-69.7020492553711,126.63429260253906,-143.10311889648438,-90.47382354736328,-91.63880920410156
0.3366103172302246,-7.133063793182373,-69.7020492553711,126.63429260253906,-143.10311889648438,-90.47382354736328,-91.63880920410156
0.3390364646911621,-7.133063793182373,-69.7022705078125,126.63429260253906,-143.10311889648438,-90.4736099243164,-91.63880920410156
0.3412010669708252,-7.133063793182373,-69.7022705078125,126.63429260253906,-143.10311889648438,-90.4736099243164,-91.63880920410156
0.34337949752807617,-7.133063793182373,-69.7022705078125,126.63429260253906,-143.10311889648438,-90.4736099243164,-91.63880920410156
0.3456690311431885,-7.133063793182373,-69.7022705078125,126.63429260253906,-143.10311889648438,-90.4736099243164,-91.63880920410156
0.34882164001464844,-7.132846355438232,-69.7022705078125,126.63407135009766,-143.1029052734375,-90.47382354736328,-91.63880920410156
0.35099339485168457,-7.132846355438232,-69.7022705078125,126.63407135009766,-143.1029052734375,-90.47382354736328,-91.63880920410156
0.3531641960144043,-7.132846355438232,-69.7022705078125,126.63407135009766,-143.1029052734375,-90.47382354736328,-91.63880920410156
0.35532426834106445,-7.132846355438232,-69.7022705078125,126.63407135009766,-143.1029052734375,-90.47382354736328,-91.63880920410156
0.3574984073638916,-7.132846355438232,-69.7022705078125,126.63407135009766,-143.1029052734375,-90.47382354736328,-91.63880920410156
0.35979223251342773,-7.132846355438232,-69.7022705078125,126.63385772705078,-143.10311889648438,-90.4736099243164,-91.63880920410156
0.3619728088378906,-7.132846355438232,-69.7022705078125,126.63385772705078,-143.10311889648438,-90.4736099243164,-91.63880920410156
0.3641359806060791,-7.132846355438232,-69.7022705078125,126.63385772705078,-143.10311889648438,-90.4736099243164,-91.63880920410156
0.3663156032562256,-7.132846355438232,-69.7022705078125,126.63385772705078,-143.10311889648438,-90.4736099243164,-91.63880920410156
0.36876916885375977,-7.132846355438232,-69.7022705078125,126.63429260253906,-143.10311889648438,-90.47382354736328,-91.63859558105469
0.3709897994995117,-7.132846355438232,-69.7022705078125,126.63429260253906,-143.10311889648438,-90.47382354736328,-91.63859558105469
0.3731651306152344,-7.132846355438232,-69.7022705078125,126.63429260253906,-143.10311889648438,-90.47382354736328,-91.63859558105469
0.37534332275390625,-7.132846355438232,-69.7022705078125,126.63429260253906,-143.10311889648438,-90.47382354736328,-91.63859558105469
0.37764573097229004,-7.132846355438232,-69.7022705078125,126.63429260253906,-143.10311889648438,-90.47382354736328,-91.63859558105469
0.37993764877319336,-7.133063793182373,-69.7022705078125,126.63429260253906,-143.10311889648438,-90.47382354736328,-91.63903045654297
0.38210153579711914,-7.133063793182373,-69.7022705078125,126.63429260253906,-143.10311889648438,-90.47382354736328,-91.63903045654297
0.3842813968658447,-7.133063793182373,-69.7022705078125,126.63429260253906,-143.10311889648438,-90.47382354736328,-91.63903045654297
0.38657259941101074,-7.133063793182373,-69.7022705078125,126.63429260253906,-143.10311889648438,-90.47382354736328,-91.63903045654297
0.38884902000427246,-7.133281230926514,-69.7020492553711,126.63385772705078,-143.1029052734375,-90.47382354736328,-91.63880920410156
0.3910253047943115,-7.133281230926514,-69.7020492553711,126.63385772705078,-143.1029052734375,-90.47382354736328,-91.63880920410156
0.3931899070739746,-7.133281230926514,-69.7020492553711,126.63385772705078,-143.1029052734375,-90.47382354736328,-91.63880920410156
0.39537620544433594,-7.133281230926514,-69.7020492553711,126.63385772705078,-143.1029052734375,-90.47382354736328,-91.63880920410156
0.3975486755371094,-7.133281230926514,-69.7020492553711,126.63385772705078,-143.1029052734375,-90.47382354736328,-91.63880920410156
0.3998384475708008,-7.133281230926514,-69.7022705078125,126.63385772705078,-143.10311889648438,-90.4736099243164,-91.63880920410156
0.4019904136657715,-7.133281230926514,-69.7022705078125,126.63385772705078,-143.10311889648438,-90.4736099243164,-91.63880920410156
0.40416407585144043,-7.133281230926514,-69.7022705078125,126.63385772705078,-143.10311889648438,-90.4736099243164,-91.63880920410156
0.4063282012939453,-7.133281230926514,-69.7022705078125,126.63385772705078,-143.10311889648438,-90.4736099243164,-91.63880920410156
0.4085540771484375,-7.133281230926514,-69.7020492553711,126.63429260253906,-143.10311889648438,-90.4736099243164,-91.63880920410156
0.41082239151000977,-7.133281230926514,-69.7020492553711,126.63429260253906,-143.10311889648438,-90.4736099243164,-91.63880920410156
0.412961483001709,-7.133281230926514,-69.7020492553711,126.63429260253906,-143.10311889648438,-90.4736099243164,-91.63880920410156
0.4151015281677246,-7.133281230926514,-69.7020492553711,126.63429260253906,-143.10311889648438,-90.4736099243164,-91.63880920410156
0.4172627925872803,-7.133281230926514,-69.7020492553711,126.63429260253906,-143.10311889648438,-90.4736099243164,-91.63880920410156
0.4194338321685791,-7.133281230926514,-69.7020492553711,126.63407135009766,-143.1029052734375,-90.4736099243164,-91.63859558105469
0.42172884941101074,-7.133281230926514,-69.7020492553711,126.63407135009766,-143.1029052734375,-90.4736099243164,-91.63859558105469
0.4240264892578125,-7.133281230926514,-69.7020492553711,126.63407135009766,-143.1029052734375,-90.4736099243164,-91.63859558105469
0.42620110511779785,-7.133281230926514,-69.7020492553711,126.63407135009766,-143.1029052734375,-90.4736099243164,-91.63859558105469
0.4292147159576416,-7.1334991455078125,-69.7020492553711,126.63429260253906,-143.1033477783203,-90.47382354736328,-91.63880920410156
0.43138694763183594,-7.1334991455078125,-69.7020492553711,126.63429260253906,-143.1033477783203,-90.47382354736328,-91.63880920410156
0.43367481231689453,-7.1334991455078125,-69.7020492553711,126.63429260253906,-143.1033477783203,-90.47382354736328,-91.63880920410156
0.4359614849090576,-7.1334991455078125,-69.7020492553711,126.63429260253906,-143.1033477783203,-90.47382354736328,-91.63880920410156
0.4390590190887451,-7.1334991455078125,-69.7022705078125,126.63407135009766,-143.10311889648438,-90.4736099243164,-91.63880920410156
0.4412252902984619,-7.1334991455078125,-69.7022705078125,126.63407135009766,-143.10311889648438,-90.4736099243164,-91.63880920410156
0.44338417053222656,-7.1334991455078125,-69.7022705078125,126.63407135009766,-143.10311889648438,-90.4736099243164,-91.63880920410156
0.4456746578216553,-7.1334991455078125,-69.7022705078125,126.63407135009766,-143.10311889648438,-90.4736099243164,-91.63880920410156
0.44893670082092285,-7.133063793182373,-69.7022705078125,126.63407135009766,-143.10311889648438,-90.47382354736328,-91.63880920410156
0.4511122703552246,-7.133063793182373,-69.7022705078125,126.63407135009766,-143.10311889648438,-90.47382354736328,-91.63880920410156
0.4532899856567383,-7.133063793182373,-69.7022705078125,126.63407135009766,-143.10311889648438,-90.47382354736328,-91.63880920410156
0.45559024810791016,-7.133063793182373,-69.7022705078125,126.63407135009766,-143.10311889648438,-90.47382354736328,-91.63880920410156
0.4579172134399414,-7.133063793182373,-69.7022705078125,126.63407135009766,-143.10311889648438,-90.47382354736328,-91.63880920410156
0.4600989818572998,-7.133281230926514,-69.7022705078125,126.63407135009766,-143.10311889648438,-90.47382354736328,-91.63880920410156
0.46227216720581055,-7.133281230926514,-69.7022705078125,126.63407135009766,-143.10311889648438,-90.47382354736328,-91.63880920410156
0.4645671844482422,-7.133281230926514,-69.7022705078125,126.63407135009766,-143.10311889648438,-90.47382354736328,-91.63880920410156
0.46685171127319336,-7.133281230926514,-69.7022705078125,126.63407135009766,-143.10311889648438,-90.47382354736328,-91.63880920410156
0.4690275192260742,-7.1334991455078125,-69.7022705078125,126.63407135009766,-143.10311889648438,-90.47382354736328,-91.63859558105469
0.4711942672729492,-7.1334991455078125,-69.7022705078125,126.63407135009766,-143.10311889648438,-90.47382354736328,-91.63859558105469
0.4733853340148926,-7.1334991455078125,-69.7022705078125,126.63407135009766,-143.10311889648438,-90.47382354736328,-91.63859558105469
0.47568678855895996,-7.1334991455078125,-69.7022705078125,126.63407135009766,-143.10311889648438,-90.47382354736328,-91.63859558105469
0.4789271354675293,-7.1334991455078125,-69.7020492553711,126.63407135009766,-143.10311889648438,-90.47382354736328,-91.63880920410156
0.48108386993408203,-7.1334991455078125,-69.7020492553711,126.63407135009766,-143.10311889648438,-90.47382354736328,-91.63880920410156
0.48325014114379883,-7.1334991455078125,-69.7020492553711,126.63407135009766,-143.10311889648438,-90.47382354736328,-91.63880920410156
0.4854269027709961,-7.1334991455078125,-69.7020492553711,126.63407135009766,-143.10311889648438,-90.47382354736328,-91.63880920410156
0.4877326488494873,-7.1334991455078125,-69.7020492553711,126.63407135009766,-143.10311889648438,-90.47382354736328,-91.63880920410156
0.49001288414001465,-7.1334991455078125,-69.7022705078125,126.63429260253906,-143.10311889648438,-90.47382354736328,-91.63880920410156
0.49217748641967773,-7.1334991455078125,-69.7022705078125,126.63429260253906,-143.10311889648438,-90.47382354736328,-91.63880920410156
0.4943552017211914,-7.1334991455078125,-69.7022705078125,126.63429260253906,-143.10311889648438,-90.47382354736328,-91.63880920410156
0.4966421127319336,-7.1334991455078125,-69.7022705078125,126.63429260253906,-143.10311889648438,-90.47382354736328,-91.63880920410156
0.49932098388671875,-7.133281230926514,-69.7022705078125,126.63407135009766,-143.10311889648438,-90.4736099243164,-91.63880920410156
0.5015838146209717,-7.133281230926514,-69.7022705078125,126.63407135009766,-143.10311889648438,-90.4736099243164,-91.63880920410156
0.5038771629333496,-7.133281230926514,-69.7022705078125,126.63407135009766,-143.10311889648438,-90.4736099243164,-91.63880920410156
0.5060410499572754,-7.133281230926514,-69.7022705078125,126.63407135009766,-143.10311889648438,-90.4736099243164,-91.63880920410156
0.508213996887207,-7.133281230926514,-69.7022705078125,126.63407135009766,-143.10311889648438,-90.4736099243164,-91.63880920410156
0.511030912399292,-7.133281230926514,-69.7022705078125,126.63407135009766,-143.10311889648438,-90.47382354736328,-91.63880920410156
0.5131955146789551,-7.133281230926514,-69.7022705078125,126.63407135009766,-143.10311889648438,-90.47382354736328,-91.63880920410156
0.5153889656066895,-7.133281230926514,-69.7022705078125,126.63407135009766,-143.10311889648438,-90.47382354736328,-91.63880920410156
0.5176875591278076,-7.133281230926514,-69.7022705078125,126.63407135009766,-143.10311889648438,-90.47382354736328,-91.63880920410156
0.520923376083374,-7.133063793182373,-69.7020492553711,126.63407135009766,-143.10311889648438,-90.4736099243164,-91.63880920410156
0.523078441619873,-7.133063793182373,-69.7020492553711,126.63407135009766,-143.10311889648438,-90.4736099243164,-91.63880920410156
0.5252475738525391,-7.133063793182373,-69.7020492553711,126.63407135009766,-143.10311889648438,-90.4736099243164,-91.63880920410156
0.527414083480835,-7.133063793182373,-69.7020492553711,126.63407135009766,-143.10311889648438,-90.4736099243164,-91.63880920410156
0.5296444892883301,-7.133063793182373,-69.7020492553711,126.63407135009766,-143.10311889648438,-90.4736099243164,-91.63880920410156
0.5319595336914062,-7.1334991455078125,-69.7022705078125,126.63407135009766,-143.10311889648438,-90.4736099243164,-91.63859558105469
0.5341463088989258,-7.1334991455078125,-69.7022705078125,126.63407135009766,-143.10311889648438,-90.4736099243164,-91.63859558105469
0.5363349914550781,-7.1334991455078125,-69.7022705078125,126.63407135009766,-143.10311889648438,-90.4736099243164,-91.63859558105469
0.5386288166046143,-7.1334991455078125,-69.7022705078125,126.63407135009766,-143.10311889648438,-90.4736099243164,-91.63859558105469
0.5409133434295654,-7.133716583251953,-69.7022705078125,126.63385772705078,-143.10311889648438,-90.47382354736328,-91.63880920410156
0.5430855751037598,-7.133716583251953,-69.7022705078125,126.63385772705078,-143.10311889648438,-90.47382354736328,-91.63880920410156
0.5452554225921631,-7.133716583251953,-69.7022705078125,126.63385772705078,-143.10311889648438,-90.47382354736328,-91.63880920410156
0.5475382804870605,-7.133716583251953,-69.7022705078125,126.63385772705078,-143.10311889648438,-90.47382354736328,-91.63880920410156
0.5498602390289307,-7.133716583251953,-69.7022705078125,126.63385772705078,-143.10311889648438,-90.47382354736328,-91.63880920410156
0.5520071983337402,-7.133281230926514,-69.7020492553711,126.63429260253906,-143.10311889648438,-90.47382354736328,-91.63880920410156
0.5541620254516602,-7.133281230926514,-69.7020492553711,126.63429260253906,-143.10311889648438,-90.47382354736328,-91.63880920410156
0.55635666847229,-7.133281230926514,-69.7020492553711,126.63429260253906,-143.10311889648438,-90.47382354736328,-91.63880920410156
0.5586419105529785,-7.133281230926514,-69.7020492553711,126.63429260253906,-143.10311889648438,-90.47382354736328,-91.63880920410156
0.5610959529876709,-7.1334991455078125,-69.7020492553711,126.63385772705078,-143.1029052734375,-90.47382354736328,-91.63880920410156
0.5632681846618652,-7.1334991455078125,-69.7020492553711,126.63385772705078,-143.1029052734375,-90.47382354736328,-91.63880920410156
0.5655632019042969,-7.1334991455078125,-69.7020492553711,126.63385772705078,-143.1029052734375,-90.47382354736328,-91.63880920410156
0.5678884983062744,-7.1334991455078125,-69.7020492553711,126.63385772705078,-143.1029052734375,-90.47382354736328,-91.63880920410156
0.5711982250213623,-7.1334991455078125,-69.7020492553711,126.63407135009766,-143.10311889648438,-90.47382354736328,-91.63859558105469
0.5733885765075684,-7.1334991455078125,-69.7020492553711,126.63407135009766,-143.10311889648438,-90.47382354736328,-91.63859558105469
0.5756685733795166,-7.1334991455078125,-69.7020492553711,126.63407135009766,-143.10311889648438,-90.47382354736328,-91.63859558105469
0.5779438018798828,-7.1334991455078125,-69.7020492553711,126.63407135009766,-143.10311889648438,-90.47382354736328,-91.63859558105469
0.5810592174530029,-7.133281230926514,-69.7022705078125,126.63385772705078,-143.1029052734375,-90.4736099243164,-91.63880920410156
0.5832140445709229,-7.133281230926514,-69.7022705078125,126.63385772705078,-143.1029052734375,-90.4736099243164,-91.63880920410156
0.5853898525238037,-7.133281230926514,-69.7022705078125,126.63385772705078,-143.1029052734375,-90.4736099243164,-91.63880920410156
0.5876834392547607,-7.133281230926514,-69.7022705078125,126.63385772705078,-143.1029052734375,-90.4736099243164,-91.63880920410156
0.5899300575256348,-7.133281230926514,-69.7022705078125,126.63385772705078,-143.1029052734375,-90.4736099243164,-91.63880920410156
0.5920999050140381,-7.133281230926514,-69.7022705078125,126.63407135009766,-143.10247802734375,-90.47382354736328,-91.63880920410156
0.5942625999450684,-7.133281230926514,-69.7022705078125,126.63407135009766,-143.10247802734375,-90.47382354736328,-91.63880920410156
0.5965445041656494,-7.133281230926514,-69.7022705078125,126.63407135009766,-143.10247802734375,-90.47382354736328,-91.63880920410156
0.598874568939209,-7.133281230926514,-69.7022705078125,126.63407135009766,-143.10247802734375,-90.47382354736328,-91.63880920410156
0.6010499000549316,-7.1334991455078125,-69.7020492553711,126.63429260253906,-143.10269165039062,-90.4736099243164,-91.63880920410156
0.6032199859619141,-7.1334991455078125,-69.7020492553711,126.63429260253906,-143.10269165039062,-90.4736099243164,-91.63880920410156
0.605381965637207,-7.1334991455078125,-69.7020492553711,126.63429260253906,-143.10269165039062,-90.4736099243164,-91.63880920410156
0.6076638698577881,-7.1334991455078125,-69.7020492553711,126.63429260253906,-143.10269165039062,-90.4736099243164,-91.63880920410156
0.6099064350128174,-7.1334991455078125,-69.7020492553711,126.63429260253906,-143.10269165039062,-90.4736099243164,-91.63880920410156
0.6120743751525879,-7.1334991455078125,-69.7020492553711,126.63385772705078,-143.10247802734375,-90.47382354736328,-91.63880920410156
0.614232063293457,-7.1334991455078125,-69.7020492553711,126.63385772705078,-143.10247802734375,-90.47382354736328,-91.63880920410156
0.6163926124572754,-7.1334991455078125,-69.7020492553711,126.63385772705078,-143.10247802734375,-90.47382354736328,-91.63880920410156
0.6186656951904297,-7.1334991455078125,-69.7020492553711,126.63385772705078,-143.10247802734375,-90.47382354736328,-91.63880920410156
0.6210763454437256,-7.133281230926514,-69.7022705078125,126.63407135009766,-143.1022491455078,-90.4736099243164,-91.63859558105469
0.6232504844665527,-7.133281230926514,-69.7022705078125,126.63407135009766,-143.1022491455078,-90.4736099243164,-91.63859558105469
0.6255452632904053,-7.133281230926514,-69.7022705078125,126.63407135009766,-143.1022491455078,-90.4736099243164,-91.63859558105469
0.6278760433197021,-7.133281230926514,-69.7022705078125,126.63407135009766,-143.1022491455078,-90.4736099243164,-91.63859558105469
0.6311116218566895,-7.1334991455078125,-69.7022705078125,126.63407135009766,-143.10269165039062,-90.47382354736328,-91.63859558105469
0.6332828998565674,-7.1334991455078125,-69.7022705078125,126.63407135009766,-143.10269165039062,-90.47382354736328,-91.63859558105469
0.6355350017547607,-7.1334991455078125,-69.7022705078125,126.63407135009766,-143.10269165039062,-90.47382354736328,-91.63859558105469
0.637847900390625,-7.1334991455078125,-69.7022705078125,126.63407135009766,-143.10269165039062,-90.47382354736328,-91.63859558105469
0.640023946762085,-7.1334991455078125,-69.7022705078125,126.63407135009766,-143.10269165039062,-90.47382354736328,-91.63859558105469
0.6421940326690674,-7.1334991455078125,-69.7020492553711,126.63407135009766,-143.10269165039062,-90.47382354736328,-91.63880920410156
0.6443655490875244,-7.1334991455078125,-69.7020492553711,126.63407135009766,-143.10269165039062,-90.47382354736328,-91.63880920410156
0.646674394607544,-7.1334991455078125,-69.7020492553711,126.63407135009766,-143.10269165039062,-90.47382354736328,-91.63880920410156
0.6489758491516113,-7.1334991455078125,-69.7020492553711,126.63407135009766,-143.10269165039062,-90.47382354736328,-91.63880920410156
0.6511507034301758,-7.133281230926514,-69.7020492553711,126.63385772705078,-143.10247802734375,-90.47382354736328,-91.63903045654297
0.6533291339874268,-7.133281230926514,-69.7020492553711,126.63385772705078,-143.10247802734375,-90.47382354736328,-91.63903045654297
0.6556258201599121,-7.133281230926514,-69.7020492553711,126.63385772705078,-143.10247802734375,-90.47382354736328,-91.63903045654297
0.6579420566558838,-7.133281230926514,-69.7020492553711,126.63385772705078,-143.10247802734375,-90.47382354736328,-91.63903045654297
0.6609852313995361,-7.133281230926514,-69.7022705078125,126.63429260253906,-143.10247802734375,-90.47404479980469,-91.63880920410156
0.6631488800048828,-7.133281230926514,-69.7022705078125,126.63429260253906,-143.10247802734375,-90.47404479980469,-91.63880920410156
0.6653196811676025,-7.133281230926514,-69.7022705078125,126.63429260253906,-143.10247802734375,-90.47404479980469,-91.63880920410156
0.6676123142242432,-7.133281230926514,-69.7022705078125,126.63429260253906,-143.10247802734375,-90.47404479980469,-91.63880920410156
0.6699197292327881,-7.133281230926514,-69.7022705078125,126.63429260253906,-143.10247802734375,-90.47404479980469,-91.63880920410156
0.6720845699310303,-7.133281230926514,-69.7022705078125,126.63407135009766,-143.1022491455078,-90.47382354736328,-91.63903045654297
0.6742532253265381,-7.133281230926514,-69.7022705078125,126.63407135009766,-143.1022491455078,-90.47382354736328,-91.63903045654297
0.676548957824707,-7.133281230926514,-69.7022705078125,126.63407135009766,-143.1022491455078,-90.47382354736328,-91.63903045654297
0.6788582801818848,-7.133281230926514,-69.7022705078125,126.63407135009766,-143.1022491455078,-90.47382354736328,-91.63903045654297
0.6810095310211182,-7.133281230926514,-69.7020492553711,126.63407135009766,-143.10247802734375,-90.4736099243164,-91.63880920410156
0.683201789855957,-7.133281230926514,-69.7020492553711,126.63407135009766,-143.10247802734375,-90.4736099243164,-91.63880920410156
0.6853883266448975,-7.133281230926514,-69.7020492553711,126.63407135009766,-143.10247802734375,-90.4736099243164,-91.63880920410156
0.6876437664031982,-7.133281230926514,-69.7020492553711,126.63407135009766,-143.10247802734375,-90.4736099243164,-91.63880920410156
0.6899125576019287,-7.133281230926514,-69.7020492553711,126.63407135009766,-143.10247802734375,-90.4736099243164,-91.63880920410156
0.6921036243438721,-7.1334991455078125,-69.7022705078125,126.63407135009766,-143.10247802734375,-90.47382354736328,-91.63859558105469
0.6942918300628662,-7.1334991455078125,-69.7022705078125,126.63407135009766,-143.10247802734375,-90.47382354736328,-91.63859558105469
0.6965830326080322,-7.1334991455078125,-69.7022705078125,126.63407135009766,-143.10247802734375,-90.47382354736328,-91.63859558105469
0.6988954544067383,-7.1334991455078125,-69.7022705078125,126.63407135009766,-143.10247802734375,-90.47382354736328,-91.63859558105469
0.7012157440185547,-7.133716583251953,-69.7022705078125,126.63407135009766,-143.1022491455078,-90.47382354736328,-91.63859558105469
0.7033891677856445,-7.133716583251953,-69.7022705078125,126.63407135009766,-143.1022491455078,-90.47382354736328,-91.63859558105469
0.7056176662445068,-7.133716583251953,-69.7022705078125,126.63407135009766,-143.1022491455078,-90.47382354736328,-91.63859558105469
0.7078580856323242,-7.133716583251953,-69.7022705078125,126.63407135009766,-143.1022491455078,-90.47382354736328,-91.63859558105469
0.7104411125183105,-7.133281230926514,-69.7020492553711,126.63407135009766,-143.10247802734375,-90.47382354736328,-91.63859558105469
0.7126939296722412,-7.133281230926514,-69.7020492553711,126.63407135009766,-143.10247802734375,-90.47382354736328,-91.63859558105469
0.7149667739868164,-7.133281230926514,-69.7020492553711,126.63407135009766,-143.10247802734375,-90.47382354736328,-91.63859558105469
0.717113733291626,-7.133281230926514,-69.7020492553711,126.63407135009766,-143.10247802734375,-90.47382354736328,-91.63859558105469
0.7192919254302979,-7.133281230926514,-69.7020492553711,126.63407135009766,-143.10247802734375,-90.47382354736328,-91.63859558105469
0.7215549945831299,-7.133281230926514,-69.7022705078125,126.63385772705078,-143.10247802734375,-90.47382354736328,-91.63880920410156
0.7238788604736328,-7.133281230926514,-69.7022705078125,126.63385772705078,-143.10247802734375,-90.47382354736328,-91.63880920410156
0.7260539531707764,-7.133281230926514,-69.7022705078125,126.63385772705078,-143.10247802734375,-90.47382354736328,-91.63880920410156
0.7282273769378662,-7.133281230926514,-69.7022705078125,126.63385772705078,-143.10247802734375,-90.47382354736328,-91.63880920410156
0.7310259342193604,-7.133281230926514,-69.7020492553711,126.63407135009766,-143.10247802734375,-90.4736099243164,-91.63880920410156
0.7332112789154053,-7.133281230926514,-69.7020492553711,126.63407135009766,-143.10247802734375,-90.4736099243164,-91.63880920410156
0.7353982925415039,-7.133281230926514,-69.7020492553711,126.63407135009766,-143.10247802734375,-90.4736099243164,-91.63880920410156
0.7376668453216553,-7.133281230926514,-69.7020492553711,126.63407135009766,-143.10247802734375,-90.4736099243164,-91.63880920410156
0.7408506870269775,-7.1334991455078125,-69.7020492553711,126.63407135009766,-143.1022491455078,-90.47382354736328,-91.63859558105469
0.7429490089416504,-7.1334991455078125,-69.7020492553711,126.63407135009766,-143.1022491455078,-90.47382354736328,-91.63859558105469
0.7450361251831055,-7.1334991455078125,-69.7020492553711,126.63407135009766,-143.1022491455078,-90.47382354736328,-91.63859558105469
0.7471988201141357,-7.1334991455078125,-69.7020492553711,126.63407135009766,-143.1022491455078,-90.47382354736328,-91.63859558105469
0.7493765354156494,-7.1334991455078125,-69.7020492553711,126.63407135009766,-143.1022491455078,-90.47382354736328,-91.63859558105469
0.7516648769378662,-7.1334991455078125,-69.7020492553711,126.63385772705078,-143.10247802734375,-90.4736099243164,-91.63880920410156
0.7539553642272949,-7.1334991455078125,-69.7020492553711,126.63385772705078,-143.10247802734375,-90.4736099243164,-91.63880920410156
0.7561426162719727,-7.1334991455078125,-69.7020492553711,126.63385772705078,-143.10247802734375,-90.4736099243164,-91.63880920410156
0.7583281993865967,-7.1334991455078125,-69.7020492553711,126.63385772705078,-143.10247802734375,-90.4736099243164,-91.63880920410156
0.7609045505523682,-7.133281230926514,-69.7020492553711,126.63407135009766,-143.1022491455078,-90.4736099243164,-91.63880920410156
0.7630665302276611,-7.133281230926514,-69.7020492553711,126.63407135009766,-143.1022491455078,-90.4736099243164,-91.63880920410156
0.7652580738067627,-7.133281230926514,-69.7020492553711,126.63407135009766,-143.1022491455078,-90.4736099243164,-91.63880920410156
0.767535924911499,-7.133281230926514,-69.7020492553711,126.63407135009766,-143.1022491455078,-90.4736099243164,-91.63880920410156
0.7697646617889404,-7.133281230926514,-69.7020492553711,126.63407135009766,-143.1022491455078,-90.4736099243164,-91.63880920410156
0.7720017433166504,-7.133281230926514,-69.7022705078125,126.63407135009766,-143.10247802734375,-90.47382354736328,-91.63859558105469
0.7741880416870117,-7.133281230926514,-69.7022705078125,126.63407135009766,-143.10247802734375,-90.47382354736328,-91.63859558105469
0.7763757705688477,-7.133281230926514,-69.7022705078125,126.63407135009766,-143.10247802734375,-90.47382354736328,-91.63859558105469
0.7786786556243896,-7.133281230926514,-69.7022705078125,126.63407135009766,-143.10247802734375,-90.47382354736328,-91.63859558105469
0.7809293270111084,-7.133281230926514,-69.7020492553711,126.63407135009766,-143.10247802734375,-90.4736099243164,-91.63880920410156
0.7830929756164551,-7.133281230926514,-69.7020492553711,126.63407135009766,-143.10247802734375,-90.4736099243164,-91.63880920410156
0.7852678298950195,-7.133281230926514,-69.7020492553711,126.63407135009766,-143.10247802734375,-90.4736099243164,-91.63880920410156
0.7875566482543945,-7.133281230926514,-69.7020492553711,126.63407135009766,-143.10247802734375,-90.4736099243164,-91.63880920410156
0.7898142337799072,-7.133281230926514,-69.7020492553711,126.63407135009766,-143.10247802734375,-90.4736099243164,-91.63880920410156
0.7920341491699219,-7.1334991455078125,-69.7020492553711,126.63407135009766,-143.10247802734375,-90.47382354736328,-91.63880920410156
0.7942066192626953,-7.1334991455078125,-69.7020492553711,126.63407135009766,-143.10247802734375,-90.47382354736328,-91.63880920410156
0.7963848114013672,-7.1334991455078125,-69.7020492553711,126.63407135009766,-143.10247802734375,-90.47382354736328,-91.63880920410156
0.7986705303192139,-7.1334991455078125,-69.7020492553711,126.63407135009766,-143.10247802734375,-90.47382354736328,-91.63880920410156
0.8009247779846191,-7.133281230926514,-69.7020492553711,126.63407135009766,-143.10269165039062,-90.4736099243164,-91.63880920410156
0.8030786514282227,-7.133281230926514,-69.7020492553711,126.63407135009766,-143.10269165039062,-90.4736099243164,-91.63880920410156
0.805272102355957,-7.133281230926514,-69.7020492553711,126.63407135009766,-143.10269165039062,-90.4736099243164,-91.63880920410156
0.8074917793273926,-7.133281230926514,-69.7020492553711,126.63407135009766,-143.10269165039062,-90.4736099243164,-91.63880920410156
0.8098061084747314,-7.133281230926514,-69.7020492553711,126.63407135009766,-143.10269165039062,-90.4736099243164,-91.63880920410156
0.8119592666625977,-7.133281230926514,-69.7022705078125,126.63407135009766,-143.10247802734375,-90.4736099243164,-91.63880920410156
0.8141133785247803,-7.133281230926514,-69.7022705078125,126.63407135009766,-143.10247802734375,-90.4736099243164,-91.63880920410156
0.8162896633148193,-7.133281230926514,-69.7022705078125,126.63407135009766,-143.10247802734375,-90.4736099243164,-91.63880920410156
0.8185508251190186,-7.133281230926514,-69.7022705078125,126.63407135009766,-143.10247802734375,-90.4736099243164,-91.63880920410156
0.8210430145263672,-7.133281230926514,-69.7022705078125,126.63407135009766,-143.1022491455078,-90.47382354736328,-91.63880920410156
0.8232054710388184,-7.133281230926514,-69.7022705078125,126.63407135009766,-143.1022491455078,-90.47382354736328,-91.63880920410156
0.8253765106201172,-7.133281230926514,-69.7022705078125,126.63407135009766,-143.1022491455078,-90.47382354736328,-91.63880920410156
0.8276596069335938,-7.133281230926514,-69.7022705078125,126.63407135009766,-143.1022491455078,-90.47382354736328,-91.63880920410156
0.8308548927307129,-7.133281230926514,-69.7020492553711,126.63407135009766,-143.1022491455078,-90.47382354736328,-91.63880920410156
0.8330280780792236,-7.133281230926514,-69.7020492553711,126.63407135009766,-143.1022491455078,-90.47382354736328,-91.63880920410156
0.8352127075195312,-7.133281230926514,-69.7020492553711,126.63407135009766,-143.1022491455078,-90.47382354736328,-91.63880920410156
0.8373985290527344,-7.133281230926514,-69.7020492553711,126.63407135009766,-143.1022491455078,-90.47382354736328,-91.63880920410156
0.8396856784820557,-7.133281230926514,-69.7020492553711,126.63407135009766,-143.1022491455078,-90.47382354736328,-91.63880920410156
0.8419919013977051,-7.1334991455078125,-69.7022705078125,126.63407135009766,-143.10247802734375,-90.47382354736328,-91.63903045654297
0.8441543579101562,-7.1334991455078125,-69.7022705078125,126.63407135009766,-143.10247802734375,-90.47382354736328,-91.63903045654297
0.8463428020477295,-7.1334991455078125,-69.7022705078125,126.63407135009766,-143.10247802734375,-90.47382354736328,-91.63903045654297
0.8486423492431641,-7.1334991455078125,-69.7022705078125,126.63407135009766,-143.10247802734375,-90.47382354736328,-91.63903045654297
0.8510692119598389,-7.133281230926514,-69.7020492553711,126.63429260253906,-143.1022491455078,-90.47382354736328,-91.63880920410156
0.8532249927520752,-7.133281230926514,-69.7020492553711,126.63429260253906,-143.1022491455078,-90.47382354736328,-91.63880920410156
0.8554744720458984,-7.133281230926514,-69.7020492553711,126.63429260253906,-143.1022491455078,-90.47382354736328,-91.63880920410156
0.8577563762664795,-7.133281230926514,-69.7020492553711,126.63429260253906,-143.1022491455078,-90.47382354736328,-91.63880920410156
0.8608949184417725,-7.1334991455078125,-69.7022705078125,126.63407135009766,-143.1022491455078,-90.47382354736328,-91.63880920410156
0.8630874156951904,-7.1334991455078125,-69.7022705078125,126.63407135009766,-143.1022491455078,-90.47382354736328,-91.63880920410156
0.8652665615081787,-7.1334991455078125,-69.7022705078125,126.63407135009766,-143.1022491455078,-90.47382354736328,-91.63880920410156
0.8675704002380371,-7.1334991455078125,-69.7022705078125,126.63407135009766,-143.1022491455078,-90.47382354736328,-91.63880920410156
0.8698897361755371,-7.1334991455078125,-69.7022705078125,126.63407135009766,-143.1022491455078,-90.47382354736328,-91.63880920410156
0.8720657825469971,-7.133281230926514,-69.7022705078125,126.63407135009766,-143.10247802734375,-90.4736099243164,-91.63880920410156
0.8742544651031494,-7.133281230926514,-69.7022705078125,126.63407135009766,-143.10247802734375,-90.4736099243164,-91.63880920410156
0.8765292167663574,-7.133281230926514,-69.7022705078125,126.63407135009766,-143.10247802734375,-90.4736099243164,-91.63880920410156
0.8788552284240723,-7.133281230926514,-69.7022705078125,126.63407135009766,-143.10247802734375,-90.4736099243164,-91.63880920410156
0.8811850547790527,-7.133281230926514,-69.7022705078125,126.63385772705078,-143.10247802734375,-90.47382354736328,-91.63880920410156
0.8833575248718262,-7.133281230926514,-69.7022705078125,126.63385772705078,-143.10247802734375,-90.47382354736328,-91.63880920410156
0.8856122493743896,-7.133281230926514,-69.7022705078125,126.63385772705078,-143.10247802734375,-90.47382354736328,-91.63880920410156
0.8879106044769287,-7.133281230926514,-69.7022705078125,126.63385772705078,-143.10247802734375,-90.47382354736328,-91.63880920410156
0.8908491134643555,-7.133063793182373,-69.7022705078125,126.63429260253906,-143.10247802734375,-90.4736099243164,-91.63880920410156
0.8929884433746338,-7.133063793182373,-69.7022705078125,126.63429260253906,-143.10247802734375,-90.4736099243164,-91.63880920410156
0.8951513767242432,-7.133063793182373,-69.7022705078125,126.63429260253906,-143.10247802734375,-90.4736099243164,-91.63880920410156
0.8973278999328613,-7.133063793182373,-69.7022705078125,126.63429260253906,-143.10247802734375,-90.4736099243164,-91.63880920410156
0.8996286392211914,-7.133063793182373,-69.7022705078125,126.63429260253906,-143.10247802734375,-90.4736099243164,-91.63880920410156
0.9019145965576172,-7.133281230926514,-69.7020492553711,126.63407135009766,-143.10247802734375,-90.47382354736328,-91.63880920410156
0.9040887355804443,-7.133281230926514,-69.7020492553711,126.63407135009766,-143.10247802734375,-90.47382354736328,-91.63880920410156
0.9062659740447998,-7.133281230926514,-69.7020492553711,126.63407135009766,-143.10247802734375,-90.47382354736328,-91.63880920410156
0.908550500869751,-7.133281230926514,-69.7020492553711,126.63407135009766,-143.10247802734375,-90.47382354736328,-91.63880920410156
0.9109396934509277,-7.133281230926514,-69.7020492553711,126.63429260253906,-143.10247802734375,-90.47382354736328,-91.63880920410156
0.9131133556365967,-7.133281230926514,-69.7020492553711,126.63429260253906,-143.10247802734375,-90.47382354736328,-91.63880920410156
0.9152839183807373,-7.133281230926514,-69.7020492553711,126.63429260253906,-143.10247802734375,-90.47382354736328,-91.63880920410156
0.917548418045044,-7.133281230926514,-69.7020492553711,126.63429260253906,-143.10247802734375,-90.47382354736328,-91.63880920410156
0.9198055267333984,-7.133281230926514,-69.7020492553711,126.63429260253906,-143.10247802734375,-90.47382354736328,-91.63880920410156
0.9219887256622314,-7.133281230926514,-69.7020492553711,126.63407135009766,-143.10269165039062,-90.4736099243164,-91.63880920410156
0.9241440296173096,-7.133281230926514,-69.7020492553711,126.63407135009766,-143.10269165039062,-90.4736099243164,-91.63880920410156
0.9263131618499756,-7.133281230926514,-69.7020492553711,126.63407135009766,-143.10269165039062,-90.4736099243164,-91.63880920410156
0.92861008644104,-7.133281230926514,-69.7020492553711,126.63407135009766,-143.10269165039062,-90.4736099243164,-91.63880920410156
0.931018590927124,-7.133063793182373,-69.7022705078125,126.63407135009766,-143.10247802734375,-90.47382354736328,-91.63880920410156
0.9331910610198975,-7.133063793182373,-69.7022705078125,126.63407135009766,-143.10247802734375,-90.47382354736328,-91.63880920410156
0.9354052543640137,-7.133063793182373,-69.7022705078125,126.63407135009766,-143.10247802734375,-90.47382354736328,-91.63880920410156
0.937645435333252,-7.133063793182373,-69.7022705078125,126.63407135009766,-143.10247802734375,-90.47382354736328,-91.63880920410156
0.9409623146057129,-7.133063793182373,-69.7020492553711,126.63407135009766,-143.10247802734375,-90.47382354736328,-91.63880920410156
0.9431376457214355,-7.133063793182373,-69.7020492553711,126.63407135009766,-143.10247802734375,-90.47382354736328,-91.63880920410156
0.9453091621398926,-7.133063793182373,-69.7020492553711,126.63407135009766,-143.10247802734375,-90.47382354736328,-91.63880920410156
0.9475886821746826,-7.133063793182373,-69.7020492553711,126.63407135009766,-143.10247802734375,-90.47382354736328,-91.63880920410156
0.9499025344848633,-7.133063793182373,-69.7020492553711,126.63407135009766,-143.10247802734375,-90.47382354736328,-91.63880920410156
0.9520666599273682,-7.133063793182373,-69.7020492553711,126.63429260253906,-143.10247802734375,-90.47382354736328,-91.63880920410156
0.9542226791381836,-7.133063793182373,-69.7020492553711,126.63429260253906,-143.10247802734375,-90.47382354736328,-91.63880920410156
0.9564990997314453,-7.133063793182373,-69.7020492553711,126.63429260253906,-143.10247802734375,-90.47382354736328,-91.63880920410156
0.9587268829345703,-7.133063793182373,-69.7020492553711,126.63429260253906,-143.10247802734375,-90.47382354736328,-91.63880920410156
0.9609930515289307,-7.133063793182373,-69.7020492553711,126.63429260253906,-143.10247802734375,-90.4736099243164,-91.63880920410156
0.9631474018096924,-7.133063793182373,-69.7020492553711,126.63429260253906,-143.10247802734375,-90.4736099243164,-91.63880920410156
0.9653236865997314,-7.133063793182373,-69.7020492553711,126.63429260253906,-143.10247802734375,-90.4736099243164,-91.63880920410156
0.9676141738891602,-7.133063793182373,-69.7020492553711,126.63429260253906,-143.10247802734375,-90.4736099243164,-91.63880920410156
0.9699242115020752,-7.133063793182373,-69.7020492553711,126.63429260253906,-143.10247802734375,-90.4736099243164,-91.63880920410156
0.9721221923828125,-7.133063793182373,-69.7022705078125,126.63429260253906,-143.10247802734375,-90.47382354736328,-91.63880920410156
0.9743094444274902,-7.133063793182373,-69.7022705078125,126.63429260253906,-143.10247802734375,-90.47382354736328,-91.63880920410156
0.9765751361846924,-7.133063793182373,-69.7022705078125,126.63429260253906,-143.10247802734375,-90.47382354736328,-91.63880920410156
0.9788727760314941,-7.133063793182373,-69.7022705078125,126.63429260253906,-143.10247802734375,-90.47382354736328,-91.63880920410156
0.9810488224029541,-7.133063793182373,-69.7022705078125,126.63407135009766,-143.10247802734375,-90.47382354736328,-91.63880920410156
0.9832134246826172,-7.133063793182373,-69.7022705078125,126.63407135009766,-143.10247802734375,-90.47382354736328,-91.63880920410156
0.9853744506835938,-7.133063793182373,-69.7022705078125,126.63407135009766,-143.10247802734375,-90.47382354736328,-91.63880920410156
0.987647294998169,-7.133063793182373,-69.7022705078125,126.63407135009766,-143.10247802734375,-90.47382354736328,-91.63880920410156
0.9899134635925293,-7.133063793182373,-69.7022705078125,126.63407135009766,-143.10247802734375,-90.47382354736328,-91.63880920410156
0.9920864105224609,-7.133063793182373,-69.7020492553711,126.63385772705078,-143.10203552246094,-90.47382354736328,-91.63880920410156
0.9942717552185059,-7.133063793182373,-69.7020492553711,126.63385772705078,-143.10203552246094,-90.47382354736328,-91.63880920410156
0.9964573383331299,-7.133063793182373,-69.7020492553711,126.63385772705078,-143.10203552246094,-90.47382354736328,-91.63880920410156
0.9987573623657227,-7.133063793182373,-69.7020492553711,126.63385772705078,-143.10203552246094,-90.47382354736328,-91.63880920410156
1.0009841918945312,-7.133063793182373,-69.7020492553711,126.63407135009766,-143.10247802734375,-90.4736099243164,-91.63859558105469
1.0031499862670898,-7.133063793182373,-69.7020492553711,126.63407135009766,-143.10247802734375,-90.4736099243164,-91.63859558105469
1.00531005859375,-7.133063793182373,-69.7020492553711,126.63407135009766,-143.10247802734375,-90.4736099243164,-91.63859558105469
1.0075249671936035,-7.133063793182373,-69.7020492553711,126.63407135009766,-143.10247802734375,-90.4736099243164,-91.63859558105469
1.0102097988128662,-7.133063793182373,-69.7022705078125,126.63407135009766,-143.10247802734375,-90.47382354736328,-91.63903045654297
1.0123565196990967,-7.133063793182373,-69.7022705078125,126.63407135009766,-143.10247802734375,-90.47382354736328,-91.63903045654297
1.0145411491394043,-7.133063793182373,-69.7022705078125,126.63407135009766,-143.10247802734375,-90.47382354736328,-91.63903045654297
1.0167303085327148,-7.133063793182373,-69.7022705078125,126.63407135009766,-143.10247802734375,-90.47382354736328,-91.63903045654297
1.018932580947876,-7.133063793182373,-69.7022705078125,126.63407135009766,-143.10247802734375,-90.47382354736328,-91.63903045654297
1.021050214767456,-7.133281230926514,-69.7020492553711,126.63407135009766,-143.1022491455078,-90.47382354736328,-91.63903045654297
1.0231683254241943,-7.133281230926514,-69.7020492553711,126.63407135009766,-143.1022491455078,-90.47382354736328,-91.63903045654297
1.0253045558929443,-7.133281230926514,-69.7020492553711,126.63407135009766,-143.1022491455078,-90.47382354736328,-91.63903045654297
1.0274901390075684,-7.133281230926514,-69.7020492553711,126.63407135009766,-143.1022491455078,-90.47382354736328,-91.63903045654297
1.0300676822662354,-7.133063793182373,-69.7020492553711,126.63429260253906,-143.10247802734375,-90.4736099243164,-91.63880920410156
1.032182216644287,-7.133063793182373,-69.7020492553711,126.63429260253906,-143.10247802734375,-90.4736099243164,-91.63880920410156
1.0343153476715088,-7.133063793182373,-69.7020492553711,126.63429260253906,-143.10247802734375,-90.4736099243164,-91.63880920410156
1.0365164279937744,-7.133063793182373,-69.7020492553711,126.63429260253906,-143.10247802734375,-90.4736099243164,-91.63880920410156
1.0387036800384521,-7.133063793182373,-69.7020492553711,126.63429260253906,-143.10247802734375,-90.4736099243164,-91.63880920410156
1.0408954620361328,-7.133063793182373,-69.7022705078125,126.63407135009766,-143.1022491455078,-90.4736099243164,-91.63859558105469
1.043013095855713,-7.133063793182373,-69.7022705078125,126.63407135009766,-143.1022491455078,-90.4736099243164,-91.63859558105469
1.045130968093872,-7.133063793182373,-69.7022705078125,126.63407135009766,-143.1022491455078,-90.4736099243164,-91.63859558105469
1.0472486019134521,-7.133063793182373,-69.7022705078125,126.63407135009766,-143.1022491455078,-90.4736099243164,-91.63859558105469
1.0494022369384766,-7.133063793182373,-69.7022705078125,126.63407135009766,-143.1022491455078,-90.4736099243164,-91.63859558105469
1.0516741275787354,-7.133281230926514,-69.7020492553711,126.63385772705078,-143.10247802734375,-90.4736099243164,-91.63880920410156
1.0539658069610596,-7.133281230926514,-69.7020492553711,126.63385772705078,-143.10247802734375,-90.4736099243164,-91.63880920410156
1.05615234375,-7.133281230926514,-69.7020492553711,126.63385772705078,-143.10247802734375,-90.4736099243164,-91.63880920410156
1.0583393573760986,-7.133281230926514,-69.7020492553711,126.63385772705078,-143.10247802734375,-90.4736099243164,-91.63880920410156
1.0611863136291504,-7.133063793182373,-69.7020492553711,126.63429260253906,-143.10269165039062,-90.4736099243164,-91.63859558105469
1.0633647441864014,-7.133063793182373,-69.7020492553711,126.63429260253906,-143.10269165039062,-90.4736099243164,-91.63859558105469
1.0656416416168213,-7.133063793182373,-69.7020492553711,126.63429260253906,-143.10269165039062,-90.4736099243164,-91.63859558105469
1.0679352283477783,-7.133063793182373,-69.7020492553711,126.63429260253906,-143.10269165039062,-90.4736099243164,-91.63859558105469
1.071155071258545,-7.133281230926514,-69.7020492553711,126.63429260253906,-143.10247802734375,-90.4736099243164,-91.63880920410156
1.0733416080474854,-7.133281230926514,-69.7020492553711,126.63429260253906,-143.10247802734375,-90.4736099243164,-91.63880920410156
1.0758509635925293,-7.133281230926514,-69.7020492553711,126.63429260253906,-143.10247802734375,-90.4736099243164,-91.63880920410156
1.078038215637207,-7.133281230926514,-69.7020492553711,126.63429260253906,-143.10247802734375,-90.4736099243164,-91.63880920410156
1.0809273719787598,-7.133281230926514,-69.7022705078125,126.63429260253906,-143.1022491455078,-90.47382354736328,-91.63859558105469
1.083103895187378,-7.133281230926514,-69.7022705078125,126.63429260253906,-143.1022491455078,-90.47382354736328,-91.63859558105469
1.0852818489074707,-7.133281230926514,-69.7022705078125,126.63429260253906,-143.1022491455078,-90.47382354736328,-91.63859558105469
1.0875592231750488,-7.133281230926514,-69.7022705078125,126.63429260253906,-143.1022491455078,-90.47382354736328,-91.63859558105469
1.0898771286010742,-7.133281230926514,-69.7022705078125,126.63429260253906,-143.1022491455078,-90.47382354736328,-91.63859558105469
1.092064380645752,-7.133281230926514,-69.7020492553711,126.63385772705078,-143.10247802734375,-90.4736099243164,-91.63880920410156
1.094235897064209,-7.133281230926514,-69.7020492553711,126.63385772705078,-143.10247802734375,-90.4736099243164,-91.63880920410156
1.0964329242706299,-7.133281230926514,-69.7020492553711,126.63385772705078,-143.10247802734375,-90.4736099243164,-91.63880920410156
1.0987250804901123,-7.133281230926514,-69.7020492553711,126.63385772705078,-143.10247802734375,-90.4736099243164,-91.63880920410156
1.1010425090789795,-7.133063793182373,-69.7020492553711,126.63407135009766,-143.1022491455078,-90.4736099243164,-91.63903045654297
1.1032278537750244,-7.133063793182373,-69.7020492553711,126.63407135009766,-143.1022491455078,-90.4736099243164,-91.63903045654297
1.1054644584655762,-7.133063793182373,-69.7020492553711,126.63407135009766,-143.1022491455078,-90.4736099243164,-91.63903045654297
1.1076982021331787,-7.133063793182373,-69.7020492553711,126.63407135009766,-143.1022491455078,-90.4736099243164,-91.63903045654297
1.1105363368988037,-7.133281230926514,-69.7022705078125,126.63407135009766,-143.1022491455078,-90.47382354736328,-91.63880920410156
1.112771987915039,-7.133281230926514,-69.7022705078125,126.63407135009766,-143.1022491455078,-90.47382354736328,-91.63880920410156
1.115006923675537,-7.133281230926514,-69.7022705078125,126.63407135009766,-143.1022491455078,-90.47382354736328,-91.63880920410156
1.1171612739562988,-7.133281230926514,-69.7022705078125,126.63407135009766,-143.1022491455078,-90.47382354736328,-91.63880920410156
1.1193311214447021,-7.133281230926514,-69.7022705078125,126.63407135009766,-143.1022491455078,-90.47382354736328,-91.63880920410156
1.1216161251068115,-7.133281230926514,-69.7022705078125,126.63429260253906,-143.10247802734375,-90.4736099243164,-91.63880920410156
1.1239137649536133,-7.133281230926514,-69.7022705078125,126.63429260253906,-143.10247802734375,-90.4736099243164,-91.63880920410156
1.1260933876037598,-7.133281230926514,-69.7022705078125,126.63429260253906,-143.10247802734375,-90.4736099243164,-91.63880920410156
1.128279685974121,-7.133281230926514,-69.7022705078125,126.63429260253906,-143.10247802734375,-90.4736099243164,-91.63880920410156
1.1307353973388672,-7.133063793182373,-69.7022705078125,126.63429260253906,-143.10247802734375,-90.4736099243164,-91.63880920410156
1.1329970359802246,-7.133063793182373,-69.7022705078125,126.63429260253906,-143.10247802734375,-90.4736099243164,-91.63880920410156
1.1351516246795654,-7.133063793182373,-69.7022705078125,126.63429260253906,-143.10247802734375,-90.4736099243164,-91.63880920410156
1.1373376846313477,-7.133063793182373,-69.7022705078125,126.63429260253906,-143.10247802734375,-90.4736099243164,-91.63880920410156
1.1396150588989258,-7.133063793182373,-69.7022705078125,126.63429260253906,-143.10247802734375,-90.4736099243164,-91.63880920410156
1.1419308185577393,-7.133281230926514,-69.7020492553711,126.63407135009766,-143.10247802734375,-90.47382354736328,-91.63880920410156
1.1441175937652588,-7.133281230926514,-69.7020492553711,126.63407135009766,-143.10247802734375,-90.47382354736328,-91.63880920410156
1.1463043689727783,-7.133281230926514,-69.7020492553711,126.63407135009766,-143.10247802734375,-90.47382354736328,-91.63880920410156
1.1485934257507324,-7.133281230926514,-69.7020492553711,126.63407135009766,-143.10247802734375,-90.47382354736328,-91.63880920410156
1.1511919498443604,-7.133063793182373,-69.7020492553711,126.63407135009766,-143.1022491455078,-90.4736099243164,-91.63880920410156
1.153379201889038,-7.133063793182373,-69.7020492553711,126.63407135009766,-143.1022491455078,-90.4736099243164,-91.63880920410156
1.1556577682495117,-7.133063793182373,-69.7020492553711,126.63407135009766,-143.1022491455078,-90.4736099243164,-91.63880920410156
1.157944917678833,-7.133063793182373,-69.7020492553711,126.63407135009766,-143.1022491455078,-90.4736099243164,-91.63880920410156
1.161017894744873,-7.133063793182373,-69.7022705078125,126.63407135009766,-143.1022491455078,-90.47382354736328,-91.63859558105469
1.1632041931152344,-7.133063793182373,-69.7022705078125,126.63407135009766,-143.1022491455078,-90.47382354736328,-91.63859558105469
1.1653900146484375,-7.133063793182373,-69.7022705078125,126.63407135009766,-143.1022491455078,-90.47382354736328,-91.63859558105469
1.1676936149597168,-7.133063793182373,-69.7022705078125,126.63407135009766,-143.1022491455078,-90.47382354736328,-91.63859558105469
1.1699485778808594,-7.133063793182373,-69.7022705078125,126.63407135009766,-143.1022491455078,-90.47382354736328,-91.63859558105469
1.1721248626708984,-7.133281230926514,-69.7020492553711,126.63407135009766,-143.1022491455078,-90.47382354736328,-91.63880920410156
1.1742959022521973,-7.133281230926514,-69.7020492553711,126.63407135009766,-143.1022491455078,-90.47382354736328,-91.63880920410156
1.176555871963501,-7.133281230926514,-69.7020492553711,126.63407135009766,-143.1022491455078,-90.47382354736328,-91.63880920410156
1.1788978576660156,-7.133281230926514,-69.7020492553711,126.63407135009766,-143.1022491455078,-90.47382354736328,-91.63880920410156
1.18107271194458,-7.133063793182373,-69.7022705078125,126.63407135009766,-143.1022491455078,-90.47382354736328,-91.63880920410156
1.1832468509674072,-7.133063793182373,-69.7022705078125,126.63407135009766,-143.1022491455078,-90.47382354736328,-91.63880920410156
1.185412883758545,-7.133063793182373,-69.7022705078125,126.63407135009766,-143.1022491455078,-90.47382354736328,-91.63880920410156
1.187713861465454,-7.133063793182373,-69.7022705078125,126.63407135009766,-143.1022491455078,-90.47382354736328,-91.63880920410156
1.18996000289917,-7.133063793182373,-69.7022705078125,126.63407135009766,-143.1022491455078,-90.47382354736328,-91.63880920410156
1.1921441555023193,-7.133063793182373,-69.7022705078125,126.63407135009766,-143.10247802734375,-90.4736099243164,-91.63903045654297
1.194331169128418,-7.133063793182373,-69.7022705078125,126.63407135009766,-143.10247802734375,-90.4736099243164,-91.63903045654297
1.196626901626587,-7.133063793182373,-69.7022705078125,126.63407135009766,-143.10247802734375,-90.4736099243164,-91.63903045654297
1.1989455223083496,-7.133063793182373,-69.7022705078125,126.63407135009766,-143.10247802734375,-90.4736099243164,-91.63903045654297
1.2011322975158691,-7.133281230926514,-69.7022705078125,126.63429260253906,-143.10247802734375,-90.47382354736328,-91.63880920410156
1.2033045291900635,-7.133281230926514,-69.7022705078125,126.63429260253906,-143.10247802734375,-90.47382354736328,-91.63880920410156
1.2055470943450928,-7.133281230926514,-69.7022705078125,126.63429260253906,-143.10247802734375,-90.47382354736328,-91.63880920410156
1.207796573638916,-7.133281230926514,-69.7022705078125,126.63429260253906,-143.10247802734375,-90.47382354736328,-91.63880920410156
1.2099590301513672,-7.133281230926514,-69.7022705078125,126.63429260253906,-143.10247802734375,-90.47382354736328,-91.63880920410156
1.2120959758758545,-7.133063793182373,-69.7022705078125,126.63385772705078,-143.10247802734375,-90.4736099243164,-91.63880920410156
1.2142536640167236,-7.133063793182373,-69.7022705078125,126.63385772705078,-143.10247802734375,-90.4736099243164,-91.63880920410156
1.216505765914917,-7.133063793182373,-69.7022705078125,126.63385772705078,-143.10247802734375,-90.4736099243164,-91.63880920410156
1.2187976837158203,-7.133063793182373,-69.7022705078125,126.63385772705078,-143.10247802734375,-90.4736099243164,-91.63880920410156
1.2209935188293457,-7.133281230926514,-69.7020492553711,126.63407135009766,-143.1022491455078,-90.47382354736328,-91.63880920410156
1.2231669425964355,-7.133281230926514,-69.7020492553711,126.63407135009766,-143.1022491455078,-90.47382354736328,-91.63880920410156
1.2253704071044922,-7.133281230926514,-69.7020492553711,126.63407135009766,-143.1022491455078,-90.47382354736328,-91.63880920410156
1.2276229858398438,-7.133281230926514,-69.7020492553711,126.63407135009766,-143.1022491455078,-90.47382354736328,-91.63880920410156
1.2308828830718994,-7.133281230926514,-69.7020492553711,126.63385772705078,-143.1022491455078,-90.47382354736328,-91.63880920410156
1.2330453395843506,-7.133281230926514,-69.7020492553711,126.63385772705078,-143.1022491455078,-90.47382354736328,-91.63880920410156
1.2352166175842285,-7.133281230926514,-69.7020492553711,126.63385772705078,-143.1022491455078,-90.47382354736328,-91.63880920410156
1.2374420166015625,-7.133281230926514,-69.7020492553711,126.63385772705078,-143.1022491455078,-90.47382354736328,-91.63880920410156
1.239664077758789,-7.133281230926514,-69.7020492553711,126.63385772705078,-143.1022491455078,-90.47382354736328,-91.63880920410156
1.2418935298919678,-7.133063793182373,-69.7020492553711,126.63407135009766,-143.1022491455078,-90.47382354736328,-91.63880920410156
1.24403977394104,-7.133063793182373,-69.7020492553711,126.63407135009766,-143.1022491455078,-90.47382354736328,-91.63880920410156
1.2462007999420166,-7.133063793182373,-69.7020492553711,126.63407135009766,-143.1022491455078,-90.47382354736328,-91.63880920410156
1.2483549118041992,-7.133063793182373,-69.7020492553711,126.63407135009766,-143.1022491455078,-90.47382354736328,-91.63880920410156
1.2505640983581543,-7.133063793182373,-69.7022705078125,126.63407135009766,-143.1022491455078,-90.47382354736328,-91.63880920410156
1.2527546882629395,-7.133063793182373,-69.7022705078125,126.63407135009766,-143.1022491455078,-90.47382354736328,-91.63880920410156
1.2549190521240234,-7.133063793182373,-69.7022705078125,126.63407135009766,-143.1022491455078,-90.47382354736328,-91.63880920410156
1.257035255432129,-7.133063793182373,-69.7022705078125,126.63407135009766,-143.1022491455078,-90.47382354736328,-91.63880920410156
1.2591524124145508,-7.133063793182373,-69.7022705078125,126.63407135009766,-143.1022491455078,-90.47382354736328,-91.63880920410156
1.2612814903259277,-7.133063793182373,-69.7020492553711,126.63407135009766,-143.10247802734375,-90.4736099243164,-91.63903045654297
1.26347017288208,-7.133063793182373,-69.7020492553711,126.63407135009766,-143.10247802734375,-90.4736099243164,-91.63903045654297
1.2656278610229492,-7.133063793182373,-69.7020492553711,126.63407135009766,-143.10247802734375,-90.4736099243164,-91.63903045654297
1.267838478088379,-7.133063793182373,-69.7020492553711,126.63407135009766,-143.10247802734375,-90.4736099243164,-91.63903045654297
1.2704050540924072,-7.133063793182373,-69.7020492553711,126.63407135009766,-143.10247802734375,-90.47382354736328,-91.63880920410156
1.272637128829956,-7.133063793182373,-69.7020492553711,126.63407135009766,-143.10247802734375,-90.47382354736328,-91.63880920410156
1.2748987674713135,-7.133063793182373,-69.7020492553711,126.63407135009766,-143.10247802734375,-90.47382354736328,-91.63880920410156
1.2770707607269287,-7.133063793182373,-69.7020492553711,126.63407135009766,-143.10247802734375,-90.47382354736328,-91.63880920410156
1.2792572975158691,-7.133063793182373,-69.7020492553711,126.63407135009766,-143.10247802734375,-90.47382354736328,-91.63880920410156
1.281425952911377,-7.133281230926514,-69.7020492553711,126.63429260253906,-143.10269165039062,-90.4736099243164,-91.63880920410156
1.28371000289917,-7.133281230926514,-69.7020492553711,126.63429260253906,-143.10269165039062,-90.4736099243164,-91.63880920410156
1.285994052886963,-7.133281230926514,-69.7020492553711,126.63429260253906,-143.10269165039062,-90.4736099243164,-91.63880920410156
1.2881665229797363,-7.133281230926514,-69.7020492553711,126.63429260253906,-143.10269165039062,-90.4736099243164,-91.63880920410156
1.29085373878479,-7.133063793182373,-69.7022705078125,126.63407135009766,-143.10247802734375,-90.47382354736328,-91.63903045654297
1.293017864227295,-7.133063793182373,-69.7022705078125,126.63407135009766,-143.10247802734375,-90.47382354736328,-91.63903045654297
1.295182704925537,-7.133063793182373,-69.7022705078125,126.63407135009766,-143.10247802734375,-90.47382354736328,-91.63903045654297
1.2973790168762207,-7.133063793182373,-69.7022705078125,126.63407135009766,-143.10247802734375,-90.47382354736328,-91.63903045654297
1.2996654510498047,-7.133063793182373,-69.7022705078125,126.63407135009766,-143.10247802734375,-90.47382354736328,-91.63903045654297
1.3019449710845947,-7.133281230926514,-69.7020492553711,126.63407135009766,-143.10247802734375,-90.4736099243164,-91.63880920410156
1.304124355316162,-7.133281230926514,-69.7020492553711,126.63407135009766,-143.10247802734375,-90.4736099243164,-91.63880920410156
1.3063092231750488,-7.133281230926514,-69.7020492553711,126.63407135009766,-143.10247802734375,-90.4736099243164,-91.63880920410156
1.3086121082305908,-7.133281230926514,-69.7020492553711,126.63407135009766,-143.10247802734375,-90.4736099243164,-91.63880920410156
1.310868740081787,-7.133063793182373,-69.7020492553711,126.63407135009766,-143.10269165039062,-90.4736099243164,-91.63880920410156
1.3130416870117188,-7.133063793182373,-69.7020492553711,126.63407135009766,-143.10269165039062,-90.4736099243164,-91.63880920410156
1.315206527709961,-7.133063793182373,-69.7020492553711,126.63407135009766,-143.10269165039062,-90.4736099243164,-91.63880920410156
1.3173818588256836,-7.133063793182373,-69.7020492553711,126.63407135009766,-143.10269165039062,-90.4736099243164,-91.63880920410156
1.3196589946746826,-7.133063793182373,-69.7020492553711,126.63407135009766,-143.10269165039062,-90.4736099243164,-91.63880920410156
1.3219473361968994,-7.133063793182373,-69.70183563232422,126.63407135009766,-143.10247802734375,-90.47382354736328,-91.63880920410156
1.3241333961486816,-7.133063793182373,-69.70183563232422,126.63407135009766,-143.10247802734375,-90.47382354736328,-91.63880920410156
1.3263192176818848,-7.133063793182373,-69.70183563232422,126.63407135009766,-143.10247802734375,-90.47382354736328,-91.63880920410156
1.3286256790161133,-7.133063793182373,-69.70183563232422,126.63407135009766,-143.10247802734375,-90.47382354736328,-91.63880920410156
1.3310832977294922,-7.133063793182373,-69.7020492553711,126.63385772705078,-143.1022491455078,-90.47382354736328,-91.63880920410156
1.3332464694976807,-7.133063793182373,-69.7020492553711,126.63385772705078,-143.1022491455078,-90.47382354736328,-91.63880920410156
1.3355364799499512,-7.133063793182373,-69.7020492553711,126.63385772705078,-143.1022491455078,-90.47382354736328,-91.63880920410156
1.3378236293792725,-7.133063793182373,-69.7020492553711,126.63385772705078,-143.1022491455078,-90.47382354736328,-91.63880920410156
1.3408005237579346,-7.133063793182373,-69.7020492553711,126.63407135009766,-143.1022491455078,-90.47382354736328,-91.63880920410156
1.3430066108703613,-7.133063793182373,-69.7020492553711,126.63407135009766,-143.1022491455078,-90.47382354736328,-91.63880920410156
1.3451623916625977,-7.133063793182373,-69.7020492553711,126.63407135009766,-143.1022491455078,-90.47382354736328,-91.63880920410156
1.3473477363586426,-7.133063793182373,-69.7020492553711,126.63407135009766,-143.1022491455078,-90.47382354736328,-91.63880920410156
1.3496251106262207,-7.133063793182373,-69.7020492553711,126.63407135009766,-143.1022491455078,-90.47382354736328,-91.63880920410156
1.3519091606140137,-7.133281230926514,-69.7020492553711,126.63407135009766,-143.1022491455078,-90.47382354736328,-91.63880920410156
1.3540701866149902,-7.133281230926514,-69.7020492553711,126.63407135009766,-143.1022491455078,-90.47382354736328,-91.63880920410156
1.3562335968017578,-7.133281230926514,-69.7020492553711,126.63407135009766,-143.1022491455078,-90.47382354736328,-91.63880920410156
1.358407735824585,-7.133281230926514,-69.7020492553711,126.63407135009766,-143.1022491455078,-90.47382354736328,-91.63880920410156
1.3610429763793945,-7.133063793182373,-69.7020492553711,126.63407135009766,-143.10247802734375,-90.4736099243164,-91.63859558105469
1.3632164001464844,-7.133063793182373,-69.7020492553711,126.63407135009766,-143.10247802734375,-90.4736099243164,-91.63859558105469
1.3653934001922607,-7.133063793182373,-69.7020492553711,126.63407135009766,-143.10247802734375,-90.4736099243164,-91.63859558105469
1.3676791191101074,-7.133063793182373,-69.7020492553711,126.63407135009766,-143.10247802734375,-90.4736099243164,-91.63859558105469
1.3699612617492676,-7.133063793182373,-69.7020492553711,126.63407135009766,-143.10247802734375,-90.4736099243164,-91.63859558105469
1.3721389770507812,-7.133281230926514,-69.7020492553711,126.63429260253906,-143.10247802734375,-90.4736099243164,-91.63880920410156
1.3743095397949219,-7.133281230926514,-69.7020492553711,126.63429260253906,-143.10247802734375,-90.4736099243164,-91.63880920410156
1.3765718936920166,-7.133281230926514,-69.7020492553711,126.63429260253906,-143.10247802734375,-90.4736099243164,-91.63880920410156
1.3788831233978271,-7.133281230926514,-69.7020492553711,126.63429260253906,-143.10247802734375,-90.4736099243164,-91.63880920410156
1.3810555934906006,-7.133063793182373,-69.7020492553711,126.63407135009766,-143.1022491455078,-90.47382354736328,-91.63880920410156
1.3832271099090576,-7.133063793182373,-69.7020492553711,126.63407135009766,-143.1022491455078,-90.47382354736328,-91.63880920410156
1.3855090141296387,-7.133063793182373,-69.7020492553711,126.63407135009766,-143.1022491455078,-90.47382354736328,-91.63880920410156
1.3877718448638916,-7.133063793182373,-69.7020492553711,126.63407135009766,-143.1022491455078,-90.47382354736328,-91.63880920410156
1.3899526596069336,-7.133063793182373,-69.7020492553711,126.63407135009766,-143.1022491455078,-90.47382354736328,-91.63880920410156
1.3921260833740234,-7.133281230926514,-69.7020492553711,126.63407135009766,-143.10247802734375,-90.4736099243164,-91.63880920410156
1.394296407699585,-7.133281230926514,-69.7020492553711,126.63407135009766,-143.10247802734375,-90.4736099243164,-91.63880920410156
1.3965568542480469,-7.133281230926514,-69.7020492553711,126.63407135009766,-143.10247802734375,-90.4736099243164,-91.63880920410156
1.3987586498260498,-7.133281230926514,-69.7020492553711,126.63407135009766,-143.10247802734375,-90.4736099243164,-91.63880920410156
1.400956153869629,-7.133281230926514,-69.7022705078125,126.63407135009766,-143.1022491455078,-90.47382354736328,-91.63880920410156
1.403118371963501,-7.133281230926514,-69.7022705078125,126.63407135009766,-143.1022491455078,-90.47382354736328,-91.63880920410156
1.4052934646606445,-7.133281230926514,-69.7022705078125,126.63407135009766,-143.1022491455078,-90.47382354736328,-91.63880920410156
1.40757417678833,-7.133281230926514,-69.7022705078125,126.63407135009766,-143.1022491455078,-90.47382354736328,-91.63880920410156
1.4098968505859375,-7.133281230926514,-69.7022705078125,126.63407135009766,-143.1022491455078,-90.47382354736328,-91.63880920410156
1.4120819568634033,-7.132846355438232,-69.7020492553711,126.63429260253906,-143.1022491455078,-90.47382354736328,-91.63880920410156
1.4142673015594482,-7.132846355438232,-69.7020492553711,126.63429260253906,-143.1022491455078,-90.47382354736328,-91.63880920410156
1.4165542125701904,-7.132846355438232,-69.7020492553711,126.63429260253906,-143.1022491455078,-90.47382354736328,-91.63880920410156
1.4188611507415771,-7.132846355438232,-69.7020492553711,126.63429260253906,-143.1022491455078,-90.47382354736328,-91.63880920410156
1.4210481643676758,-7.133063793182373,-69.7022705078125,126.63407135009766,-143.10247802734375,-90.47404479980469,-91.63880920410156
1.423213005065918,-7.133063793182373,-69.7022705078125,126.63407135009766,-143.10247802734375,-90.47404479980469,-91.63880920410156
1.4254066944122314,-7.133063793182373,-69.7022705078125,126.63407135009766,-143.10247802734375,-90.47404479980469,-91.63880920410156
1.4276912212371826,-7.133063793182373,-69.7022705078125,126.63407135009766,-143.10247802734375,-90.47404479980469,-91.63880920410156
1.4309229850769043,-7.133063793182373,-69.7022705078125,126.63385772705078,-143.1022491455078,-90.4736099243164,-91.63880920410156
1.4330849647521973,-7.133063793182373,-69.7022705078125,126.63385772705078,-143.1022491455078,-90.4736099243164,-91.63880920410156
1.4352474212646484,-7.133063793182373,-69.7022705078125,126.63385772705078,-143.1022491455078,-90.4736099243164,-91.63880920410156
1.437542200088501,-7.133063793182373,-69.7022705078125,126.63385772705078,-143.1022491455078,-90.4736099243164,-91.63880920410156
1.4398982524871826,-7.133063793182373,-69.7022705078125,126.63385772705078,-143.1022491455078,-90.4736099243164,-91.63880920410156
1.4420685768127441,-7.133063793182373,-69.7020492553711,126.63407135009766,-143.10247802734375,-90.47382354736328,-91.63880920410156
1.4442365169525146,-7.133063793182373,-69.7020492553711,126.63407135009766,-143.10247802734375,-90.47382354736328,-91.63880920410156
1.4465205669403076,-7.133063793182373,-69.7020492553711,126.63407135009766,-143.10247802734375,-90.47382354736328,-91.63880920410156
1.4488306045532227,-7.133063793182373,-69.7020492553711,126.63407135009766,-143.10247802734375,-90.47382354736328,-91.63880920410156
1.4509878158569336,-7.133063793182373,-69.7022705078125,126.63407135009766,-143.1022491455078,-90.4736099243164,-91.63880920410156
1.4531517028808594,-7.133063793182373,-69.7022705078125,126.63407135009766,-143.1022491455078,-90.4736099243164,-91.63880920410156
1.455322265625,-7.133063793182373,-69.7022705078125,126.63407135009766,-143.1022491455078,-90.4736099243164,-91.63880920410156
1.4576020240783691,-7.133063793182373,-69.7022705078125,126.63407135009766,-143.1022491455078,-90.4736099243164,-91.63880920410156
1.4598519802093506,-7.133063793182373,-69.7022705078125,126.63407135009766,-143.1022491455078,-90.4736099243164,-91.63880920410156
1.4620277881622314,-7.133063793182373,-69.7020492553711,126.63407135009766,-143.1022491455078,-90.4736099243164,-91.63859558105469
1.4642000198364258,-7.133063793182373,-69.7020492553711,126.63407135009766,-143.1022491455078,-90.4736099243164,-91.63859558105469
1.4664027690887451,-7.133063793182373,-69.7020492553711,126.63407135009766,-143.1022491455078,-90.4736099243164,-91.63859558105469
1.468672513961792,-7.133063793182373,-69.7020492553711,126.63407135009766,-143.1022491455078,-90.4736099243164,-91.63859558105469
1.471055269241333,-7.133063793182373,-69.7022705078125,126.63429260253906,-143.10247802734375,-90.4736099243164,-91.63859558105469
1.4732396602630615,-7.133063793182373,-69.7022705078125,126.63429260253906,-143.10247802734375,-90.4736099243164,-91.63859558105469
1.475510597229004,-7.133063793182373,-69.7022705078125,126.63429260253906,-143.10247802734375,-90.4736099243164,-91.63859558105469
1.4778363704681396,-7.133063793182373,-69.7022705078125,126.63429260253906,-143.10247802734375,-90.4736099243164,-91.63859558105469
1.4809832572937012,-7.133281230926514,-69.7022705078125,126.63407135009766,-143.1022491455078,-90.47382354736328,-91.63880920410156
1.4831550121307373,-7.133281230926514,-69.7022705078125,126.63407135009766,-143.1022491455078,-90.47382354736328,-91.63880920410156
1.4853260517120361,-7.133281230926514,-69.7022705078125,126.63407135009766,-143.1022491455078,-90.47382354736328,-91.63880920410156
1.487626314163208,-7.133281230926514,-69.7022705078125,126.63407135009766,-143.1022491455078,-90.47382354736328,-91.63880920410156
1.4907429218292236,-7.133281230926514,-69.7020492553711,126.63429260253906,-143.10247802734375,-90.4736099243164,-91.63859558105469
1.492990255355835,-7.133281230926514,-69.7020492553711,126.63429260253906,-143.10247802734375,-90.4736099243164,-91.63859558105469
1.4951732158660889,-7.133281230926514,-69.7020492553711,126.63429260253906,-143.10247802734375,-90.4736099243164,-91.63859558105469
1.4973595142364502,-7.133281230926514,-69.7020492553711,126.63429260253906,-143.10247802734375,-90.4736099243164,-91.63859558105469
1.4996626377105713,-7.133281230926514,-69.7020492553711,126.63429260253906,-143.10247802734375,-90.4736099243164,-91.63859558105469
1.5019562244415283,-7.133063793182373,-69.7020492553711,126.63407135009766,-143.10247802734375,-90.47382354736328,-91.63880920410156
1.5041213035583496,-7.133063793182373,-69.7020492553711,126.63407135009766,-143.10247802734375,-90.47382354736328,-91.63880920410156
1.5062921047210693,-7.133063793182373,-69.7020492553711,126.63407135009766,-143.10247802734375,-90.47382354736328,-91.63880920410156
1.5085232257843018,-7.133063793182373,-69.7020492553711,126.63407135009766,-143.10247802734375,-90.47382354736328,-91.63880920410156
1.5107319355010986,-7.133063793182373,-69.7022705078125,126.63429260253906,-143.1022491455078,-90.47382354736328,-91.63880920410156
1.5129926204681396,-7.133063793182373,-69.7022705078125,126.63429260253906,-143.1022491455078,-90.47382354736328,-91.63880920410156
1.5151243209838867,-7.133063793182373,-69.7022705078125,126.63429260253906,-143.1022491455078,-90.47382354736328,-91.63880920410156
1.5172803401947021,-7.133063793182373,-69.7022705078125,126.63429260253906,-143.1022491455078,-90.47382354736328,-91.63880920410156
1.5195698738098145,-7.133063793182373,-69.7022705078125,126.63429260253906,-143.1022491455078,-90.47382354736328,-91.63880920410156
1.5218794345855713,-7.133063793182373,-69.7020492553711,126.63385772705078,-143.10203552246094,-90.47382354736328,-91.63880920410156
1.5240533351898193,-7.133063793182373,-69.7020492553711,126.63385772705078,-143.10203552246094,-90.47382354736328,-91.63880920410156
1.5262272357940674,-7.133063793182373,-69.7020492553711,126.63385772705078,-143.10203552246094,-90.47382354736328,-91.63880920410156
1.5283942222595215,-7.133063793182373,-69.7020492553711,126.63385772705078,-143.10203552246094,-90.47382354736328,-91.63880920410156
1.53108811378479,-7.133063793182373,-69.7020492553711,126.63407135009766,-143.10247802734375,-90.47382354736328,-91.63880920410156
1.5332746505737305,-7.133063793182373,-69.7020492553711,126.63407135009766,-143.10247802734375,-90.47382354736328,-91.63880920410156
1.5355703830718994,-7.133063793182373,-69.7020492553711,126.63407135009766,-143.10247802734375,-90.47382354736328,-91.63880920410156
1.53788161277771,-7.133063793182373,-69.7020492553711,126.63407135009766,-143.10247802734375,-90.47382354736328,-91.63880920410156
1.5408859252929688,-7.133063793182373,-69.7020492553711,126.63407135009766,-143.10247802734375,-90.47382354736328,-91.63880920410156
1.543060064315796,-7.133063793182373,-69.7020492553711,126.63407135009766,-143.10247802734375,-90.47382354736328,-91.63880920410156
1.5452241897583008,-7.133063793182373,-69.7020492553711,126.63407135009766,-143.10247802734375,-90.47382354736328,-91.63880920410156
1.547400951385498,-7.133063793182373,-69.7020492553711,126.63407135009766,-143.10247802734375,-90.47382354736328,-91.63880920410156
1.549741268157959,-7.133063793182373,-69.7020492553711,126.63407135009766,-143.10247802734375,-90.47382354736328,-91.63880920410156
1.5520176887512207,-7.133063793182373,-69.7020492553711,126.63407135009766,-143.1022491455078,-90.47382354736328,-91.63880920410156
1.5541908740997314,-7.133063793182373,-69.7020492553711,126.63407135009766,-143.1022491455078,-90.47382354736328,-91.63880920410156
1.5563747882843018,-7.133063793182373,-69.7020492553711,126.63407135009766,-143.1022491455078,-90.47382354736328,-91.63880920410156
1.5586175918579102,-7.133063793182373,-69.7020492553711,126.63407135009766,-143.1022491455078,-90.47382354736328,-91.63880920410156
1.5607640743255615,-7.133063793182373,-69.7020492553711,126.63407135009766,-143.10247802734375,-90.47382354736328,-91.63903045654297
1.5629944801330566,-7.133063793182373,-69.7020492553711,126.63407135009766,-143.10247802734375,-90.47382354736328,-91.63903045654297
1.5651581287384033,-7.133063793182373,-69.7020492553711,126.63407135009766,-143.10247802734375,-90.47382354736328,-91.63903045654297
1.567415714263916,-7.133063793182373,-69.7020492553711,126.63407135009766,-143.10247802734375,-90.47382354736328,-91.63903045654297
1.5696499347686768,-7.133063793182373,-69.7020492553711,126.63407135009766,-143.10247802734375,-90.47382354736328,-91.63903045654297
1.5719273090362549,-7.133063793182373,-69.7020492553711,126.63407135009766,-143.10247802734375,-90.47382354736328,-91.63880920410156
1.5741140842437744,-7.133063793182373,-69.7020492553711,126.63407135009766,-143.10247802734375,-90.47382354736328,-91.63880920410156
1.5763018131256104,-7.133063793182373,-69.7020492553711,126.63407135009766,-143.10247802734375,-90.47382354736328,-91.63880920410156
1.57859206199646,-7.133063793182373,-69.7020492553711,126.63407135009766,-143.10247802734375,-90.47382354736328,-91.63880920410156
1.5810925960540771,-7.133063793182373,-69.7022705078125,126.63407135009766,-143.10247802734375,-90.47382354736328,-91.63880920410156
1.583266258239746,-7.133063793182373,-69.7022705078125,126.63407135009766,-143.10247802734375,-90.47382354736328,-91.63880920410156
1.585580825805664,-7.133063793182373,-69.7022705078125,126.63407135009766,-143.10247802734375,-90.47382354736328,-91.63880920410156
1.587881326675415,-7.133063793182373,-69.7022705078125,126.63407135009766,-143.10247802734375,-90.47382354736328,-91.63880920410156
1.5908498764038086,-7.133281230926514,-69.7022705078125,126.63429260253906,-143.10247802734375,-90.4736099243164,-91.63859558105469
1.5929934978485107,-7.133281230926514,-69.7022705078125,126.63429260253906,-143.10247802734375,-90.4736099243164,-91.63859558105469
1.5951578617095947,-7.133281230926514,-69.7022705078125,126.63429260253906,-143.10247802734375,-90.4736099243164,-91.63859558105469
1.5973358154296875,-7.133281230926514,-69.7022705078125,126.63429260253906,-143.10247802734375,-90.4736099243164,-91.63859558105469
1.5996150970458984,-7.133281230926514,-69.7022705078125,126.63429260253906,-143.10247802734375,-90.4736099243164,-91.63859558105469
1.601924180984497,-7.133281230926514,-69.7020492553711,126.63407135009766,-143.10247802734375,-90.47382354736328,-91.63880920410156
1.6041107177734375,-7.133281230926514,-69.7020492553711,126.63407135009766,-143.10247802734375,-90.47382354736328,-91.63880920410156
1.6062982082366943,-7.133281230926514,-69.7020492553711,126.63407135009766,-143.10247802734375,-90.47382354736328,-91.63880920410156
1.6085166931152344,-7.133281230926514,-69.7020492553711,126.63407135009766,-143.10247802734375,-90.47382354736328,-91.63880920410156
1.6107707023620605,-7.133063793182373,-69.7020492553711,126.63407135009766,-143.10269165039062,-90.4736099243164,-91.63880920410156
1.6129591464996338,-7.133063793182373,-69.7020492553711,126.63407135009766,-143.10269165039062,-90.4736099243164,-91.63880920410156
1.6151082515716553,-7.133063793182373,-69.7020492553711,126.63407135009766,-143.10269165039062,-90.4736099243164,-91.63880920410156
1.6172795295715332,-7.133063793182373,-69.7020492553711,126.63407135009766,-143.10269165039062,-90.4736099243164,-91.63880920410156
1.619577407836914,-7.133063793182373,-69.7020492553711,126.63407135009766,-143.10269165039062,-90.4736099243164,-91.63880920410156
1.621891975402832,-7.133281230926514,-69.7020492553711,126.63407135009766,-143.1022491455078,-90.4736099243164,-91.63880920410156
1.6240646839141846,-7.133281230926514,-69.7020492553711,126.63407135009766,-143.1022491455078,-90.4736099243164,-91.63880920410156
1.626248836517334,-7.133281230926514,-69.7020492553711,126.63407135009766,-143.1022491455078,-90.4736099243164,-91.63880920410156
1.6285474300384521,-7.133281230926514,-69.7020492553711,126.63407135009766,-143.1022491455078,-90.4736099243164,-91.63880920410156
1.6309890747070312,-7.133281230926514,-69.7022705078125,126.63429260253906,-143.10247802734375,-90.47382354736328,-91.63880920410156
1.6331839561462402,-7.133281230926514,-69.7022705078125,126.63429260253906,-143.10247802734375,-90.47382354736328,-91.63880920410156
1.6353638172149658,-7.133281230926514,-69.7022705078125,126.63429260253906,-143.10247802734375,-90.47382354736328,-91.63880920410156
1.6376607418060303,-7.133281230926514,-69.7022705078125,126.63429260253906,-143.10247802734375,-90.47382354736328,-91.63880920410156
1.6399075984954834,-7.133281230926514,-69.7022705078125,126.63429260253906,-143.10247802734375,-90.47382354736328,-91.63880920410156
1.6420729160308838,-7.133063793182373,-69.7020492553711,126.63385772705078,-143.1022491455078,-90.4736099243164,-91.63880920410156
1.644240379333496,-7.133063793182373,-69.7020492553711,126.63385772705078,-143.1022491455078,-90.4736099243164,-91.63880920410156
1.6464107036590576,-7.133063793182373,-69.7020492553711,126.63385772705078,-143.1022491455078,-90.4736099243164,-91.63880920410156
1.6487054824829102,-7.133063793182373,-69.7020492553711,126.63385772705078,-143.1022491455078,-90.4736099243164,-91.63880920410156
1.6509454250335693,-7.133281230926514,-69.7020492553711,126.63407135009766,-143.10247802734375,-90.47382354736328,-91.63880920410156
1.6531198024749756,-7.133281230926514,-69.7020492553711,126.63407135009766,-143.10247802734375,-90.47382354736328,-91.63880920410156
1.655306100845337,-7.133281230926514,-69.7020492553711,126.63407135009766,-143.10247802734375,-90.47382354736328,-91.63880920410156
1.657630205154419,-7.133281230926514,-69.7020492553711,126.63407135009766,-143.10247802734375,-90.47382354736328,-91.63880920410156
1.6609935760498047,-7.133063793182373,-69.7020492553711,126.63407135009766,-143.1022491455078,-90.4736099243164,-91.63880920410156
1.6631808280944824,-7.133063793182373,-69.7020492553711,126.63407135009766,-143.1022491455078,-90.4736099243164,-91.63880920410156
1.665367603302002,-7.133063793182373,-69.7020492553711,126.63407135009766,-143.1022491455078,-90.4736099243164,-91.63880920410156
1.667635202407837,-7.133063793182373,-69.7020492553711,126.63407135009766,-143.1022491455078,-90.4736099243164,-91.63880920410156
1.6699137687683105,-7.133063793182373,-69.7020492553711,126.63407135009766,-143.1022491455078,-90.4736099243164,-91.63880920410156
1.6720879077911377,-7.133063793182373,-69.7022705078125,126.63429260253906,-143.1022491455078,-90.4736099243164,-91.63880920410156
1.674274206161499,-7.133063793182373,-69.7022705078125,126.63429260253906,-143.1022491455078,-90.4736099243164,-91.63880920410156
1.676553726196289,-7.133063793182373,-69.7022705078125,126.63429260253906,-143.1022491455078,-90.4736099243164,-91.63880920410156
1.6788384914398193,-7.133063793182373,-69.7022705078125,126.63429260253906,-143.1022491455078,-90.4736099243164,-91.63880920410156
1.6810081005096436,-7.133063793182373,-69.7022705078125,126.63407135009766,-143.1022491455078,-90.47382354736328,-91.63880920410156
1.6831824779510498,-7.133063793182373,-69.7022705078125,126.63407135009766,-143.1022491455078,-90.47382354736328,-91.63880920410156
1.6853609085083008,-7.133063793182373,-69.7022705078125,126.63407135009766,-143.1022491455078,-90.47382354736328,-91.63880920410156
1.6876506805419922,-7.133063793182373,-69.7022705078125,126.63407135009766,-143.1022491455078,-90.47382354736328,-91.63880920410156
1.6909971237182617,-7.133063793182373,-69.7020492553711,126.63407135009766,-143.1022491455078,-90.4736099243164,-91.63880920410156
1.6931843757629395,-7.133063793182373,-69.7020492553711,126.63407135009766,-143.1022491455078,-90.4736099243164,-91.63880920410156
1.6953704357147217,-7.133063793182373,-69.7020492553711,126.63407135009766,-143.1022491455078,-90.4736099243164,-91.63880920410156
1.6976587772369385,-7.133063793182373,-69.7020492553711,126.63407135009766,-143.1022491455078,-90.4736099243164,-91.63880920410156
1.6999194622039795,-7.133063793182373,-69.7020492553711,126.63407135009766,-143.1022491455078,-90.4736099243164,-91.63880920410156
