Ultramotiv/Mauris-Progress-/All_other_stuff/dmp_trial6.csv
timestamp,joint1,joint2,joint3,joint4,joint5,joint6
7.43865966796875e-05,-6.27395486831665,-83.8254623413086,136.4325714111328,-95.75879669189453,-90.37657928466797,-91.63555145263672
0.002217531204223633,-6.27395486831665,-83.8254623413086,136.4325714111328,-95.75879669189453,-90.37657928466797,-91.63555145263672
0.004369020462036133,-6.27395486831665,-83.8254623413086,136.4325714111328,-95.75879669189453,-90.37657928466797,-91.63555145263672
0.006615638732910156,-6.27395486831665,-83.8254623413086,136.4325714111328,-95.75879669189453,-90.37657928466797,-91.63555145263672
0.008872509002685547,-6.27395486831665,-83.82524871826172,136.4327850341797,-95.75879669189453,-90.37657928466797,-91.63555145263672
0.011009931564331055,-6.27395486831665,-83.82524871826172,136.4327850341797,-95.75879669189453,-90.37657928466797,-91.63555145263672
0.01313924789428711,-6.27395486831665,-83.82524871826172,136.4327850341797,-95.75879669189453,-90.37657928466797,-91.63555145263672
0.015269279479980469,-6.27395486831665,-83.82524871826172,136.4327850341797,-95.75879669189453,-90.37657928466797,-91.63555145263672
0.018085718154907227,-6.27373743057251,-83.82524871826172,136.4327850341797,-95.75857543945312,-90.37657928466797,-91.63533020019531
0.02021932601928711,-6.27373743057251,-83.82524871826172,136.4327850341797,-95.75857543945312,-90.37657928466797,-91.63533020019531
0.022374391555786133,-6.27373743057251,-83.82524871826172,136.4327850341797,-95.75857543945312,-90.37657928466797,-91.63533020019531
0.024515628814697266,-6.27373743057251,-83.82524871826172,136.4327850341797,-95.75857543945312,-90.37657928466797,-91.63533020019531
0.026740074157714844,-6.27373743057251,-83.82524871826172,136.4327850341797,-95.75857543945312,-90.37657928466797,-91.63533020019531
0.02901482582092285,-6.27395486831665,-83.82524871826172,136.4327850341797,-95.75879669189453,-90.37657928466797,-91.63533020019531
0.031187772750854492,-6.27395486831665,-83.82524871826172,136.4327850341797,-95.75879669189453,-90.37657928466797,-91.63533020019531
0.03337407112121582,-6.27395486831665,-83.82524871826172,136.4327850341797,-95.75879669189453,-90.37657928466797,-91.63533020019531
0.035631418228149414,-6.27395486831665,-83.82524871826172,136.4327850341797,-95.75879669189453,-90.37657928466797,-91.63533020019531
0.03842759132385254,-6.27373743057251,-83.82568359375,136.4327850341797,-95.75879669189453,-90.37657928466797,-91.63555145263672
0.040699005126953125,-6.27373743057251,-83.82568359375,136.4327850341797,-95.75879669189453,-90.37657928466797,-91.63555145263672
0.04303693771362305,-6.27373743057251,-83.82568359375,136.4327850341797,-95.75879669189453,-90.37657928466797,-91.63555145263672
0.04522418975830078,-6.27373743057251,-83.82568359375,136.4327850341797,-95.75879669189453,-90.37657928466797,-91.63555145263672
0.04852914810180664,-6.27373743057251,-83.8254623413086,136.4327850341797,-95.75836181640625,-90.37680053710938,-91.63555145263672
0.050827741622924805,-6.27373743057251,-83.8254623413086,136.4327850341797,-95.75836181640625,-90.37680053710938,-91.63555145263672
0.05308985710144043,-6.27373743057251,-83.8254623413086,136.4327850341797,-95.75836181640625,-90.37680053710938,-91.63555145263672
0.05527830123901367,-6.27373743057251,-83.8254623413086,136.4327850341797,-95.75836181640625,-90.37680053710938,-91.63555145263672
0.058533668518066406,-6.27395486831665,-83.8254623413086,136.43301391601562,-95.75857543945312,-90.37657928466797,-91.63533020019531
0.06077933311462402,-6.27395486831665,-83.8254623413086,136.43301391601562,-95.75857543945312,-90.37657928466797,-91.63533020019531
0.06308293342590332,-6.27395486831665,-83.8254623413086,136.43301391601562,-95.75857543945312,-90.37657928466797,-91.63533020019531
0.06525850296020508,-6.27395486831665,-83.8254623413086,136.43301391601562,-95.75857543945312,-90.37657928466797,-91.63533020019531
0.06849527359008789,-6.27373743057251,-83.8254623413086,136.4327850341797,-95.75857543945312,-90.37680053710938,-91.63555145263672
0.07077741622924805,-6.27373743057251,-83.8254623413086,136.4327850341797,-95.75857543945312,-90.37680053710938,-91.63555145263672
0.07309079170227051,-6.27373743057251,-83.8254623413086,136.4327850341797,-95.75857543945312,-90.37680053710938,-91.63555145263672
0.07527947425842285,-6.27373743057251,-83.8254623413086,136.4327850341797,-95.75857543945312,-90.37680053710938,-91.63555145263672
0.07846474647521973,-6.27373743057251,-83.8254623413086,136.4325714111328,-95.75857543945312,-90.37657928466797,-91.63555145263672
0.08074498176574707,-6.27373743057251,-83.8254623413086,136.4325714111328,-95.75857543945312,-90.37657928466797,-91.63555145263672
0.08317732810974121,-6.27373743057251,-83.8254623413086,136.4325714111328,-95.75857543945312,-90.37657928466797,-91.63555145263672
0.08536434173583984,-6.27373743057251,-83.8254623413086,136.4325714111328,-95.75857543945312,-90.37657928466797,-91.63555145263672
0.08856987953186035,-6.27373743057251,-83.8254623413086,136.4327850341797,-95.75857543945312,-90.37657928466797,-91.63533020019531
0.09088659286499023,-6.27373743057251,-83.8254623413086,136.4327850341797,-95.75857543945312,-90.37657928466797,-91.63533020019531
0.09308338165283203,-6.27373743057251,-83.8254623413086,136.4327850341797,-95.75857543945312,-90.37657928466797,-91.63533020019531
0.09526896476745605,-6.27373743057251,-83.8254623413086,136.4327850341797,-95.75857543945312,-90.37657928466797,-91.63533020019531
0.09856367111206055,-6.27373743057251,-83.8254623413086,136.4327850341797,-95.75836181640625,-90.37657928466797,-91.63555145263672
0.10084652900695801,-6.27373743057251,-83.8254623413086,136.4327850341797,-95.75836181640625,-90.37657928466797,-91.63555145263672
0.10309290885925293,-6.27373743057251,-83.8254623413086,136.4327850341797,-95.75836181640625,-90.37657928466797,-91.63555145263672
0.10526490211486816,-6.27373743057251,-83.8254623413086,136.4327850341797,-95.75836181640625,-90.37657928466797,-91.63555145263672
0.10843968391418457,-6.27395486831665,-83.8254623413086,136.4327850341797,-95.75879669189453,-90.37657928466797,-91.63555145263672
0.11070632934570312,-6.27395486831665,-83.8254623413086,136.4327850341797,-95.75879669189453,-90.37657928466797,-91.63555145263672
0.11300802230834961,-6.27395486831665,-83.8254623413086,136.4327850341797,-95.75879669189453,-90.37657928466797,-91.63555145263672
0.11519193649291992,-6.27395486831665,-83.8254623413086,136.4327850341797,-95.75879669189453,-90.37657928466797,-91.63555145263672
0.11737608909606934,-6.27395486831665,-83.8254623413086,136.4327850341797,-95.75879669189453,-90.37657928466797,-91.63555145263672
0.11965370178222656,-6.27395486831665,-83.8254623413086,136.4327850341797,-95.75857543945312,-90.37657928466797,-91.6357650756836
0.12194585800170898,-6.27395486831665,-83.8254623413086,136.4327850341797,-95.75857543945312,-90.37657928466797,-91.6357650756836
0.12412810325622559,-6.27395486831665,-83.8254623413086,136.4327850341797,-95.75857543945312,-90.37657928466797,-91.6357650756836
0.1263141632080078,-6.27395486831665,-83.8254623413086,136.4327850341797,-95.75857543945312,-90.37657928466797,-91.6357650756836
0.12857556343078613,-6.27373743057251,-83.8254623413086,136.4325714111328,-95.75857543945312,-90.37657928466797,-91.63555145263672
0.13089895248413086,-6.27373743057251,-83.8254623413086,136.4325714111328,-95.75857543945312,-90.37657928466797,-91.63555145263672
0.13306474685668945,-6.27373743057251,-83.8254623413086,136.4325714111328,-95.75857543945312,-90.37657928466797,-91.63555145263672
0.13524889945983887,-6.27373743057251,-83.8254623413086,136.4325714111328,-95.75857543945312,-90.37657928466797,-91.63555145263672
0.1384873390197754,-6.27373743057251,-83.8254623413086,136.4327850341797,-95.75857543945312,-90.37657928466797,-91.63555145263672
0.14075255393981934,-6.27373743057251,-83.8254623413086,136.4327850341797,-95.75857543945312,-90.37657928466797,-91.63555145263672
0.14307951927185059,-6.27373743057251,-83.8254623413086,136.4327850341797,-95.75857543945312,-90.37657928466797,-91.63555145263672
0.1452653408050537,-6.27373743057251,-83.8254623413086,136.4327850341797,-95.75857543945312,-90.37657928466797,-91.63555145263672
0.1484220027923584,-6.27373743057251,-83.82568359375,136.4327850341797,-95.75857543945312,-90.37680053710938,-91.63555145263672
0.1506969928741455,-6.27373743057251,-83.82568359375,136.4327850341797,-95.75857543945312,-90.37680053710938,-91.63555145263672
0.1529541015625,-6.27373743057251,-83.82568359375,136.4327850341797,-95.75857543945312,-90.37680053710938,-91.63555145263672
0.15512752532958984,-6.27373743057251,-83.82568359375,136.4327850341797,-95.75857543945312,-90.37680053710938,-91.63555145263672
0.1573021411895752,-6.27373743057251,-83.82568359375,136.4327850341797,-95.75857543945312,-90.37680053710938,-91.63555145263672
0.15947937965393066,-6.273519515991211,-83.8254623413086,136.4327850341797,-95.75857543945312,-90.37680053710938,-91.63555145263672
0.16174936294555664,-6.273519515991211,-83.8254623413086,136.4327850341797,-95.75857543945312,-90.37680053710938,-91.63555145263672
0.1640315055847168,-6.273519515991211,-83.8254623413086,136.4327850341797,-95.75857543945312,-90.37680053710938,-91.63555145263672
0.16621708869934082,-6.273519515991211,-83.8254623413086,136.4327850341797,-95.75857543945312,-90.37680053710938,-91.63555145263672
0.16855669021606445,-6.27373743057251,-83.8254623413086,136.4327850341797,-95.75879669189453,-90.37657928466797,-91.63555145263672
0.1708049774169922,-6.27373743057251,-83.8254623413086,136.4327850341797,-95.75879669189453,-90.37657928466797,-91.63555145263672
0.17307806015014648,-6.27373743057251,-83.8254623413086,136.4327850341797,-95.75879669189453,-90.37657928466797,-91.63555145263672
0.17524981498718262,-6.27373743057251,-83.8254623413086,136.4327850341797,-95.75879669189453,-90.37657928466797,-91.63555145263672
0.17742705345153809,-6.27373743057251,-83.8254623413086,136.4327850341797,-95.75879669189453,-90.37657928466797,-91.63555145263672
0.17969036102294922,-6.27373743057251,-83.82568359375,136.4325714111328,-95.75857543945312,-90.37657928466797,-91.63555145263672
0.18199563026428223,-6.27373743057251,-83.82568359375,136.4325714111328,-95.75857543945312,-90.37657928466797,-91.63555145263672
0.18418216705322266,-6.27373743057251,-83.82568359375,136.4325714111328,-95.75857543945312,-90.37657928466797,-91.63555145263672
0.18636798858642578,-6.27373743057251,-83.82568359375,136.4325714111328,-95.75857543945312,-90.37657928466797,-91.63555145263672
0.18861079216003418,-6.27373743057251,-83.8254623413086,136.43301391601562,-95.75857543945312,-90.37657928466797,-91.63555145263672
0.19092011451721191,-6.27373743057251,-83.8254623413086,136.43301391601562,-95.75857543945312,-90.37657928466797,-91.63555145263672
0.1930840015411377,-6.27373743057251,-83.8254623413086,136.43301391601562,-95.75857543945312,-90.37657928466797,-91.63555145263672
0.19525766372680664,-6.27373743057251,-83.8254623413086,136.43301391601562,-95.75857543945312,-90.37657928466797,-91.63555145263672
0.1983637809753418,-6.27373743057251,-83.82568359375,136.4327850341797,-95.75857543945312,-90.37657928466797,-91.63555145263672
0.20062637329101562,-6.27373743057251,-83.82568359375,136.4327850341797,-95.75857543945312,-90.37657928466797,-91.63555145263672
0.20305609703063965,-6.27373743057251,-83.82568359375,136.4327850341797,-95.75857543945312,-90.37657928466797,-91.63555145263672
0.2052459716796875,-6.27373743057251,-83.82568359375,136.4327850341797,-95.75857543945312,-90.37657928466797,-91.63555145263672
0.20743012428283691,-6.27373743057251,-83.82568359375,136.4327850341797,-95.75857543945312,-90.37657928466797,-91.63555145263672
0.20969915390014648,-6.27373743057251,-83.82568359375,136.4327850341797,-95.75857543945312,-90.37657928466797,-91.63555145263672
0.21195578575134277,-6.27373743057251,-83.82568359375,136.4327850341797,-95.75857543945312,-90.37657928466797,-91.63555145263672
0.2141122817993164,-6.27373743057251,-83.82568359375,136.4327850341797,-95.75857543945312,-90.37657928466797,-91.63555145263672
0.21625065803527832,-6.27373743057251,-83.82568359375,136.4327850341797,-95.75857543945312,-90.37657928466797,-91.63555145263672
0.21848130226135254,-6.27373743057251,-83.8254623413086,136.4327850341797,-95.75857543945312,-90.37657928466797,-91.63555145263672
0.22071504592895508,-6.27373743057251,-83.8254623413086,136.4327850341797,-95.75857543945312,-90.37657928466797,-91.63555145263672
0.2230081558227539,-6.27373743057251,-83.8254623413086,136.4327850341797,-95.75857543945312,-90.37657928466797,-91.63555145263672
0.22517704963684082,-6.27373743057251,-83.8254623413086,136.4327850341797,-95.75857543945312,-90.37657928466797,-91.63555145263672
0.22823691368103027,-6.27373743057251,-83.8254623413086,136.4327850341797,-95.75857543945312,-90.37657928466797,-91.63555145263672
0.23041892051696777,-6.27373743057251,-83.8254623413086,136.4327850341797,-95.75857543945312,-90.37657928466797,-91.63555145263672
0.23270678520202637,-6.27373743057251,-83.8254623413086,136.4327850341797,-95.75857543945312,-90.37657928466797,-91.63555145263672
0.23501324653625488,-6.27373743057251,-83.8254623413086,136.4327850341797,-95.75857543945312,-90.37657928466797,-91.63555145263672
0.23721742630004883,-6.27373743057251,-83.8254623413086,136.4327850341797,-95.75857543945312,-90.37657928466797,-91.63555145263672
0.23951959609985352,-6.27395486831665,-83.8254623413086,136.4327850341797,-95.75879669189453,-90.37657928466797,-91.63533020019531
0.2418069839477539,-6.27395486831665,-83.8254623413086,136.4327850341797,-95.75879669189453,-90.37657928466797,-91.63533020019531
0.24410629272460938,-6.27395486831665,-83.8254623413086,136.4327850341797,-95.75879669189453,-90.37657928466797,-91.63533020019531
0.24628949165344238,-6.27395486831665,-83.8254623413086,136.4327850341797,-95.75879669189453,-90.37657928466797,-91.63533020019531
0.24846911430358887,-6.27373743057251,-83.82568359375,136.4327850341797,-95.75857543945312,-90.37657928466797,-91.63555145263672
0.2507336139678955,-6.27373743057251,-83.82568359375,136.4327850341797,-95.75857543945312,-90.37657928466797,-91.63555145263672
0.2530395984649658,-6.27373743057251,-83.82568359375,136.4327850341797,-95.75857543945312,-90.37657928466797,-91.63555145263672
0.25522541999816895,-6.27373743057251,-83.82568359375,136.4327850341797,-95.75857543945312,-90.37657928466797,-91.63555145263672
0.2584538459777832,-6.27373743057251,-83.8254623413086,136.4327850341797,-95.75857543945312,-90.3763656616211,-91.63555145263672
0.2607293128967285,-6.27373743057251,-83.8254623413086,136.4327850341797,-95.75857543945312,-90.3763656616211,-91.63555145263672
0.2630288600921631,-6.27373743057251,-83.8254623413086,136.4327850341797,-95.75857543945312,-90.3763656616211,-91.63555145263672
0.2652127742767334,-6.27373743057251,-83.8254623413086,136.4327850341797,-95.75857543945312,-90.3763656616211,-91.63555145263672
0.26842570304870605,-6.27395486831665,-83.8254623413086,136.4325714111328,-95.75857543945312,-90.3763656616211,-91.6357650756836
0.2706882953643799,-6.27395486831665,-83.8254623413086,136.4325714111328,-95.75857543945312,-90.3763656616211,-91.6357650756836
0.2729794979095459,-6.27395486831665,-83.8254623413086,136.4325714111328,-95.75857543945312,-90.3763656616211,-91.6357650756836
0.27518391609191895,-6.27395486831665,-83.8254623413086,136.4325714111328,-95.75857543945312,-90.3763656616211,-91.6357650756836
0.27841854095458984,-6.27373743057251,-83.8254623413086,136.4327850341797,-95.75857543945312,-90.37657928466797,-91.63555145263672
0.2806837558746338,-6.27373743057251,-83.8254623413086,136.4327850341797,-95.75857543945312,-90.37657928466797,-91.63555145263672
0.28299403190612793,-6.27373743057251,-83.8254623413086,136.4327850341797,-95.75857543945312,-90.37657928466797,-91.63555145263672
0.28517913818359375,-6.27373743057251,-83.8254623413086,136.4327850341797,-95.75857543945312,-90.37657928466797,-91.63555145263672
0.28839731216430664,-6.27373743057251,-83.8254623413086,136.43301391601562,-95.75857543945312,-90.37657928466797,-91.63533020019531
0.29067111015319824,-6.27373743057251,-83.8254623413086,136.43301391601562,-95.75857543945312,-90.37657928466797,-91.63533020019531
0.2929866313934326,-6.27373743057251,-83.8254623413086,136.43301391601562,-95.75857543945312,-90.37657928466797,-91.63533020019531
0.29517245292663574,-6.27373743057251,-83.8254623413086,136.43301391601562,-95.75857543945312,-90.37657928466797,-91.63533020019531
0.2983970642089844,-6.27373743057251,-83.82568359375,136.43301391601562,-95.75857543945312,-90.37680053710938,-91.63555145263672
0.3006887435913086,-6.27373743057251,-83.82568359375,136.43301391601562,-95.75857543945312,-90.37680053710938,-91.63555145263672
0.303011417388916,-6.27373743057251,-83.82568359375,136.43301391601562,-95.75857543945312,-90.37680053710938,-91.63555145263672
0.30521631240844727,-6.27373743057251,-83.82568359375,136.43301391601562,-95.75857543945312,-90.37680053710938,-91.63555145263672
0.3084070682525635,-6.27373743057251,-83.8254623413086,136.4327850341797,-95.75857543945312,-90.37657928466797,-91.63555145263672
0.31067490577697754,-6.27373743057251,-83.8254623413086,136.4327850341797,-95.75857543945312,-90.37657928466797,-91.63555145263672
0.31296825408935547,-6.27373743057251,-83.8254623413086,136.4327850341797,-95.75857543945312,-90.37657928466797,-91.63555145263672
0.31514477729797363,-6.27373743057251,-83.8254623413086,136.4327850341797,-95.75857543945312,-90.37657928466797,-91.63555145263672
0.3173410892486572,-6.27373743057251,-83.8254623413086,136.4327850341797,-95.75857543945312,-90.37657928466797,-91.63555145263672
0.31956958770751953,-6.27373743057251,-83.82568359375,136.4327850341797,-95.75857543945312,-90.37680053710938,-91.63533020019531
0.3217446804046631,-6.27373743057251,-83.82568359375,136.4327850341797,-95.75857543945312,-90.37680053710938,-91.63533020019531
0.3240184783935547,-6.27373743057251,-83.82568359375,136.4327850341797,-95.75857543945312,-90.37680053710938,-91.63533020019531
0.32613277435302734,-6.27373743057251,-83.82568359375,136.4327850341797,-95.75857543945312,-90.37680053710938,-91.63533020019531
0.3282656669616699,-6.27373743057251,-83.8254623413086,136.4325714111328,-95.75879669189453,-90.37657928466797,-91.63555145263672
0.33042144775390625,-6.27373743057251,-83.8254623413086,136.4325714111328,-95.75879669189453,-90.37657928466797,-91.63555145263672
0.33264946937561035,-6.27373743057251,-83.8254623413086,136.4325714111328,-95.75879669189453,-90.37657928466797,-91.63555145263672
0.33492541313171387,-6.27373743057251,-83.8254623413086,136.4325714111328,-95.75879669189453,-90.37657928466797,-91.63555145263672
0.33709073066711426,-6.27373743057251,-83.8254623413086,136.4325714111328,-95.75879669189453,-90.37657928466797,-91.63555145263672
0.33927440643310547,-6.27373743057251,-83.8254623413086,136.4327850341797,-95.75857543945312,-90.3763656616211,-91.63555145263672
0.34151244163513184,-6.27373743057251,-83.8254623413086,136.4327850341797,-95.75857543945312,-90.3763656616211,-91.63555145263672
0.34380030632019043,-6.27373743057251,-83.8254623413086,136.4327850341797,-95.75857543945312,-90.3763656616211,-91.63555145263672
0.34609246253967285,-6.27373743057251,-83.8254623413086,136.4327850341797,-95.75857543945312,-90.3763656616211,-91.63555145263672
0.34857916831970215,-6.27373743057251,-83.82568359375,136.4327850341797,-95.75857543945312,-90.3763656616211,-91.63533020019531
0.3508884906768799,-6.27373743057251,-83.82568359375,136.4327850341797,-95.75857543945312,-90.3763656616211,-91.63533020019531
0.3530921936035156,-6.27373743057251,-83.82568359375,136.4327850341797,-95.75857543945312,-90.3763656616211,-91.63533020019531
0.35526585578918457,-6.27373743057251,-83.82568359375,136.4327850341797,-95.75857543945312,-90.3763656616211,-91.63533020019531
0.3583180904388428,-6.27395486831665,-83.8254623413086,136.43301391601562,-95.75857543945312,-90.37657928466797,-91.63533020019531
0.36058688163757324,-6.27395486831665,-83.8254623413086,136.43301391601562,-95.75857543945312,-90.37657928466797,-91.63533020019531
0.3629305362701416,-6.27395486831665,-83.8254623413086,136.43301391601562,-95.75857543945312,-90.37657928466797,-91.63533020019531
0.3651103973388672,-6.27395486831665,-83.8254623413086,136.43301391601562,-95.75857543945312,-90.37657928466797,-91.63533020019531
0.36731624603271484,-6.27395486831665,-83.8254623413086,136.43301391601562,-95.75857543945312,-90.37657928466797,-91.63533020019531
0.3695034980773926,-6.27373743057251,-83.8254623413086,136.4327850341797,-95.75879669189453,-90.37657928466797,-91.63555145263672
0.3717684745788574,-6.27373743057251,-83.8254623413086,136.4327850341797,-95.75879669189453,-90.37657928466797,-91.63555145263672
0.37404727935791016,-6.27373743057251,-83.8254623413086,136.4327850341797,-95.75879669189453,-90.37657928466797,-91.63555145263672
0.37623143196105957,-6.27373743057251,-83.8254623413086,136.4327850341797,-95.75879669189453,-90.37657928466797,-91.63555145263672
0.37841153144836426,-6.27373743057251,-83.82568359375,136.4325714111328,-95.75857543945312,-90.37657928466797,-91.63555145263672
0.3806798458099365,-6.27373743057251,-83.82568359375,136.4325714111328,-95.75857543945312,-90.37657928466797,-91.63555145263672
0.38299083709716797,-6.27373743057251,-83.82568359375,136.4325714111328,-95.75857543945312,-90.37657928466797,-91.63555145263672
0.3851768970489502,-6.27373743057251,-83.82568359375,136.4325714111328,-95.75857543945312,-90.37657928466797,-91.63555145263672
0.3883812427520752,-6.27373743057251,-83.8254623413086,136.4327850341797,-95.75857543945312,-90.37657928466797,-91.63533020019531
0.3906586170196533,-6.27373743057251,-83.8254623413086,136.4327850341797,-95.75857543945312,-90.37657928466797,-91.63533020019531
0.39297008514404297,-6.27373743057251,-83.8254623413086,136.4327850341797,-95.75857543945312,-90.37657928466797,-91.63533020019531
0.3951554298400879,-6.27373743057251,-83.8254623413086,136.4327850341797,-95.75857543945312,-90.37657928466797,-91.63533020019531
0.3973546028137207,-6.27373743057251,-83.8254623413086,136.4327850341797,-95.75857543945312,-90.37657928466797,-91.63533020019531
0.39962244033813477,-6.27373743057251,-83.82568359375,136.4327850341797,-95.75879669189453,-90.37657928466797,-91.63555145263672
0.40194129943847656,-6.27373743057251,-83.82568359375,136.4327850341797,-95.75879669189453,-90.37657928466797,-91.63555145263672
0.4041473865509033,-6.27373743057251,-83.82568359375,136.4327850341797,-95.75879669189453,-90.37657928466797,-91.63555145263672
0.40633487701416016,-6.27373743057251,-83.82568359375,136.4327850341797,-95.75879669189453,-90.37657928466797,-91.63555145263672
0.4086153507232666,-6.27395486831665,-83.8259048461914,136.4327850341797,-95.75857543945312,-90.37657928466797,-91.63555145263672
0.41091012954711914,-6.27395486831665,-83.8259048461914,136.4327850341797,-95.75857543945312,-90.37657928466797,-91.63555145263672
0.4130728244781494,-6.27395486831665,-83.8259048461914,136.4327850341797,-95.75857543945312,-90.37657928466797,-91.63555145263672
0.41522216796875,-6.27395486831665,-83.8259048461914,136.4327850341797,-95.75857543945312,-90.37657928466797,-91.63555145263672
0.41800427436828613,-6.27373743057251,-83.8254623413086,136.43301391601562,-95.75857543945312,-90.37657928466797,-91.63555145263672
0.4202289581298828,-6.27373743057251,-83.8254623413086,136.43301391601562,-95.75857543945312,-90.37657928466797,-91.63555145263672
0.42240262031555176,-6.27373743057251,-83.8254623413086,136.43301391601562,-95.75857543945312,-90.37657928466797,-91.63555145263672
0.42467737197875977,-6.27373743057251,-83.8254623413086,136.43301391601562,-95.75857543945312,-90.37657928466797,-91.63555145263672
0.42697572708129883,-6.27373743057251,-83.8254623413086,136.43301391601562,-95.75857543945312,-90.37657928466797,-91.63555145263672
0.42916154861450195,-6.27373743057251,-83.8254623413086,136.43301391601562,-95.75857543945312,-90.37657928466797,-91.63555145263672
0.43134641647338867,-6.273519515991211,-83.82568359375,136.4327850341797,-95.75857543945312,-90.37657928466797,-91.63555145263672
0.43361520767211914,-6.273519515991211,-83.82568359375,136.4327850341797,-95.75857543945312,-90.37657928466797,-91.63555145263672
0.4359312057495117,-6.273519515991211,-83.82568359375,136.4327850341797,-95.75857543945312,-90.37657928466797,-91.63555145263672
0.43810057640075684,-6.273519515991211,-83.82568359375,136.4327850341797,-95.75857543945312,-90.37657928466797,-91.63555145263672
0.4405186176300049,-6.273519515991211,-83.8254623413086,136.4327850341797,-95.75857543945312,-90.37657928466797,-91.63555145263672
0.44281721115112305,-6.273519515991211,-83.8254623413086,136.4327850341797,-95.75857543945312,-90.37657928466797,-91.63555145263672
0.4451174736022949,-6.273519515991211,-83.8254623413086,136.4327850341797,-95.75857543945312,-90.37657928466797,-91.63555145263672
0.44730234146118164,-6.273519515991211,-83.8254623413086,136.4327850341797,-95.75857543945312,-90.37657928466797,-91.63555145263672
0.45044755935668945,-6.27373743057251,-83.8254623413086,136.43301391601562,-95.75857543945312,-90.37680053710938,-91.63555145263672
0.4527122974395752,-6.27373743057251,-83.8254623413086,136.43301391601562,-95.75857543945312,-90.37680053710938,-91.63555145263672
0.4550199508666992,-6.27373743057251,-83.8254623413086,136.43301391601562,-95.75857543945312,-90.37680053710938,-91.63555145263672
0.45725560188293457,-6.27373743057251,-83.8254623413086,136.43301391601562,-95.75857543945312,-90.37680053710938,-91.63555145263672
0.46019482612609863,-6.27373743057251,-83.82568359375,136.4327850341797,-95.75879669189453,-90.37657928466797,-91.63555145263672
0.46233558654785156,-6.27373743057251,-83.82568359375,136.4327850341797,-95.75879669189453,-90.37657928466797,-91.63555145263672
0.464571475982666,-6.27373743057251,-83.82568359375,136.4327850341797,-95.75879669189453,-90.37657928466797,-91.63555145263672
0.46683692932128906,-6.27373743057251,-83.82568359375,136.4327850341797,-95.75879669189453,-90.37657928466797,-91.63555145263672
0.4690697193145752,-6.27373743057251,-83.82568359375,136.4327850341797,-95.75879669189453,-90.37657928466797,-91.63555145263672
0.47124171257019043,-6.27373743057251,-83.82568359375,136.4327850341797,-95.75857543945312,-90.37657928466797,-91.63555145263672
0.4734189510345459,-6.27373743057251,-83.82568359375,136.4327850341797,-95.75857543945312,-90.37657928466797,-91.63555145263672
0.4756758213043213,-6.27373743057251,-83.82568359375,136.4327850341797,-95.75857543945312,-90.37657928466797,-91.63555145263672
0.4779841899871826,-6.27373743057251,-83.82568359375,136.4327850341797,-95.75857543945312,-90.37657928466797,-91.63555145263672
0.4805448055267334,-6.27373743057251,-83.8254623413086,136.4327850341797,-95.75857543945312,-90.37657928466797,-91.63555145263672
0.48283863067626953,-6.27373743057251,-83.8254623413086,136.4327850341797,-95.75857543945312,-90.37657928466797,-91.63555145263672
0.485093355178833,-6.27373743057251,-83.8254623413086,136.4327850341797,-95.75857543945312,-90.37657928466797,-91.63555145263672
0.4872779846191406,-6.27373743057251,-83.8254623413086,136.4327850341797,-95.75857543945312,-90.37657928466797,-91.63555145263672
0.49049949645996094,-6.27373743057251,-83.8254623413086,136.4327850341797,-95.75879669189453,-90.37657928466797,-91.63533020019531
0.4927656650543213,-6.27373743057251,-83.8254623413086,136.4327850341797,-95.75879669189453,-90.37657928466797,-91.63533020019531
0.4950587749481201,-6.27373743057251,-83.8254623413086,136.4327850341797,-95.75879669189453,-90.37657928466797,-91.63533020019531
0.49723076820373535,-6.27373743057251,-83.8254623413086,136.4327850341797,-95.75879669189453,-90.37657928466797,-91.63533020019531
0.5003526210784912,-6.273519515991211,-83.82568359375,136.4327850341797,-95.75836181640625,-90.37680053710938,-91.63533020019531
0.5026333332061768,-6.273519515991211,-83.82568359375,136.4327850341797,-95.75836181640625,-90.37680053710938,-91.63533020019531
0.504962682723999,-6.273519515991211,-83.82568359375,136.4327850341797,-95.75836181640625,-90.37680053710938,-91.63533020019531
0.5071365833282471,-6.273519515991211,-83.82568359375,136.4327850341797,-95.75836181640625,-90.37680053710938,-91.63533020019531
0.5093274116516113,-6.273519515991211,-83.82568359375,136.4327850341797,-95.75836181640625,-90.37680053710938,-91.63533020019531
0.511603832244873,-6.27373743057251,-83.8254623413086,136.4327850341797,-95.75857543945312,-90.37657928466797,-91.63555145263672
0.5139238834381104,-6.27373743057251,-83.8254623413086,136.4327850341797,-95.75857543945312,-90.37657928466797,-91.63555145263672
0.5161089897155762,-6.27373743057251,-83.8254623413086,136.4327850341797,-95.75857543945312,-90.37657928466797,-91.63555145263672
0.5182931423187256,-6.27373743057251,-83.8254623413086,136.4327850341797,-95.75857543945312,-90.37657928466797,-91.63555145263672
0.5205295085906982,-6.27373743057251,-83.8254623413086,136.4327850341797,-95.75857543945312,-90.37657928466797,-91.63555145263672
0.522796630859375,-6.27373743057251,-83.8254623413086,136.4327850341797,-95.75857543945312,-90.37657928466797,-91.63555145263672
0.5250821113586426,-6.27373743057251,-83.8254623413086,136.4327850341797,-95.75857543945312,-90.37657928466797,-91.63555145263672
0.5272519588470459,-6.27373743057251,-83.8254623413086,136.4327850341797,-95.75857543945312,-90.37657928466797,-91.63555145263672
0.5303103923797607,-6.27373743057251,-83.82568359375,136.4325714111328,-95.75857543945312,-90.37657928466797,-91.63555145263672
0.5326032638549805,-6.27373743057251,-83.82568359375,136.4325714111328,-95.75857543945312,-90.37657928466797,-91.63555145263672
0.5349252223968506,-6.27373743057251,-83.82568359375,136.4325714111328,-95.75857543945312,-90.37657928466797,-91.63555145263672
0.5370903015136719,-6.27373743057251,-83.82568359375,136.4325714111328,-95.75857543945312,-90.37657928466797,-91.63555145263672
0.5392556190490723,-6.27373743057251,-83.82568359375,136.4325714111328,-95.75857543945312,-90.37657928466797,-91.63555145263672
0.5414361953735352,-6.273519515991211,-83.8254623413086,136.43301391601562,-95.75857543945312,-90.37657928466797,-91.63555145263672
0.5436952114105225,-6.273519515991211,-83.8254623413086,136.43301391601562,-95.75857543945312,-90.37657928466797,-91.63555145263672
0.5460031032562256,-6.273519515991211,-83.8254623413086,136.43301391601562,-95.75857543945312,-90.37657928466797,-91.63555145263672
0.5481657981872559,-6.273519515991211,-83.8254623413086,136.43301391601562,-95.75857543945312,-90.37657928466797,-91.63555145263672
0.5503346920013428,-6.27373743057251,-83.8254623413086,136.4327850341797,-95.75857543945312,-90.37680053710938,-91.63555145263672
0.5525076389312744,-6.27373743057251,-83.8254623413086,136.4327850341797,-95.75857543945312,-90.37680053710938,-91.63555145263672
0.5547935962677002,-6.27373743057251,-83.8254623413086,136.4327850341797,-95.75857543945312,-90.37680053710938,-91.63555145263672
0.557084321975708,-6.27373743057251,-83.8254623413086,136.4327850341797,-95.75857543945312,-90.37680053710938,-91.63555145263672
0.5592622756958008,-6.27373743057251,-83.8254623413086,136.4327850341797,-95.75857543945312,-90.37680053710938,-91.63555145263672
0.5615475177764893,-6.27373743057251,-83.82524871826172,136.4327850341797,-95.75857543945312,-90.37657928466797,-91.63555145263672
0.5638313293457031,-6.27373743057251,-83.82524871826172,136.4327850341797,-95.75857543945312,-90.37657928466797,-91.63555145263672
0.5660898685455322,-6.27373743057251,-83.82524871826172,136.4327850341797,-95.75857543945312,-90.37657928466797,-91.63555145263672
0.5682728290557861,-6.27373743057251,-83.82524871826172,136.4327850341797,-95.75857543945312,-90.37657928466797,-91.63555145263672
0.5705058574676514,-6.27373743057251,-83.8254623413086,136.4327850341797,-95.75857543945312,-90.37657928466797,-91.63555145263672
0.5727972984313965,-6.27373743057251,-83.8254623413086,136.4327850341797,-95.75857543945312,-90.37657928466797,-91.63555145263672
0.575084924697876,-6.27373743057251,-83.8254623413086,136.4327850341797,-95.75857543945312,-90.37657928466797,-91.63555145263672
0.5772695541381836,-6.27373743057251,-83.8254623413086,136.4327850341797,-95.75857543945312,-90.37657928466797,-91.63555145263672
0.5804572105407715,-6.27395486831665,-83.8254623413086,136.4327850341797,-95.75857543945312,-90.37657928466797,-91.63555145263672
0.5827286243438721,-6.27395486831665,-83.8254623413086,136.4327850341797,-95.75857543945312,-90.37657928466797,-91.63555145263672
0.5850145816802979,-6.27395486831665,-83.8254623413086,136.4327850341797,-95.75857543945312,-90.37657928466797,-91.63555145263672
0.5871999263763428,-6.27395486831665,-83.8254623413086,136.4327850341797,-95.75857543945312,-90.37657928466797,-91.63555145263672
0.5904102325439453,-6.27373743057251,-83.8254623413086,136.43301391601562,-95.75857543945312,-90.37657928466797,-91.63555145263672
0.592665433883667,-6.27373743057251,-83.8254623413086,136.43301391601562,-95.75857543945312,-90.37657928466797,-91.63555145263672
0.5949711799621582,-6.27373743057251,-83.8254623413086,136.43301391601562,-95.75857543945312,-90.37657928466797,-91.63555145263672
0.5971450805664062,-6.27373743057251,-83.8254623413086,136.43301391601562,-95.75857543945312,-90.37657928466797,-91.63555145263672
0.6003000736236572,-6.27373743057251,-83.8254623413086,136.4327850341797,-95.75857543945312,-90.37657928466797,-91.63533020019531
0.6024751663208008,-6.27373743057251,-83.8254623413086,136.4327850341797,-95.75857543945312,-90.37657928466797,-91.63533020019531
0.6047606468200684,-6.27373743057251,-83.8254623413086,136.4327850341797,-95.75857543945312,-90.37657928466797,-91.63533020019531
0.607079029083252,-6.27373743057251,-83.8254623413086,136.4327850341797,-95.75857543945312,-90.37657928466797,-91.63533020019531
0.6092772483825684,-6.27373743057251,-83.8254623413086,136.4327850341797,-95.75857543945312,-90.37657928466797,-91.63533020019531
0.6114799976348877,-6.27373743057251,-83.8254623413086,136.4327850341797,-95.75857543945312,-90.37657928466797,-91.63555145263672
0.6137137413024902,-6.27373743057251,-83.8254623413086,136.4327850341797,-95.75857543945312,-90.37657928466797,-91.63555145263672
0.6159617900848389,-6.27373743057251,-83.8254623413086,136.4327850341797,-95.75857543945312,-90.37657928466797,-91.63555145263672
0.6180944442749023,-6.27373743057251,-83.8254623413086,136.4327850341797,-95.75857543945312,-90.37657928466797,-91.63555145263672
0.620232343673706,-6.273519515991211,-83.8254623413086,136.4327850341797,-95.75857543945312,-90.37657928466797,-91.63533020019531
0.6223948001861572,-6.273519515991211,-83.8254623413086,136.4327850341797,-95.75857543945312,-90.37657928466797,-91.63533020019531
0.6246471405029297,-6.273519515991211,-83.8254623413086,136.4327850341797,-95.75857543945312,-90.37657928466797,-91.63533020019531
0.6269423961639404,-6.273519515991211,-83.8254623413086,136.4327850341797,-95.75857543945312,-90.37657928466797,-91.63533020019531
0.6290957927703857,-6.273519515991211,-83.8254623413086,136.4327850341797,-95.75857543945312,-90.37657928466797,-91.63533020019531
0.6312789916992188,-6.273519515991211,-83.8254623413086,136.43301391601562,-95.75879669189453,-90.37657928466797,-91.63533020019531
0.63346266746521,-6.273519515991211,-83.8254623413086,136.43301391601562,-95.75879669189453,-90.37657928466797,-91.63533020019531
0.6357345581054688,-6.273519515991211,-83.8254623413086,136.43301391601562,-95.75879669189453,-90.37657928466797,-91.63533020019531
0.6380496025085449,-6.273519515991211,-83.8254623413086,136.43301391601562,-95.75879669189453,-90.37657928466797,-91.63533020019531
0.6405899524688721,-6.27373743057251,-83.8254623413086,136.4327850341797,-95.75836181640625,-90.37657928466797,-91.63555145263672
0.6428468227386475,-6.27373743057251,-83.8254623413086,136.4327850341797,-95.75836181640625,-90.37657928466797,-91.63555145263672
0.6450934410095215,-6.27373743057251,-83.8254623413086,136.4327850341797,-95.75836181640625,-90.37657928466797,-91.63555145263672
0.6472830772399902,-6.27373743057251,-83.8254623413086,136.4327850341797,-95.75836181640625,-90.37657928466797,-91.63555145263672
0.650301456451416,-6.27373743057251,-83.8254623413086,136.43301391601562,-95.75857543945312,-90.37657928466797,-91.6357650756836
0.652477502822876,-6.27373743057251,-83.8254623413086,136.43301391601562,-95.75857543945312,-90.37657928466797,-91.6357650756836
0.6547820568084717,-6.27373743057251,-83.8254623413086,136.43301391601562,-95.75857543945312,-90.37657928466797,-91.6357650756836
0.6570930480957031,-6.27373743057251,-83.8254623413086,136.43301391601562,-95.75857543945312,-90.37657928466797,-91.6357650756836
0.6593024730682373,-6.27373743057251,-83.8254623413086,136.43301391601562,-95.75857543945312,-90.37657928466797,-91.6357650756836
0.6615777015686035,-6.27373743057251,-83.8254623413086,136.4327850341797,-95.75857543945312,-90.37657928466797,-91.63533020019531
0.6638967990875244,-6.27373743057251,-83.8254623413086,136.4327850341797,-95.75857543945312,-90.37657928466797,-91.63533020019531
0.6660754680633545,-6.27373743057251,-83.8254623413086,136.4327850341797,-95.75857543945312,-90.37657928466797,-91.63533020019531
0.6682593822479248,-6.27373743057251,-83.8254623413086,136.4327850341797,-95.75857543945312,-90.37657928466797,-91.63533020019531
0.6704719066619873,-6.27373743057251,-83.8254623413086,136.4327850341797,-95.75836181640625,-90.37657928466797,-91.63555145263672
0.6727511882781982,-6.27373743057251,-83.8254623413086,136.4327850341797,-95.75836181640625,-90.37657928466797,-91.63555145263672
0.6750497817993164,-6.27373743057251,-83.8254623413086,136.4327850341797,-95.75836181640625,-90.37657928466797,-91.63555145263672
0.6772346496582031,-6.27373743057251,-83.8254623413086,136.4327850341797,-95.75836181640625,-90.37657928466797,-91.63555145263672
0.6804091930389404,-6.27373743057251,-83.82524871826172,136.4327850341797,-95.75857543945312,-90.37657928466797,-91.63555145263672
0.6826827526092529,-6.27373743057251,-83.82524871826172,136.4327850341797,-95.75857543945312,-90.37657928466797,-91.63555145263672
0.684971809387207,-6.27373743057251,-83.82524871826172,136.4327850341797,-95.75857543945312,-90.37657928466797,-91.63555145263672
0.687157154083252,-6.27373743057251,-83.82524871826172,136.4327850341797,-95.75857543945312,-90.37657928466797,-91.63555145263672
0.6893472671508789,-6.27373743057251,-83.82524871826172,136.4327850341797,-95.75857543945312,-90.37657928466797,-91.63555145263672
0.6916308403015137,-6.27373743057251,-83.8254623413086,136.4327850341797,-95.75879669189453,-90.37657928466797,-91.63555145263672
0.693953275680542,-6.27373743057251,-83.8254623413086,136.4327850341797,-95.75879669189453,-90.37657928466797,-91.63555145263672
0.6961367130279541,-6.27373743057251,-83.8254623413086,136.4327850341797,-95.75879669189453,-90.37657928466797,-91.63555145263672
0.6983203887939453,-6.27373743057251,-83.8254623413086,136.4327850341797,-95.75879669189453,-90.37657928466797,-91.63555145263672
0.7005627155303955,-6.27373743057251,-83.8254623413086,136.4327850341797,-95.75857543945312,-90.37657928466797,-91.63533020019531
0.7028322219848633,-6.27373743057251,-83.8254623413086,136.4327850341797,-95.75857543945312,-90.37657928466797,-91.63533020019531
0.7050797939300537,-6.27373743057251,-83.8254623413086,136.4327850341797,-95.75857543945312,-90.37657928466797,-91.63533020019531
0.7072505950927734,-6.27373743057251,-83.8254623413086,136.4327850341797,-95.75857543945312,-90.37657928466797,-91.63533020019531
0.7103209495544434,-6.27373743057251,-83.82524871826172,136.4327850341797,-95.75857543945312,-90.37657928466797,-91.63555145263672
0.7124967575073242,-6.27373743057251,-83.82524871826172,136.4327850341797,-95.75857543945312,-90.37657928466797,-91.63555145263672
0.7146790027618408,-6.27373743057251,-83.82524871826172,136.4327850341797,-95.75857543945312,-90.37657928466797,-91.63555145263672
0.7168710231781006,-6.27373743057251,-83.82524871826172,136.4327850341797,-95.75857543945312,-90.37657928466797,-91.63555145263672
0.7189724445343018,-6.27373743057251,-83.82524871826172,136.4327850341797,-95.75857543945312,-90.37657928466797,-91.63555145263672
0.7210750579833984,-6.27373743057251,-83.8254623413086,136.4325714111328,-95.75857543945312,-90.37657928466797,-91.63555145263672
0.7231459617614746,-6.27373743057251,-83.8254623413086,136.4325714111328,-95.75857543945312,-90.37657928466797,-91.63555145263672
0.7252342700958252,-6.27373743057251,-83.8254623413086,136.4325714111328,-95.75857543945312,-90.37657928466797,-91.63555145263672
0.7273213863372803,-6.27373743057251,-83.8254623413086,136.4325714111328,-95.75857543945312,-90.37657928466797,-91.63555145263672
0.7299838066101074,-6.27395486831665,-83.82568359375,136.43301391601562,-95.75879669189453,-90.37657928466797,-91.63555145263672
0.7321395874023438,-6.27395486831665,-83.82568359375,136.43301391601562,-95.75879669189453,-90.37657928466797,-91.63555145263672
0.7342987060546875,-6.27395486831665,-83.82568359375,136.43301391601562,-95.75879669189453,-90.37657928466797,-91.63555145263672
0.7364561557769775,-6.27395486831665,-83.82568359375,136.43301391601562,-95.75879669189453,-90.37657928466797,-91.63555145263672
0.7387011051177979,-6.27395486831665,-83.82568359375,136.43301391601562,-95.75879669189453,-90.37657928466797,-91.63555145263672
0.7409753799438477,-6.27373743057251,-83.82524871826172,136.43301391601562,-95.75857543945312,-90.37657928466797,-91.63555145263672
0.7431464195251465,-6.27373743057251,-83.82524871826172,136.43301391601562,-95.75857543945312,-90.37657928466797,-91.63555145263672
0.7453203201293945,-6.27373743057251,-83.82524871826172,136.43301391601562,-95.75857543945312,-90.37657928466797,-91.63555145263672
0.7474954128265381,-6.27373743057251,-83.82524871826172,136.43301391601562,-95.75857543945312,-90.37657928466797,-91.63555145263672
0.7503805160522461,-6.27373743057251,-83.8254623413086,136.4327850341797,-95.75879669189453,-90.37657928466797,-91.63533020019531
0.7526421546936035,-6.27373743057251,-83.8254623413086,136.4327850341797,-95.75879669189453,-90.37657928466797,-91.63533020019531
0.7549464702606201,-6.27373743057251,-83.8254623413086,136.4327850341797,-95.75879669189453,-90.37657928466797,-91.63533020019531
0.75710129737854,-6.27373743057251,-83.8254623413086,136.4327850341797,-95.75879669189453,-90.37657928466797,-91.63533020019531
0.7603211402893066,-6.27395486831665,-83.8254623413086,136.4327850341797,-95.75857543945312,-90.37657928466797,-91.63555145263672
0.7625668048858643,-6.27395486831665,-83.8254623413086,136.4327850341797,-95.75857543945312,-90.37657928466797,-91.63555145263672
0.7648200988769531,-6.27395486831665,-83.8254623413086,136.4327850341797,-95.75857543945312,-90.37657928466797,-91.63555145263672
0.7670371532440186,-6.27395486831665,-83.8254623413086,136.4327850341797,-95.75857543945312,-90.37657928466797,-91.63555145263672
0.7692172527313232,-6.27395486831665,-83.8254623413086,136.4327850341797,-95.75857543945312,-90.37657928466797,-91.63555145263672
0.7713980674743652,-6.273519515991211,-83.8254623413086,136.43301391601562,-95.75857543945312,-90.37657928466797,-91.63555145263672
0.7736549377441406,-6.273519515991211,-83.8254623413086,136.43301391601562,-95.75857543945312,-90.37657928466797,-91.63555145263672
0.7759318351745605,-6.273519515991211,-83.8254623413086,136.43301391601562,-95.75857543945312,-90.37657928466797,-91.63555145263672
0.7781021595001221,-6.273519515991211,-83.8254623413086,136.43301391601562,-95.75857543945312,-90.37657928466797,-91.63555145263672
0.7804532051086426,-6.27373743057251,-83.8254623413086,136.4327850341797,-95.75857543945312,-90.3763656616211,-91.63555145263672
0.782738208770752,-6.27373743057251,-83.8254623413086,136.4327850341797,-95.75857543945312,-90.3763656616211,-91.63555145263672
0.7850520610809326,-6.27373743057251,-83.8254623413086,136.4327850341797,-95.75857543945312,-90.3763656616211,-91.63555145263672
0.7872354984283447,-6.27373743057251,-83.8254623413086,136.4327850341797,-95.75857543945312,-90.3763656616211,-91.63555145263672
0.7904157638549805,-6.27373743057251,-83.82524871826172,136.4327850341797,-95.75857543945312,-90.37680053710938,-91.63555145263672
0.792672872543335,-6.27373743057251,-83.82524871826172,136.4327850341797,-95.75857543945312,-90.37680053710938,-91.63555145263672
0.7949798107147217,-6.27373743057251,-83.82524871826172,136.4327850341797,-95.75857543945312,-90.37680053710938,-91.63555145263672
0.7971429824829102,-6.27373743057251,-83.82524871826172,136.4327850341797,-95.75857543945312,-90.37680053710938,-91.63555145263672
0.8001959323883057,-6.27373743057251,-83.8254623413086,136.43301391601562,-95.75879669189453,-90.37657928466797,-91.63555145263672
0.8023626804351807,-6.27373743057251,-83.8254623413086,136.43301391601562,-95.75879669189453,-90.37657928466797,-91.63555145263672
0.8046212196350098,-6.27373743057251,-83.8254623413086,136.43301391601562,-95.75879669189453,-90.37657928466797,-91.63555145263672
0.8069267272949219,-6.27373743057251,-83.8254623413086,136.43301391601562,-95.75879669189453,-90.37657928466797,-91.63555145263672
0.8091220855712891,-6.27373743057251,-83.8254623413086,136.43301391601562,-95.75879669189453,-90.37657928466797,-91.63555145263672
0.8112959861755371,-6.27373743057251,-83.8254623413086,136.4325714111328,-95.75857543945312,-90.37657928466797,-91.63555145263672
0.8134703636169434,-6.27373743057251,-83.8254623413086,136.4325714111328,-95.75857543945312,-90.37657928466797,-91.63555145263672
0.8157081604003906,-6.27373743057251,-83.8254623413086,136.4325714111328,-95.75857543945312,-90.37657928466797,-91.63555145263672
0.8179471492767334,-6.27373743057251,-83.8254623413086,136.4325714111328,-95.75857543945312,-90.37657928466797,-91.63555145263672
0.8200809955596924,-6.27373743057251,-83.82524871826172,136.4327850341797,-95.75857543945312,-90.37657928466797,-91.63555145263672
0.8222134113311768,-6.27373743057251,-83.82524871826172,136.4327850341797,-95.75857543945312,-90.37657928466797,-91.63555145263672
0.8243823051452637,-6.27373743057251,-83.82524871826172,136.4327850341797,-95.75857543945312,-90.37657928466797,-91.63555145263672
0.8265371322631836,-6.27373743057251,-83.82524871826172,136.4327850341797,-95.75857543945312,-90.37657928466797,-91.63555145263672
0.8288164138793945,-6.27373743057251,-83.82524871826172,136.4327850341797,-95.75857543945312,-90.37657928466797,-91.63555145263672
0.8310816287994385,-6.273519515991211,-83.82524871826172,136.4327850341797,-95.75857543945312,-90.37657928466797,-91.63555145263672
0.8332509994506836,-6.273519515991211,-83.82524871826172,136.4327850341797,-95.75857543945312,-90.37657928466797,-91.63555145263672
0.8354277610778809,-6.273519515991211,-83.82524871826172,136.4327850341797,-95.75857543945312,-90.37657928466797,-91.63555145263672
0.8377101421356201,-6.273519515991211,-83.82524871826172,136.4327850341797,-95.75857543945312,-90.37657928466797,-91.63555145263672
0.8404817581176758,-6.27373743057251,-83.8254623413086,136.4327850341797,-95.75857543945312,-90.3763656616211,-91.63533020019531
0.8427135944366455,-6.27373743057251,-83.8254623413086,136.4327850341797,-95.75857543945312,-90.3763656616211,-91.63533020019531
0.8450043201446533,-6.27373743057251,-83.8254623413086,136.4327850341797,-95.75857543945312,-90.3763656616211,-91.63533020019531
0.8471765518188477,-6.27373743057251,-83.8254623413086,136.4327850341797,-95.75857543945312,-90.3763656616211,-91.63533020019531
0.8502886295318604,-6.27373743057251,-83.82524871826172,136.4327850341797,-95.75857543945312,-90.37657928466797,-91.63555145263672
0.8524644374847412,-6.27373743057251,-83.82524871826172,136.4327850341797,-95.75857543945312,-90.37657928466797,-91.63555145263672
0.8547549247741699,-6.27373743057251,-83.82524871826172,136.4327850341797,-95.75857543945312,-90.37657928466797,-91.63555145263672
0.8570659160614014,-6.27373743057251,-83.82524871826172,136.4327850341797,-95.75857543945312,-90.37657928466797,-91.63555145263672
0.8592634201049805,-6.27373743057251,-83.82524871826172,136.4327850341797,-95.75857543945312,-90.37657928466797,-91.63555145263672
0.8615350723266602,-6.27373743057251,-83.82524871826172,136.4327850341797,-95.75857543945312,-90.37657928466797,-91.63555145263672
0.8638358116149902,-6.27373743057251,-83.82524871826172,136.4327850341797,-95.75857543945312,-90.37657928466797,-91.63555145263672
0.866124153137207,-6.27373743057251,-83.82524871826172,136.4327850341797,-95.75857543945312,-90.37657928466797,-91.63555145263672
0.8683080673217773,-6.27373743057251,-83.82524871826172,136.4327850341797,-95.75857543945312,-90.37657928466797,-91.63555145263672
0.8704822063446045,-6.27373743057251,-83.8254623413086,136.4327850341797,-95.75857543945312,-90.37657928466797,-91.6357650756836
0.8727743625640869,-6.27373743057251,-83.8254623413086,136.4327850341797,-95.75857543945312,-90.37657928466797,-91.6357650756836
0.875089168548584,-6.27373743057251,-83.8254623413086,136.4327850341797,-95.75857543945312,-90.37657928466797,-91.6357650756836
0.8772742748260498,-6.27373743057251,-83.8254623413086,136.4327850341797,-95.75857543945312,-90.37657928466797,-91.6357650756836
0.8803720474243164,-6.27395486831665,-83.8254623413086,136.4327850341797,-95.75857543945312,-90.37657928466797,-91.63533020019531
0.8826420307159424,-6.27395486831665,-83.8254623413086,136.4327850341797,-95.75857543945312,-90.37657928466797,-91.63533020019531
0.8849351406097412,-6.27395486831665,-83.8254623413086,136.4327850341797,-95.75857543945312,-90.37657928466797,-91.63533020019531
0.8871216773986816,-6.27395486831665,-83.8254623413086,136.4327850341797,-95.75857543945312,-90.37657928466797,-91.63533020019531
0.8902983665466309,-6.27373743057251,-83.8254623413086,136.43301391601562,-95.75857543945312,-90.3763656616211,-91.63555145263672
0.8924829959869385,-6.27373743057251,-83.8254623413086,136.43301391601562,-95.75857543945312,-90.3763656616211,-91.63555145263672
0.8947839736938477,-6.27373743057251,-83.8254623413086,136.43301391601562,-95.75857543945312,-90.3763656616211,-91.63555145263672
0.8970973491668701,-6.27373743057251,-83.8254623413086,136.43301391601562,-95.75857543945312,-90.3763656616211,-91.63555145263672
0.9002907276153564,-6.27373743057251,-83.8254623413086,136.4327850341797,-95.75857543945312,-90.37657928466797,-91.63555145263672
0.902458906173706,-6.27373743057251,-83.8254623413086,136.4327850341797,-95.75857543945312,-90.37657928466797,-91.63555145263672
0.9047150611877441,-6.27373743057251,-83.8254623413086,136.4327850341797,-95.75857543945312,-90.37657928466797,-91.63555145263672
0.9070031642913818,-6.27373743057251,-83.8254623413086,136.4327850341797,-95.75857543945312,-90.37657928466797,-91.63555145263672
0.9091942310333252,-6.27373743057251,-83.8254623413086,136.4327850341797,-95.75857543945312,-90.37657928466797,-91.63555145263672
0.9113740921020508,-6.273519515991211,-83.8254623413086,136.4327850341797,-95.75879669189453,-90.37657928466797,-91.63555145263672
0.9136478900909424,-6.273519515991211,-83.8254623413086,136.4327850341797,-95.75879669189453,-90.37657928466797,-91.63555145263672
0.915956974029541,-6.273519515991211,-83.8254623413086,136.4327850341797,-95.75879669189453,-90.37657928466797,-91.63555145263672
0.9181413650512695,-6.273519515991211,-83.8254623413086,136.4327850341797,-95.75879669189453,-90.37657928466797,-91.63555145263672
0.9205541610717773,-6.27373743057251,-83.8254623413086,136.4327850341797,-95.75857543945312,-90.37657928466797,-91.63533020019531
0.9228315353393555,-6.27373743057251,-83.8254623413086,136.4327850341797,-95.75857543945312,-90.37657928466797,-91.63533020019531
0.9250926971435547,-6.27373743057251,-83.8254623413086,136.4327850341797,-95.75857543945312,-90.37657928466797,-91.63533020019531
0.9272639751434326,-6.27373743057251,-83.8254623413086,136.4327850341797,-95.75857543945312,-90.37657928466797,-91.63533020019531
0.9303023815155029,-6.27395486831665,-83.8254623413086,136.4327850341797,-95.75857543945312,-90.37657928466797,-91.63533020019531
0.9324827194213867,-6.27395486831665,-83.8254623413086,136.4327850341797,-95.75857543945312,-90.37657928466797,-91.63533020019531
0.934765100479126,-6.27395486831665,-83.8254623413086,136.4327850341797,-95.75857543945312,-90.37657928466797,-91.63533020019531
0.9370787143707275,-6.27395486831665,-83.8254623413086,136.4327850341797,-95.75857543945312,-90.37657928466797,-91.63533020019531
0.9392726421356201,-6.27395486831665,-83.8254623413086,136.4327850341797,-95.75857543945312,-90.37657928466797,-91.63533020019531
0.9415509700775146,-6.27330207824707,-83.82524871826172,136.43301391601562,-95.75879669189453,-90.37657928466797,-91.63555145263672
0.9438378810882568,-6.27330207824707,-83.82524871826172,136.43301391601562,-95.75879669189453,-90.37657928466797,-91.63555145263672
0.9460859298706055,-6.27330207824707,-83.82524871826172,136.43301391601562,-95.75879669189453,-90.37657928466797,-91.63555145263672
0.9482579231262207,-6.27330207824707,-83.82524871826172,136.43301391601562,-95.75879669189453,-90.37657928466797,-91.63555145263672
0.9505171775817871,-6.27373743057251,-83.8254623413086,136.4327850341797,-95.75857543945312,-90.37657928466797,-91.63555145263672
0.9527134895324707,-6.27373743057251,-83.8254623413086,136.4327850341797,-95.75857543945312,-90.37657928466797,-91.63555145263672
0.9550180435180664,-6.27373743057251,-83.8254623413086,136.4327850341797,-95.75857543945312,-90.37657928466797,-91.63555145263672
0.957202672958374,-6.27373743057251,-83.8254623413086,136.4327850341797,-95.75857543945312,-90.37657928466797,-91.63555145263672
0.9603362083435059,-6.27373743057251,-83.8254623413086,136.4327850341797,-95.75857543945312,-90.37657928466797,-91.63555145263672
0.9625201225280762,-6.27373743057251,-83.8254623413086,136.4327850341797,-95.75857543945312,-90.37657928466797,-91.63555145263672
0.9647855758666992,-6.27373743057251,-83.8254623413086,136.4327850341797,-95.75857543945312,-90.37657928466797,-91.63555145263672
0.9670910835266113,-6.27373743057251,-83.8254623413086,136.4327850341797,-95.75857543945312,-90.37657928466797,-91.63555145263672
0.9702730178833008,-6.27373743057251,-83.82524871826172,136.43301391601562,-95.75857543945312,-90.37657928466797,-91.63555145263672
0.9724421501159668,-6.27373743057251,-83.82524871826172,136.43301391601562,-95.75857543945312,-90.37657928466797,-91.63555145263672
0.9746909141540527,-6.27373743057251,-83.82524871826172,136.43301391601562,-95.75857543945312,-90.37657928466797,-91.63555145263672
0.9769906997680664,-6.27373743057251,-83.82524871826172,136.43301391601562,-95.75857543945312,-90.37657928466797,-91.63555145263672
0.9791889190673828,-6.27373743057251,-83.82524871826172,136.43301391601562,-95.75857543945312,-90.37657928466797,-91.63555145263672
0.9813644886016846,-6.27373743057251,-83.82524871826172,136.4327850341797,-95.75857543945312,-90.37657928466797,-91.63555145263672
0.9836301803588867,-6.27373743057251,-83.82524871826172,136.4327850341797,-95.75857543945312,-90.37657928466797,-91.63555145263672
0.9859414100646973,-6.27373743057251,-83.82524871826172,136.4327850341797,-95.75857543945312,-90.37657928466797,-91.63555145263672
0.9880900382995605,-6.27373743057251,-83.82524871826172,136.4327850341797,-95.75857543945312,-90.37657928466797,-91.63555145263672
0.9904568195343018,-6.27373743057251,-83.82524871826172,136.43301391601562,-95.75857543945312,-90.37680053710938,-91.63555145263672
0.9927511215209961,-6.27373743057251,-83.82524871826172,136.43301391601562,-95.75857543945312,-90.37680053710938,-91.63555145263672
0.9950916767120361,-6.27373743057251,-83.82524871826172,136.43301391601562,-95.75857543945312,-90.37680053710938,-91.63555145263672
0.9972779750823975,-6.27373743057251,-83.82524871826172,136.43301391601562,-95.75857543945312,-90.37680053710938,-91.63555145263672
1.0004332065582275,-6.27373743057251,-83.82524871826172,136.4327850341797,-95.75857543945312,-90.37657928466797,-91.63555145263672
1.0026509761810303,-6.27373743057251,-83.82524871826172,136.4327850341797,-95.75857543945312,-90.37657928466797,-91.63555145263672
1.0048820972442627,-6.27373743057251,-83.82524871826172,136.4327850341797,-95.75857543945312,-90.37657928466797,-91.63555145263672
1.007000207901001,-6.27373743057251,-83.82524871826172,136.4327850341797,-95.75857543945312,-90.37657928466797,-91.63555145263672
1.0091345310211182,-6.27373743057251,-83.82524871826172,136.4327850341797,-95.75857543945312,-90.37657928466797,-91.63555145263672
1.0112526416778564,-6.27373743057251,-83.8254623413086,136.4327850341797,-95.75857543945312,-90.37657928466797,-91.63555145263672
1.0133814811706543,-6.27373743057251,-83.8254623413086,136.4327850341797,-95.75857543945312,-90.37657928466797,-91.63555145263672
1.0155930519104004,-6.27373743057251,-83.8254623413086,136.4327850341797,-95.75857543945312,-90.37657928466797,-91.63555145263672
1.0177843570709229,-6.27373743057251,-83.8254623413086,136.4327850341797,-95.75857543945312,-90.37657928466797,-91.63555145263672
1.0199089050292969,-6.27373743057251,-83.82524871826172,136.4325714111328,-95.75857543945312,-90.37657928466797,-91.63555145263672
1.0220086574554443,-6.27373743057251,-83.82524871826172,136.4325714111328,-95.75857543945312,-90.37657928466797,-91.63555145263672
1.0241248607635498,-6.27373743057251,-83.82524871826172,136.4325714111328,-95.75857543945312,-90.37657928466797,-91.63555145263672
1.0262410640716553,-6.27373743057251,-83.82524871826172,136.4325714111328,-95.75857543945312,-90.37657928466797,-91.63555145263672
1.0283761024475098,-6.27373743057251,-83.82524871826172,136.4325714111328,-95.75857543945312,-90.37657928466797,-91.63555145263672
1.0305523872375488,-6.27373743057251,-83.82524871826172,136.4327850341797,-95.75857543945312,-90.37657928466797,-91.63555145263672
1.0327363014221191,-6.27373743057251,-83.82524871826172,136.4327850341797,-95.75857543945312,-90.37657928466797,-91.63555145263672
1.0349462032318115,-6.27373743057251,-83.82524871826172,136.4327850341797,-95.75857543945312,-90.37657928466797,-91.63555145263672
1.0370571613311768,-6.27373743057251,-83.82524871826172,136.4327850341797,-95.75857543945312,-90.37657928466797,-91.63555145263672
1.0396206378936768,-6.27373743057251,-83.8254623413086,136.43301391601562,-95.75857543945312,-90.37657928466797,-91.63555145263672
1.041806936264038,-6.27373743057251,-83.8254623413086,136.43301391601562,-95.75857543945312,-90.37657928466797,-91.63555145263672
1.044022560119629,-6.27373743057251,-83.8254623413086,136.43301391601562,-95.75857543945312,-90.37657928466797,-91.63555145263672
1.0461442470550537,-6.27373743057251,-83.8254623413086,136.43301391601562,-95.75857543945312,-90.37657928466797,-91.63555145263672
1.0482747554779053,-6.27373743057251,-83.8254623413086,136.43301391601562,-95.75857543945312,-90.37657928466797,-91.63555145263672
1.0505056381225586,-6.27373743057251,-83.8254623413086,136.43301391601562,-95.75879669189453,-90.3763656616211,-91.63555145263672
1.0527682304382324,-6.27373743057251,-83.8254623413086,136.43301391601562,-95.75879669189453,-90.3763656616211,-91.63555145263672
1.0550868511199951,-6.27373743057251,-83.8254623413086,136.43301391601562,-95.75879669189453,-90.3763656616211,-91.63555145263672
1.0572593212127686,-6.27373743057251,-83.8254623413086,136.43301391601562,-95.75879669189453,-90.3763656616211,-91.63555145263672
1.0603420734405518,-6.27373743057251,-83.8254623413086,136.4327850341797,-95.75857543945312,-90.37657928466797,-91.63555145263672
1.0625262260437012,-6.27373743057251,-83.8254623413086,136.4327850341797,-95.75857543945312,-90.37657928466797,-91.63555145263672
1.0648245811462402,-6.27373743057251,-83.8254623413086,136.4327850341797,-95.75857543945312,-90.37657928466797,-91.63555145263672
1.0671110153198242,-6.27373743057251,-83.8254623413086,136.4327850341797,-95.75857543945312,-90.37657928466797,-91.63555145263672
1.0703439712524414,-6.27373743057251,-83.8254623413086,136.4327850341797,-95.75857543945312,-90.37657928466797,-91.63555145263672
1.0726122856140137,-6.27373743057251,-83.8254623413086,136.4327850341797,-95.75857543945312,-90.37657928466797,-91.63555145263672
1.0749361515045166,-6.27373743057251,-83.8254623413086,136.4327850341797,-95.75857543945312,-90.37657928466797,-91.63555145263672
1.0771205425262451,-6.27373743057251,-83.8254623413086,136.4327850341797,-95.75857543945312,-90.37657928466797,-91.63555145263672
1.0803523063659668,-6.27373743057251,-83.82524871826172,136.4327850341797,-95.75857543945312,-90.37657928466797,-91.63555145263672
1.0826210975646973,-6.27373743057251,-83.82524871826172,136.4327850341797,-95.75857543945312,-90.37657928466797,-91.63555145263672
1.0849454402923584,-6.27373743057251,-83.82524871826172,136.4327850341797,-95.75857543945312,-90.37657928466797,-91.63555145263672
1.0870928764343262,-6.27373743057251,-83.82524871826172,136.4327850341797,-95.75857543945312,-90.37657928466797,-91.63555145263672
1.0903520584106445,-6.273519515991211,-83.82524871826172,136.4327850341797,-95.75857543945312,-90.37657928466797,-91.63555145263672
1.0926167964935303,-6.273519515991211,-83.82524871826172,136.4327850341797,-95.75857543945312,-90.37657928466797,-91.63555145263672
1.0949156284332275,-6.273519515991211,-83.82524871826172,136.4327850341797,-95.75857543945312,-90.37657928466797,-91.63555145263672
1.0970892906188965,-6.273519515991211,-83.82524871826172,136.4327850341797,-95.75857543945312,-90.37657928466797,-91.63555145263672
1.100297451019287,-6.273519515991211,-83.8254623413086,136.4327850341797,-95.75857543945312,-90.37657928466797,-91.63555145263672
1.1026732921600342,-6.273519515991211,-83.8254623413086,136.4327850341797,-95.75857543945312,-90.37657928466797,-91.63555145263672
1.1049621105194092,-6.273519515991211,-83.8254623413086,136.4327850341797,-95.75857543945312,-90.37657928466797,-91.63555145263672
1.107146978378296,-6.273519515991211,-83.8254623413086,136.4327850341797,-95.75857543945312,-90.37657928466797,-91.63555145263672
1.1103427410125732,-6.27395486831665,-83.8254623413086,136.4327850341797,-95.75857543945312,-90.37680053710938,-91.63555145263672
1.1125895977020264,-6.27395486831665,-83.8254623413086,136.4327850341797,-95.75857543945312,-90.37680053710938,-91.63555145263672
1.1148905754089355,-6.27395486831665,-83.8254623413086,136.4327850341797,-95.75857543945312,-90.37680053710938,-91.63555145263672
1.117034912109375,-6.27395486831665,-83.8254623413086,136.4327850341797,-95.75857543945312,-90.37680053710938,-91.63555145263672
1.1191856861114502,-6.27395486831665,-83.8254623413086,136.4327850341797,-95.75857543945312,-90.37680053710938,-91.63555145263672
1.121344804763794,-6.27373743057251,-83.82524871826172,136.4327850341797,-95.75857543945312,-90.37657928466797,-91.63533020019531
1.1235840320587158,-6.27373743057251,-83.82524871826172,136.4327850341797,-95.75857543945312,-90.37657928466797,-91.63533020019531
1.1258354187011719,-6.27373743057251,-83.82524871826172,136.4327850341797,-95.75857543945312,-90.37657928466797,-91.63533020019531
1.1280863285064697,-6.27373743057251,-83.82524871826172,136.4327850341797,-95.75857543945312,-90.37657928466797,-91.63533020019531
1.130241870880127,-6.27373743057251,-83.82524871826172,136.4327850341797,-95.75879669189453,-90.3763656616211,-91.63555145263672
1.1324143409729004,-6.27373743057251,-83.82524871826172,136.4327850341797,-95.75879669189453,-90.3763656616211,-91.63555145263672
1.1346666812896729,-6.27373743057251,-83.82524871826172,136.4327850341797,-95.75879669189453,-90.3763656616211,-91.63555145263672
1.1369287967681885,-6.27373743057251,-83.82524871826172,136.4327850341797,-95.75879669189453,-90.3763656616211,-91.63555145263672
1.1391220092773438,-6.27373743057251,-83.82524871826172,136.4327850341797,-95.75879669189453,-90.3763656616211,-91.63555145263672
1.1413087844848633,-6.27373743057251,-83.82524871826172,136.43301391601562,-95.75857543945312,-90.37680053710938,-91.63555145263672
1.143493890762329,-6.27373743057251,-83.82524871826172,136.43301391601562,-95.75857543945312,-90.37680053710938,-91.63555145263672
1.1457960605621338,-6.27373743057251,-83.82524871826172,136.43301391601562,-95.75857543945312,-90.37680053710938,-91.63555145263672
1.148099660873413,-6.27373743057251,-83.82524871826172,136.43301391601562,-95.75857543945312,-90.37680053710938,-91.63555145263672
1.1504645347595215,-6.27373743057251,-83.8254623413086,136.43301391601562,-95.75857543945312,-90.37680053710938,-91.63533020019531
1.1527440547943115,-6.27373743057251,-83.8254623413086,136.43301391601562,-95.75857543945312,-90.37680053710938,-91.63533020019531
1.155059814453125,-6.27373743057251,-83.8254623413086,136.43301391601562,-95.75857543945312,-90.37680053710938,-91.63533020019531
1.1572322845458984,-6.27373743057251,-83.8254623413086,136.43301391601562,-95.75857543945312,-90.37680053710938,-91.63533020019531
1.1602561473846436,-6.27373743057251,-83.8254623413086,136.4327850341797,-95.75857543945312,-90.37680053710938,-91.63533020019531
1.162412405014038,-6.27373743057251,-83.8254623413086,136.4327850341797,-95.75857543945312,-90.37680053710938,-91.63533020019531
1.164663553237915,-6.27373743057251,-83.8254623413086,136.4327850341797,-95.75857543945312,-90.37680053710938,-91.63533020019531
1.1669325828552246,-6.27373743057251,-83.8254623413086,136.4327850341797,-95.75857543945312,-90.37680053710938,-91.63533020019531
1.1690611839294434,-6.27373743057251,-83.8254623413086,136.4327850341797,-95.75857543945312,-90.37680053710938,-91.63533020019531
1.1712157726287842,-6.27373743057251,-83.82524871826172,136.4327850341797,-95.75879669189453,-90.37680053710938,-91.63555145263672
1.173386573791504,-6.27373743057251,-83.82524871826172,136.4327850341797,-95.75879669189453,-90.37680053710938,-91.63555145263672
1.1756536960601807,-6.27373743057251,-83.82524871826172,136.4327850341797,-95.75879669189453,-90.37680053710938,-91.63555145263672
1.1779544353485107,-6.27373743057251,-83.82524871826172,136.4327850341797,-95.75879669189453,-90.37680053710938,-91.63555145263672
1.1803219318389893,-6.27395486831665,-83.8254623413086,136.4327850341797,-95.75857543945312,-90.37657928466797,-91.63555145263672
1.182610273361206,-6.27395486831665,-83.8254623413086,136.4327850341797,-95.75857543945312,-90.37657928466797,-91.63555145263672
1.1849241256713867,-6.27395486831665,-83.8254623413086,136.4327850341797,-95.75857543945312,-90.37657928466797,-91.63555145263672
1.1870956420898438,-6.27395486831665,-83.8254623413086,136.4327850341797,-95.75857543945312,-90.37657928466797,-91.63555145263672
1.1902763843536377,-6.27395486831665,-83.8254623413086,136.4327850341797,-95.75879669189453,-90.37657928466797,-91.63555145263672
1.1924586296081543,-6.27395486831665,-83.8254623413086,136.4327850341797,-95.75879669189453,-90.37657928466797,-91.63555145263672
1.1947505474090576,-6.27395486831665,-83.8254623413086,136.4327850341797,-95.75879669189453,-90.37657928466797,-91.63555145263672
1.197031021118164,-6.27395486831665,-83.8254623413086,136.4327850341797,-95.75879669189453,-90.37657928466797,-91.63555145263672
1.2002642154693604,-6.27373743057251,-83.8254623413086,136.4327850341797,-95.75857543945312,-90.37657928466797,-91.63555145263672
1.2024316787719727,-6.27373743057251,-83.8254623413086,136.4327850341797,-95.75857543945312,-90.37657928466797,-91.63555145263672
1.204700231552124,-6.27373743057251,-83.8254623413086,136.4327850341797,-95.75857543945312,-90.37657928466797,-91.63555145263672
1.2069897651672363,-6.27373743057251,-83.8254623413086,136.4327850341797,-95.75857543945312,-90.37657928466797,-91.63555145263672
1.2091856002807617,-6.27373743057251,-83.8254623413086,136.4327850341797,-95.75857543945312,-90.37657928466797,-91.63555145263672
1.2113621234893799,-6.273519515991211,-83.8254623413086,136.4327850341797,-95.75857543945312,-90.37657928466797,-91.63555145263672
1.2136399745941162,-6.273519515991211,-83.8254623413086,136.4327850341797,-95.75857543945312,-90.37657928466797,-91.63555145263672
1.2158408164978027,-6.273519515991211,-83.8254623413086,136.4327850341797,-95.75857543945312,-90.37657928466797,-91.63555145263672
1.2180330753326416,-6.273519515991211,-83.8254623413086,136.4327850341797,-95.75857543945312,-90.37657928466797,-91.63555145263672
1.220168113708496,-6.27373743057251,-83.8254623413086,136.43301391601562,-95.75857543945312,-90.37657928466797,-91.63555145263672
1.2223193645477295,-6.27373743057251,-83.8254623413086,136.43301391601562,-95.75857543945312,-90.37657928466797,-91.63555145263672
1.2245676517486572,-6.27373743057251,-83.8254623413086,136.43301391601562,-95.75857543945312,-90.37657928466797,-91.63555145263672
1.2268409729003906,-6.27373743057251,-83.8254623413086,136.43301391601562,-95.75857543945312,-90.37657928466797,-91.63555145263672
1.2290923595428467,-6.27373743057251,-83.8254623413086,136.43301391601562,-95.75857543945312,-90.37657928466797,-91.63555145263672
1.231255054473877,-6.273519515991211,-83.82524871826172,136.43344116210938,-95.75836181640625,-90.3763656616211,-91.63555145263672
1.2334234714508057,-6.273519515991211,-83.82524871826172,136.43344116210938,-95.75836181640625,-90.3763656616211,-91.63555145263672
1.2356820106506348,-6.273519515991211,-83.82524871826172,136.43344116210938,-95.75836181640625,-90.3763656616211,-91.63555145263672
1.2380073070526123,-6.273519515991211,-83.82524871826172,136.43344116210938,-95.75836181640625,-90.3763656616211,-91.63555145263672
1.240318775177002,-6.273519515991211,-83.82524871826172,136.43431091308594,-95.75836181640625,-90.37657928466797,-91.63533020019531
1.2425923347473145,-6.273519515991211,-83.82524871826172,136.43431091308594,-95.75836181640625,-90.37657928466797,-91.63533020019531
1.2449054718017578,-6.273519515991211,-83.82524871826172,136.43431091308594,-95.75836181640625,-90.37657928466797,-91.63533020019531
1.2471156120300293,-6.273519515991211,-83.82524871826172,136.43431091308594,-95.75836181640625,-90.37657928466797,-91.63533020019531
1.250286340713501,-6.273519515991211,-83.8254623413086,136.43409729003906,-95.75836181640625,-90.37657928466797,-91.63555145263672
1.2524678707122803,-6.273519515991211,-83.8254623413086,136.43409729003906,-95.75836181640625,-90.37657928466797,-91.63555145263672
1.2547698020935059,-6.273519515991211,-83.8254623413086,136.43409729003906,-95.75836181640625,-90.37657928466797,-91.63555145263672
1.2570781707763672,-6.273519515991211,-83.8254623413086,136.43409729003906,-95.75836181640625,-90.37657928466797,-91.63555145263672
1.2602958679199219,-6.273519515991211,-83.8254623413086,136.43344116210938,-95.75857543945312,-90.37657928466797,-91.63555145263672
1.2624790668487549,-6.273519515991211,-83.8254623413086,136.43344116210938,-95.75857543945312,-90.37657928466797,-91.63555145263672
1.264779806137085,-6.273519515991211,-83.8254623413086,136.43344116210938,-95.75857543945312,-90.37657928466797,-91.63555145263672
1.2670936584472656,-6.273519515991211,-83.8254623413086,136.43344116210938,-95.75857543945312,-90.37657928466797,-91.63555145263672
1.2702984809875488,-6.27373743057251,-83.8254623413086,136.4332275390625,-95.75836181640625,-90.37657928466797,-91.63555145263672
1.272479772567749,-6.27373743057251,-83.8254623413086,136.4332275390625,-95.75836181640625,-90.37657928466797,-91.63555145263672
1.2747743129730225,-6.27373743057251,-83.8254623413086,136.4332275390625,-95.75836181640625,-90.37657928466797,-91.63555145263672
1.2770898342132568,-6.27373743057251,-83.8254623413086,136.4332275390625,-95.75836181640625,-90.37657928466797,-91.63555145263672
1.2792835235595703,-6.27373743057251,-83.8254623413086,136.4332275390625,-95.75836181640625,-90.37657928466797,-91.63555145263672
1.2815818786621094,-6.27373743057251,-83.82524871826172,136.43344116210938,-95.75857543945312,-90.37657928466797,-91.63555145263672
1.2839038372039795,-6.27373743057251,-83.82524871826172,136.43344116210938,-95.75857543945312,-90.37657928466797,-91.63555145263672
1.2860932350158691,-6.27373743057251,-83.82524871826172,136.43344116210938,-95.75857543945312,-90.37657928466797,-91.63555145263672
1.2882792949676514,-6.27373743057251,-83.82524871826172,136.43344116210938,-95.75857543945312,-90.37657928466797,-91.63555145263672
1.2904503345489502,-6.27373743057251,-83.8254623413086,136.43365478515625,-95.75857543945312,-90.37657928466797,-91.63555145263672
1.2927649021148682,-6.27373743057251,-83.8254623413086,136.43365478515625,-95.75857543945312,-90.37657928466797,-91.63555145263672
1.2950379848480225,-6.27373743057251,-83.8254623413086,136.43365478515625,-95.75857543945312,-90.37657928466797,-91.63555145263672
1.2972092628479004,-6.27373743057251,-83.8254623413086,136.43365478515625,-95.75857543945312,-90.37657928466797,-91.63555145263672
1.3002128601074219,-6.27373743057251,-83.8254623413086,136.43365478515625,-95.75857543945312,-90.37657928466797,-91.63555145263672
1.3023881912231445,-6.27373743057251,-83.8254623413086,136.43365478515625,-95.75857543945312,-90.37657928466797,-91.63555145263672
1.304664134979248,-6.27373743057251,-83.8254623413086,136.43365478515625,-95.75857543945312,-90.37657928466797,-91.63555145263672
1.3069806098937988,-6.27373743057251,-83.8254623413086,136.43365478515625,-95.75857543945312,-90.37657928466797,-91.63555145263672
1.3091914653778076,-6.27373743057251,-83.8254623413086,136.43365478515625,-95.75857543945312,-90.37657928466797,-91.63555145263672
1.3113806247711182,-6.27373743057251,-83.8254623413086,136.4332275390625,-95.75879669189453,-90.37657928466797,-91.63533020019531
1.3136613368988037,-6.27373743057251,-83.8254623413086,136.4332275390625,-95.75879669189453,-90.37657928466797,-91.63533020019531
1.315974235534668,-6.27373743057251,-83.8254623413086,136.4332275390625,-95.75879669189453,-90.37657928466797,-91.63533020019531
1.3181581497192383,-6.27373743057251,-83.8254623413086,136.4332275390625,-95.75879669189453,-90.37657928466797,-91.63533020019531
1.32033371925354,-6.27395486831665,-83.82524871826172,136.4332275390625,-95.75879669189453,-90.37657928466797,-91.63555145263672
1.3226187229156494,-6.27395486831665,-83.82524871826172,136.4332275390625,-95.75879669189453,-90.37657928466797,-91.63555145263672
1.3249375820159912,-6.27395486831665,-83.82524871826172,136.4332275390625,-95.75879669189453,-90.37657928466797,-91.63555145263672
1.3270938396453857,-6.27395486831665,-83.82524871826172,136.4332275390625,-95.75879669189453,-90.37657928466797,-91.63555145263672
1.329300880432129,-6.27395486831665,-83.82524871826172,136.4332275390625,-95.75879669189453,-90.37657928466797,-91.63555145263672
1.3315887451171875,-6.27373743057251,-83.8254623413086,136.43344116210938,-95.75857543945312,-90.3763656616211,-91.63555145263672
1.333845853805542,-6.27373743057251,-83.8254623413086,136.43344116210938,-95.75857543945312,-90.3763656616211,-91.63555145263672
1.3360657691955566,-6.27373743057251,-83.8254623413086,136.43344116210938,-95.75857543945312,-90.3763656616211,-91.63555145263672
1.3382508754730225,-6.27373743057251,-83.8254623413086,136.43344116210938,-95.75857543945312,-90.3763656616211,-91.63555145263672
1.3405189514160156,-6.273519515991211,-83.82524871826172,136.43365478515625,-95.75836181640625,-90.37657928466797,-91.63533020019531
1.3428120613098145,-6.273519515991211,-83.82524871826172,136.43365478515625,-95.75836181640625,-90.37657928466797,-91.63533020019531
1.3450870513916016,-6.273519515991211,-83.82524871826172,136.43365478515625,-95.75836181640625,-90.37657928466797,-91.63533020019531
1.3472707271575928,-6.273519515991211,-83.82524871826172,136.43365478515625,-95.75836181640625,-90.37657928466797,-91.63533020019531
1.3503408432006836,-6.27373743057251,-83.82524871826172,136.43365478515625,-95.75857543945312,-90.37657928466797,-91.63555145263672
1.3526067733764648,-6.27373743057251,-83.82524871826172,136.43365478515625,-95.75857543945312,-90.37657928466797,-91.63555145263672
1.3549389839172363,-6.27373743057251,-83.82524871826172,136.43365478515625,-95.75857543945312,-90.37657928466797,-91.63555145263672
1.3570895195007324,-6.27373743057251,-83.82524871826172,136.43365478515625,-95.75857543945312,-90.37657928466797,-91.63555145263672
1.360332727432251,-6.27373743057251,-83.82524871826172,136.43365478515625,-95.75879669189453,-90.37657928466797,-91.63555145263672
1.3626172542572021,-6.27373743057251,-83.82524871826172,136.43365478515625,-95.75879669189453,-90.37657928466797,-91.63555145263672
1.3649365901947021,-6.27373743057251,-83.82524871826172,136.43365478515625,-95.75879669189453,-90.37657928466797,-91.63555145263672
1.3670930862426758,-6.27373743057251,-83.82524871826172,136.43365478515625,-95.75879669189453,-90.37657928466797,-91.63555145263672
1.3703022003173828,-6.27373743057251,-83.82568359375,136.43365478515625,-95.75857543945312,-90.37657928466797,-91.63555145263672
1.3725264072418213,-6.27373743057251,-83.82568359375,136.43365478515625,-95.75857543945312,-90.37657928466797,-91.63555145263672
1.3747360706329346,-6.27373743057251,-83.82568359375,136.43365478515625,-95.75857543945312,-90.37657928466797,-91.63555145263672
1.376962423324585,-6.27373743057251,-83.82568359375,136.43365478515625,-95.75857543945312,-90.37657928466797,-91.63555145263672
1.3790957927703857,-6.27373743057251,-83.82568359375,136.43365478515625,-95.75857543945312,-90.37657928466797,-91.63555145263672
1.381227970123291,-6.27373743057251,-83.8254623413086,136.43344116210938,-95.75857543945312,-90.37657928466797,-91.63533020019531
1.3833603858947754,-6.27373743057251,-83.8254623413086,136.43344116210938,-95.75857543945312,-90.37657928466797,-91.63533020019531
1.3855223655700684,-6.27373743057251,-83.8254623413086,136.43344116210938,-95.75857543945312,-90.37657928466797,-91.63533020019531
1.3877215385437012,-6.27373743057251,-83.8254623413086,136.43344116210938,-95.75857543945312,-90.37657928466797,-91.63533020019531
1.389829397201538,-6.27373743057251,-83.8254623413086,136.43365478515625,-95.75857543945312,-90.37657928466797,-91.63555145263672
1.3919944763183594,-6.27373743057251,-83.8254623413086,136.43365478515625,-95.75857543945312,-90.37657928466797,-91.63555145263672
1.394110918045044,-6.27373743057251,-83.8254623413086,136.43365478515625,-95.75857543945312,-90.37657928466797,-91.63555145263672
1.396228551864624,-6.27373743057251,-83.8254623413086,136.43365478515625,-95.75857543945312,-90.37657928466797,-91.63555145263672
1.3983724117279053,-6.27373743057251,-83.8254623413086,136.43365478515625,-95.75857543945312,-90.37657928466797,-91.63555145263672
1.400573492050171,-6.27373743057251,-83.82524871826172,136.43365478515625,-95.75857543945312,-90.37657928466797,-91.63555145263672
1.4027869701385498,-6.27373743057251,-83.82524871826172,136.43365478515625,-95.75857543945312,-90.37657928466797,-91.63555145263672
1.405113935470581,-6.27373743057251,-83.82524871826172,136.43365478515625,-95.75857543945312,-90.37657928466797,-91.63555145263672
1.4072744846343994,-6.27373743057251,-83.82524871826172,136.43365478515625,-95.75857543945312,-90.37657928466797,-91.63555145263672
1.4104218482971191,-6.27373743057251,-83.82524871826172,136.43344116210938,-95.75857543945312,-90.3763656616211,-91.63555145263672
1.412597417831421,-6.27373743057251,-83.82524871826172,136.43344116210938,-95.75857543945312,-90.3763656616211,-91.63555145263672
1.41481614112854,-6.27373743057251,-83.82524871826172,136.43344116210938,-95.75857543945312,-90.3763656616211,-91.63555145263672
1.4170928001403809,-6.27373743057251,-83.82524871826172,136.43344116210938,-95.75857543945312,-90.3763656616211,-91.63555145263672
1.4200248718261719,-6.27373743057251,-83.8254623413086,136.43344116210938,-95.75857543945312,-90.37657928466797,-91.63555145263672
1.4221768379211426,-6.27373743057251,-83.8254623413086,136.43344116210938,-95.75857543945312,-90.37657928466797,-91.63555145263672
1.4243488311767578,-6.27373743057251,-83.8254623413086,136.43344116210938,-95.75857543945312,-90.37657928466797,-91.63555145263672
1.426523208618164,-6.27373743057251,-83.8254623413086,136.43344116210938,-95.75857543945312,-90.37657928466797,-91.63555145263672
1.428779125213623,-6.27373743057251,-83.8254623413086,136.43344116210938,-95.75857543945312,-90.37657928466797,-91.63555145263672
1.4310996532440186,-6.27395486831665,-83.8254623413086,136.43344116210938,-95.75857543945312,-90.37657928466797,-91.63555145263672
1.4332847595214844,-6.27395486831665,-83.8254623413086,136.43344116210938,-95.75857543945312,-90.37657928466797,-91.63555145263672
1.4354698657989502,-6.27395486831665,-83.8254623413086,136.43344116210938,-95.75857543945312,-90.37657928466797,-91.63555145263672
1.437769889831543,-6.27395486831665,-83.8254623413086,136.43344116210938,-95.75857543945312,-90.37657928466797,-91.63555145263672
1.4404258728027344,-6.27373743057251,-83.82524871826172,136.43344116210938,-95.75857543945312,-90.3763656616211,-91.63555145263672
1.4426898956298828,-6.27373743057251,-83.82524871826172,136.43344116210938,-95.75857543945312,-90.3763656616211,-91.63555145263672
1.444988489151001,-6.27373743057251,-83.82524871826172,136.43344116210938,-95.75857543945312,-90.3763656616211,-91.63555145263672
1.4471724033355713,-6.27373743057251,-83.82524871826172,136.43344116210938,-95.75857543945312,-90.3763656616211,-91.63555145263672
1.450312852859497,-6.27373743057251,-83.82524871826172,136.43344116210938,-95.75857543945312,-90.37657928466797,-91.63555145263672
1.45249605178833,-6.27373743057251,-83.82524871826172,136.43344116210938,-95.75857543945312,-90.37657928466797,-91.63555145263672
1.454789161682129,-6.27373743057251,-83.82524871826172,136.43344116210938,-95.75857543945312,-90.37657928466797,-91.63555145263672
1.4570872783660889,-6.27373743057251,-83.82524871826172,136.43344116210938,-95.75857543945312,-90.37657928466797,-91.63555145263672
1.4603123664855957,-6.273519515991211,-83.82524871826172,136.43365478515625,-95.75857543945312,-90.3763656616211,-91.63555145263672
1.4625158309936523,-6.273519515991211,-83.82524871826172,136.43365478515625,-95.75857543945312,-90.3763656616211,-91.63555145263672
1.4647800922393799,-6.273519515991211,-83.82524871826172,136.43365478515625,-95.75857543945312,-90.3763656616211,-91.63555145263672
1.467101812362671,-6.273519515991211,-83.82524871826172,136.43365478515625,-95.75857543945312,-90.3763656616211,-91.63555145263672
1.4702785015106201,-6.273519515991211,-83.8254623413086,136.43365478515625,-95.75857543945312,-90.37657928466797,-91.63555145263672
1.4724595546722412,-6.273519515991211,-83.8254623413086,136.43365478515625,-95.75857543945312,-90.37657928466797,-91.63555145263672
1.4747600555419922,-6.273519515991211,-83.8254623413086,136.43365478515625,-95.75857543945312,-90.37657928466797,-91.63555145263672
1.4770429134368896,-6.273519515991211,-83.8254623413086,136.43365478515625,-95.75857543945312,-90.37657928466797,-91.63555145263672
1.4802851676940918,-6.27373743057251,-83.82524871826172,136.4338836669922,-95.75836181640625,-90.37657928466797,-91.63533020019531
1.482468605041504,-6.27373743057251,-83.82524871826172,136.4338836669922,-95.75836181640625,-90.37657928466797,-91.63533020019531
1.4847509860992432,-6.27373743057251,-83.82524871826172,136.4338836669922,-95.75836181640625,-90.37657928466797,-91.63533020019531
1.487051010131836,-6.27373743057251,-83.82524871826172,136.4338836669922,-95.75836181640625,-90.37657928466797,-91.63533020019531
1.4902689456939697,-6.273519515991211,-83.8254623413086,136.43431091308594,-95.75836181640625,-90.37657928466797,-91.63555145263672
1.4924538135528564,-6.273519515991211,-83.8254623413086,136.43431091308594,-95.75836181640625,-90.37657928466797,-91.63555145263672
1.494755744934082,-6.273519515991211,-83.8254623413086,136.43431091308594,-95.75836181640625,-90.37657928466797,-91.63555145263672
1.4970698356628418,-6.273519515991211,-83.8254623413086,136.43431091308594,-95.75836181640625,-90.37657928466797,-91.63555145263672
1.5002617835998535,-6.273519515991211,-83.8254623413086,136.43409729003906,-95.75836181640625,-90.37657928466797,-91.63533020019531
1.5024304389953613,-6.273519515991211,-83.8254623413086,136.43409729003906,-95.75836181640625,-90.37657928466797,-91.63533020019531
1.5047175884246826,-6.273519515991211,-83.8254623413086,136.43409729003906,-95.75836181640625,-90.37657928466797,-91.63533020019531
1.5070102214813232,-6.273519515991211,-83.8254623413086,136.43409729003906,-95.75836181640625,-90.37657928466797,-91.63533020019531
1.5092058181762695,-6.273519515991211,-83.8254623413086,136.43409729003906,-95.75836181640625,-90.37657928466797,-91.63533020019531
1.5113861560821533,-6.273519515991211,-83.82524871826172,136.43409729003906,-95.75836181640625,-90.37657928466797,-91.63555145263672
1.5136616230010986,-6.273519515991211,-83.82524871826172,136.43409729003906,-95.75836181640625,-90.37657928466797,-91.63555145263672
1.5158898830413818,-6.273519515991211,-83.82524871826172,136.43409729003906,-95.75836181640625,-90.37657928466797,-91.63555145263672
1.5180881023406982,-6.273519515991211,-83.82524871826172,136.43409729003906,-95.75836181640625,-90.37657928466797,-91.63555145263672
1.5202271938323975,-6.27373743057251,-83.82524871826172,136.4332275390625,-95.75857543945312,-90.37657928466797,-91.63533020019531
1.5223281383514404,-6.27373743057251,-83.82524871826172,136.4332275390625,-95.75857543945312,-90.37657928466797,-91.63533020019531
1.5244190692901611,-6.27373743057251,-83.82524871826172,136.4332275390625,-95.75857543945312,-90.37657928466797,-91.63533020019531
1.5265071392059326,-6.27373743057251,-83.82524871826172,136.4332275390625,-95.75857543945312,-90.37657928466797,-91.63533020019531
1.528594732284546,-6.27373743057251,-83.82524871826172,136.4332275390625,-95.75857543945312,-90.37657928466797,-91.63533020019531
1.5308878421783447,-6.27373743057251,-83.82524871826172,136.4332275390625,-95.75836181640625,-90.37657928466797,-91.63555145263672
1.5330994129180908,-6.27373743057251,-83.82524871826172,136.4332275390625,-95.75836181640625,-90.37657928466797,-91.63555145263672
1.5352931022644043,-6.27373743057251,-83.82524871826172,136.4332275390625,-95.75836181640625,-90.37657928466797,-91.63555145263672
1.5374596118927002,-6.27373743057251,-83.82524871826172,136.4332275390625,-95.75836181640625,-90.37657928466797,-91.63555145263672
1.5400969982147217,-6.27395486831665,-83.82524871826172,136.43301391601562,-95.75836181640625,-90.37657928466797,-91.63555145263672
1.542243242263794,-6.27395486831665,-83.82524871826172,136.43301391601562,-95.75836181640625,-90.37657928466797,-91.63555145263672
1.5444111824035645,-6.27395486831665,-83.82524871826172,136.43301391601562,-95.75836181640625,-90.37657928466797,-91.63555145263672
1.5466973781585693,-6.27395486831665,-83.82524871826172,136.43301391601562,-95.75836181640625,-90.37657928466797,-91.63555145263672
1.5489678382873535,-6.27395486831665,-83.82524871826172,136.43301391601562,-95.75836181640625,-90.37657928466797,-91.63555145263672
1.5511398315429688,-6.27373743057251,-83.82502746582031,136.43344116210938,-95.75836181640625,-90.3763656616211,-91.63555145263672
1.5533242225646973,-6.27373743057251,-83.82502746582031,136.43344116210938,-95.75836181640625,-90.3763656616211,-91.63555145263672
1.5555098056793213,-6.27373743057251,-83.82502746582031,136.43344116210938,-95.75836181640625,-90.3763656616211,-91.63555145263672
1.5577914714813232,-6.27373743057251,-83.82502746582031,136.43344116210938,-95.75836181640625,-90.3763656616211,-91.63555145263672
1.5603704452514648,-6.27395486831665,-83.82524871826172,136.43344116210938,-95.75836181640625,-90.37657928466797,-91.63533020019531
1.5626206398010254,-6.27395486831665,-83.82524871826172,136.43344116210938,-95.75836181640625,-90.37657928466797,-91.63533020019531
1.5649192333221436,-6.27395486831665,-83.82524871826172,136.43344116210938,-95.75836181640625,-90.37657928466797,-91.63533020019531
1.567084789276123,-6.27395486831665,-83.82524871826172,136.43344116210938,-95.75836181640625,-90.37657928466797,-91.63533020019531
1.5701539516448975,-6.27373743057251,-83.82568359375,136.43344116210938,-95.75836181640625,-90.3763656616211,-91.63533020019531
1.5723090171813965,-6.27373743057251,-83.82568359375,136.43344116210938,-95.75836181640625,-90.3763656616211,-91.63533020019531
1.5745677947998047,-6.27373743057251,-83.82568359375,136.43344116210938,-95.75836181640625,-90.3763656616211,-91.63533020019531
1.5768446922302246,-6.27373743057251,-83.82568359375,136.43344116210938,-95.75836181640625,-90.3763656616211,-91.63533020019531
1.5791058540344238,-6.27373743057251,-83.82568359375,136.43344116210938,-95.75836181640625,-90.3763656616211,-91.63533020019531
1.5812797546386719,-6.27373743057251,-83.82524871826172,136.43301391601562,-95.75836181640625,-90.37657928466797,-91.63533020019531
1.5834627151489258,-6.27373743057251,-83.82524871826172,136.43301391601562,-95.75836181640625,-90.37657928466797,-91.63533020019531
1.585749626159668,-6.27373743057251,-83.82524871826172,136.43301391601562,-95.75836181640625,-90.37657928466797,-91.63533020019531
1.5880916118621826,-6.27373743057251,-83.82524871826172,136.43301391601562,-95.75836181640625,-90.37657928466797,-91.63533020019531
1.5904219150543213,-6.27373743057251,-83.82524871826172,136.4332275390625,-95.75857543945312,-90.37657928466797,-91.63555145263672
1.592712640762329,-6.27373743057251,-83.82524871826172,136.4332275390625,-95.75857543945312,-90.37657928466797,-91.63555145263672
1.5949952602386475,-6.27373743057251,-83.82524871826172,136.4332275390625,-95.75857543945312,-90.37657928466797,-91.63555145263672
1.5971813201904297,-6.27373743057251,-83.82524871826172,136.4332275390625,-95.75857543945312,-90.37657928466797,-91.63555145263672
1.6003289222717285,-6.27373743057251,-83.82524871826172,136.43301391601562,-95.75857543945312,-90.37657928466797,-91.63555145263672
1.602586269378662,-6.27373743057251,-83.82524871826172,136.43301391601562,-95.75857543945312,-90.37657928466797,-91.63555145263672
1.6048383712768555,-6.27373743057251,-83.82524871826172,136.43301391601562,-95.75857543945312,-90.37657928466797,-91.63555145263672
1.6070892810821533,-6.27373743057251,-83.82524871826172,136.43301391601562,-95.75857543945312,-90.37657928466797,-91.63555145263672
1.610182762145996,-6.27373743057251,-83.8254623413086,136.43301391601562,-95.75857543945312,-90.37657928466797,-91.63555145263672
1.6123402118682861,-6.27373743057251,-83.8254623413086,136.43301391601562,-95.75857543945312,-90.37657928466797,-91.63555145263672
1.614499807357788,-6.27373743057251,-83.8254623413086,136.43301391601562,-95.75857543945312,-90.37657928466797,-91.63555145263672
1.6167089939117432,-6.27373743057251,-83.8254623413086,136.43301391601562,-95.75857543945312,-90.37657928466797,-91.63555145263672
1.6189110279083252,-6.27373743057251,-83.8254623413086,136.43301391601562,-95.75857543945312,-90.37657928466797,-91.63555145263672
1.6210012435913086,-6.27373743057251,-83.8254623413086,136.4327850341797,-95.75857543945312,-90.37657928466797,-91.63533020019531
1.6231169700622559,-6.27373743057251,-83.8254623413086,136.4327850341797,-95.75857543945312,-90.37657928466797,-91.63533020019531
1.6252424716949463,-6.27373743057251,-83.8254623413086,136.4327850341797,-95.75857543945312,-90.37657928466797,-91.63533020019531
1.6273963451385498,-6.27373743057251,-83.8254623413086,136.4327850341797,-95.75857543945312,-90.37657928466797,-91.63533020019531
1.6301374435424805,-6.27373743057251,-83.82524871826172,136.4325714111328,-95.75879669189453,-90.37680053710938,-91.63555145263672
1.6323072910308838,-6.27373743057251,-83.82524871826172,136.4325714111328,-95.75879669189453,-90.37680053710938,-91.63555145263672
1.6344830989837646,-6.27373743057251,-83.82524871826172,136.4325714111328,-95.75879669189453,-90.37680053710938,-91.63555145263672
1.6367723941802979,-6.27373743057251,-83.82524871826172,136.4325714111328,-95.75879669189453,-90.37680053710938,-91.63555145263672
1.63911771774292,-6.27373743057251,-83.82524871826172,136.4325714111328,-95.75879669189453,-90.37680053710938,-91.63555145263672
1.641303539276123,-6.27373743057251,-83.82524871826172,136.43214416503906,-95.75879669189453,-90.37657928466797,-91.63533020019531
1.6434800624847412,-6.27373743057251,-83.82524871826172,136.43214416503906,-95.75879669189453,-90.37657928466797,-91.63533020019531
1.6457772254943848,-6.27373743057251,-83.82524871826172,136.43214416503906,-95.75879669189453,-90.37657928466797,-91.63533020019531
1.648104190826416,-6.27373743057251,-83.82524871826172,136.43214416503906,-95.75879669189453,-90.37657928466797,-91.63533020019531
1.6504051685333252,-6.27373743057251,-83.82524871826172,136.43214416503906,-95.75857543945312,-90.37657928466797,-91.63533020019531
1.6526856422424316,-6.27373743057251,-83.82524871826172,136.43214416503906,-95.75857543945312,-90.37657928466797,-91.63533020019531
1.654987096786499,-6.27373743057251,-83.82524871826172,136.43214416503906,-95.75857543945312,-90.37657928466797,-91.63533020019531
1.6571497917175293,-6.27373743057251,-83.82524871826172,136.43214416503906,-95.75857543945312,-90.37657928466797,-91.63533020019531
1.6600146293640137,-6.27373743057251,-83.82524871826172,136.43170166015625,-95.75857543945312,-90.37657928466797,-91.63555145263672
1.6621546745300293,-6.27373743057251,-83.82524871826172,136.43170166015625,-95.75857543945312,-90.37657928466797,-91.63555145263672
1.6643078327178955,-6.27373743057251,-83.82524871826172,136.43170166015625,-95.75857543945312,-90.37657928466797,-91.63555145263672
1.6664831638336182,-6.27373743057251,-83.82524871826172,136.43170166015625,-95.75857543945312,-90.37657928466797,-91.63555145263672
1.6687617301940918,-6.27373743057251,-83.82524871826172,136.43170166015625,-95.75857543945312,-90.37657928466797,-91.63555145263672
1.6710636615753174,-6.27373743057251,-83.82524871826172,136.43148803710938,-95.75857543945312,-90.37657928466797,-91.63555145263672
1.6732711791992188,-6.27373743057251,-83.82524871826172,136.43148803710938,-95.75857543945312,-90.37657928466797,-91.63555145263672
1.6754565238952637,-6.27373743057251,-83.82524871826172,136.43148803710938,-95.75857543945312,-90.37657928466797,-91.63555145263672
1.6777489185333252,-6.27373743057251,-83.82524871826172,136.43148803710938,-95.75857543945312,-90.37657928466797,-91.63555145263672
1.6803853511810303,-6.27373743057251,-83.8254623413086,136.4312744140625,-95.75857543945312,-90.37657928466797,-91.63555145263672
1.6826741695404053,-6.27373743057251,-83.8254623413086,136.4312744140625,-95.75857543945312,-90.37657928466797,-91.63555145263672
1.6849956512451172,-6.27373743057251,-83.8254623413086,136.4312744140625,-95.75857543945312,-90.37657928466797,-91.63555145263672
1.6871802806854248,-6.27373743057251,-83.8254623413086,136.4312744140625,-95.75857543945312,-90.37657928466797,-91.63555145263672
1.6902916431427002,-6.27373743057251,-83.8254623413086,136.43104553222656,-95.75879669189453,-90.37657928466797,-91.63555145263672
1.6924762725830078,-6.27373743057251,-83.8254623413086,136.43104553222656,-95.75879669189453,-90.37657928466797,-91.63555145263672
1.6947760581970215,-6.27373743057251,-83.8254623413086,136.43104553222656,-95.75879669189453,-90.37657928466797,-91.63555145263672
1.6970889568328857,-6.27373743057251,-83.8254623413086,136.43104553222656,-95.75879669189453,-90.37657928466797,-91.63555145263672
1.700279712677002,-6.27373743057251,-83.8254623413086,136.43104553222656,-95.75857543945312,-90.3763656616211,-91.63555145263672
1.7024636268615723,-6.27373743057251,-83.8254623413086,136.43104553222656,-95.75857543945312,-90.3763656616211,-91.63555145263672
1.7047460079193115,-6.27373743057251,-83.8254623413086,136.43104553222656,-95.75857543945312,-90.3763656616211,-91.63555145263672
1.7070274353027344,-6.27373743057251,-83.8254623413086,136.43104553222656,-95.75857543945312,-90.3763656616211,-91.63555145263672
1.7102503776550293,-6.27373743057251,-83.8254623413086,136.4308319091797,-95.75879669189453,-90.37657928466797,-91.63555145263672
1.7124335765838623,-6.27373743057251,-83.8254623413086,136.4308319091797,-95.75879669189453,-90.37657928466797,-91.63555145263672
1.7147271633148193,-6.27373743057251,-83.8254623413086,136.4308319091797,-95.75879669189453,-90.37657928466797,-91.63555145263672
1.7170639038085938,-6.27373743057251,-83.8254623413086,136.4308319091797,-95.75879669189453,-90.37657928466797,-91.63555145263672
1.7203123569488525,-6.27373743057251,-83.82568359375,136.43040466308594,-95.75879669189453,-90.37657928466797,-91.63555145263672
1.722583293914795,-6.27373743057251,-83.82568359375,136.43040466308594,-95.75879669189453,-90.37657928466797,-91.63555145263672
1.7249059677124023,-6.27373743057251,-83.82568359375,136.43040466308594,-95.75879669189453,-90.37657928466797,-91.63555145263672
1.7270879745483398,-6.27373743057251,-83.82568359375,136.43040466308594,-95.75879669189453,-90.37657928466797,-91.63555145263672
1.7302894592285156,-6.273519515991211,-83.82568359375,136.42996215820312,-95.7590103149414,-90.37657928466797,-91.63555145263672
1.7324740886688232,-6.273519515991211,-83.82568359375,136.42996215820312,-95.7590103149414,-90.37657928466797,-91.63555145263672
1.7347700595855713,-6.273519515991211,-83.82568359375,136.42996215820312,-95.7590103149414,-90.37657928466797,-91.63555145263672
1.7370820045471191,-6.273519515991211,-83.82568359375,136.42996215820312,-95.7590103149414,-90.37657928466797,-91.63555145263672
1.7403128147125244,-6.273519515991211,-83.8254623413086,136.42930603027344,-95.75879669189453,-90.3763656616211,-91.63555145263672
1.7425878047943115,-6.273519515991211,-83.8254623413086,136.42930603027344,-95.75879669189453,-90.3763656616211,-91.63555145263672
1.7448768615722656,-6.273519515991211,-83.8254623413086,136.42930603027344,-95.75879669189453,-90.3763656616211,-91.63555145263672
1.747107982635498,-6.273519515991211,-83.8254623413086,136.42930603027344,-95.75879669189453,-90.3763656616211,-91.63555145263672
1.7502877712249756,-6.27373743057251,-83.82568359375,136.42930603027344,-95.75879669189453,-90.37657928466797,-91.63555145263672
1.7524728775024414,-6.27373743057251,-83.82568359375,136.42930603027344,-95.75879669189453,-90.37657928466797,-91.63555145263672
1.7547776699066162,-6.27373743057251,-83.82568359375,136.42930603027344,-95.75879669189453,-90.37657928466797,-91.63555145263672
1.7570865154266357,-6.27373743057251,-83.82568359375,136.42930603027344,-95.75879669189453,-90.37657928466797,-91.63555145263672
1.7602484226226807,-6.27330207824707,-83.82568359375,136.4288787841797,-95.75879669189453,-90.3763656616211,-91.63555145263672
1.7624385356903076,-6.27330207824707,-83.82568359375,136.4288787841797,-95.75879669189453,-90.3763656616211,-91.63555145263672
1.7647106647491455,-6.27330207824707,-83.82568359375,136.4288787841797,-95.75879669189453,-90.3763656616211,-91.63555145263672
1.7670104503631592,-6.27330207824707,-83.82568359375,136.4288787841797,-95.75879669189453,-90.3763656616211,-91.63555145263672
1.7701091766357422,-6.273519515991211,-83.82568359375,136.4286651611328,-95.75923156738281,-90.37657928466797,-91.63533020019531
1.7722625732421875,-6.273519515991211,-83.82568359375,136.4286651611328,-95.75923156738281,-90.37657928466797,-91.63533020019531
