Ultramotiv/Mauris-Progress-/All_other_stuff/dmp_trial7.csv
timestamp,joint1,joint2,joint3,joint4,joint5,joint6
9.632110595703125e-05,-6.26285982131958,-82.64437866210938,135.0689697265625,-95.041748046875,-90.61676025390625,-91.637939453125
0.002274036407470703,-6.263077259063721,-82.6441650390625,135.06918334960938,-95.041748046875,-90.61676025390625,-91.637939453125
0.004477500915527344,-6.263077259063721,-82.6441650390625,135.06918334960938,-95.041748046875,-90.61676025390625,-91.637939453125
0.00677800178527832,-6.263077259063721,-82.6441650390625,135.06918334960938,-95.041748046875,-90.61676025390625,-91.637939453125
0.009198904037475586,-6.263077259063721,-82.6441650390625,135.06918334960938,-95.041748046875,-90.61676025390625,-91.637939453125
0.011545181274414062,-6.26285982131958,-82.6441650390625,135.0689697265625,-95.0415267944336,-90.61676025390625,-91.637939453125
0.013746500015258789,-6.26285982131958,-82.6441650390625,135.0689697265625,-95.0415267944336,-90.61676025390625,-91.637939453125
0.015956640243530273,-6.26285982131958,-82.6441650390625,135.0689697265625,-95.0415267944336,-90.61676025390625,-91.637939453125
0.018201351165771484,-6.26285982131958,-82.6441650390625,135.0689697265625,-95.0415267944336,-90.61676025390625,-91.637939453125
0.020333290100097656,-6.26285982131958,-82.6441650390625,135.0689697265625,-95.0415267944336,-90.61676025390625,-91.637939453125
0.022482633590698242,-6.263077259063721,-82.64437866210938,135.0689697265625,-95.041748046875,-90.61676025390625,-91.63772583007812
0.02462458610534668,-6.263077259063721,-82.64437866210938,135.0689697265625,-95.041748046875,-90.61676025390625,-91.63772583007812
0.026854515075683594,-6.263077259063721,-82.64437866210938,135.0689697265625,-95.041748046875,-90.61676025390625,-91.63772583007812
0.029000520706176758,-6.263077259063721,-82.64437866210938,135.0689697265625,-95.041748046875,-90.61676025390625,-91.63772583007812
0.03206133842468262,-6.26285982131958,-82.6441650390625,135.06918334960938,-95.0415267944336,-90.61676025390625,-91.637939453125
0.03431963920593262,-6.26285982131958,-82.6441650390625,135.06918334960938,-95.0415267944336,-90.61676025390625,-91.637939453125
0.0364835262298584,-6.26285982131958,-82.6441650390625,135.06918334960938,-95.0415267944336,-90.61676025390625,-91.637939453125
0.03871321678161621,-6.26285982131958,-82.6441650390625,135.06918334960938,-95.0415267944336,-90.61676025390625,-91.637939453125
0.04199337959289551,-6.26285982131958,-82.6441650390625,135.0689697265625,-95.0415267944336,-90.61676025390625,-91.637939453125
0.04415607452392578,-6.26285982131958,-82.6441650390625,135.0689697265625,-95.0415267944336,-90.61676025390625,-91.637939453125
0.04632878303527832,-6.26285982131958,-82.6441650390625,135.0689697265625,-95.0415267944336,-90.61676025390625,-91.637939453125
0.04850602149963379,-6.26285982131958,-82.6441650390625,135.0689697265625,-95.0415267944336,-90.61676025390625,-91.637939453125
0.05191779136657715,-6.263077259063721,-82.6441650390625,135.0689697265625,-95.041748046875,-90.61653900146484,-91.63772583007812
0.05410027503967285,-6.263077259063721,-82.6441650390625,135.0689697265625,-95.041748046875,-90.61653900146484,-91.63772583007812
0.05628705024719238,-6.263077259063721,-82.6441650390625,135.0689697265625,-95.041748046875,-90.61653900146484,-91.63772583007812
0.05847501754760742,-6.263077259063721,-82.6441650390625,135.0689697265625,-95.041748046875,-90.61653900146484,-91.63772583007812
0.060701608657836914,-6.263077259063721,-82.6441650390625,135.0689697265625,-95.041748046875,-90.61653900146484,-91.63772583007812
0.06298995018005371,-6.26285982131958,-82.64437866210938,135.0689697265625,-95.041748046875,-90.61676025390625,-91.637939453125
0.06516432762145996,-6.26285982131958,-82.64437866210938,135.0689697265625,-95.041748046875,-90.61676025390625,-91.637939453125
0.06733822822570801,-6.26285982131958,-82.64437866210938,135.0689697265625,-95.041748046875,-90.61676025390625,-91.637939453125
0.06952404975891113,-6.26285982131958,-82.64437866210938,135.0689697265625,-95.041748046875,-90.61676025390625,-91.637939453125
0.0719308853149414,-6.26285982131958,-82.6441650390625,135.0689697265625,-95.041748046875,-90.61676025390625,-91.637939453125
0.07413291931152344,-6.26285982131958,-82.6441650390625,135.0689697265625,-95.041748046875,-90.61676025390625,-91.637939453125
0.07631969451904297,-6.26285982131958,-82.6441650390625,135.0689697265625,-95.041748046875,-90.61676025390625,-91.637939453125
0.0785062313079834,-6.26285982131958,-82.6441650390625,135.0689697265625,-95.041748046875,-90.61676025390625,-91.637939453125
0.08075594902038574,-6.26285982131958,-82.6441650390625,135.0689697265625,-95.041748046875,-90.61676025390625,-91.637939453125
0.08301353454589844,-6.26285982131958,-82.64437866210938,135.06918334960938,-95.041748046875,-90.61676025390625,-91.63772583007812
0.08516263961791992,-6.26285982131958,-82.64437866210938,135.06918334960938,-95.041748046875,-90.61676025390625,-91.63772583007812
0.08731794357299805,-6.26285982131958,-82.64437866210938,135.06918334960938,-95.041748046875,-90.61676025390625,-91.63772583007812
0.0894932746887207,-6.26285982131958,-82.64437866210938,135.06918334960938,-95.041748046875,-90.61676025390625,-91.63772583007812
0.0918574333190918,-6.263077259063721,-82.64437866210938,135.06918334960938,-95.0415267944336,-90.61676025390625,-91.637939453125
0.0941166877746582,-6.263077259063721,-82.64437866210938,135.06918334960938,-95.0415267944336,-90.61676025390625,-91.637939453125
0.09628939628601074,-6.263077259063721,-82.64437866210938,135.06918334960938,-95.0415267944336,-90.61676025390625,-91.637939453125
0.0984659194946289,-6.263077259063721,-82.64437866210938,135.06918334960938,-95.0415267944336,-90.61676025390625,-91.637939453125
0.10074448585510254,-6.263077259063721,-82.64437866210938,135.06918334960938,-95.0415267944336,-90.61676025390625,-91.637939453125
0.10304403305053711,-6.26285982131958,-82.6441650390625,135.06918334960938,-95.041748046875,-90.61697387695312,-91.637939453125
0.10522937774658203,-6.26285982131958,-82.6441650390625,135.06918334960938,-95.041748046875,-90.61697387695312,-91.637939453125
0.10741662979125977,-6.26285982131958,-82.6441650390625,135.06918334960938,-95.041748046875,-90.61697387695312,-91.637939453125
0.10959911346435547,-6.26285982131958,-82.6441650390625,135.06918334960938,-95.041748046875,-90.61697387695312,-91.637939453125
0.11186981201171875,-6.26285982131958,-82.6441650390625,135.06918334960938,-95.0415267944336,-90.61676025390625,-91.637939453125
0.11408567428588867,-6.26285982131958,-82.6441650390625,135.06918334960938,-95.0415267944336,-90.61676025390625,-91.637939453125
0.11625957489013672,-6.26285982131958,-82.6441650390625,135.06918334960938,-95.0415267944336,-90.61676025390625,-91.637939453125
0.11843752861022949,-6.26285982131958,-82.6441650390625,135.06918334960938,-95.0415267944336,-90.61676025390625,-91.637939453125
0.12073659896850586,-6.26285982131958,-82.6441650390625,135.06918334960938,-95.0415267944336,-90.61676025390625,-91.637939453125
0.12302780151367188,-6.26285982131958,-82.6441650390625,135.06918334960938,-95.0415267944336,-90.61676025390625,-91.637939453125
0.1252121925354004,-6.26285982131958,-82.6441650390625,135.06918334960938,-95.0415267944336,-90.61676025390625,-91.637939453125
0.12739968299865723,-6.26285982131958,-82.6441650390625,135.06918334960938,-95.0415267944336,-90.61676025390625,-91.637939453125
0.12970185279846191,-6.26285982131958,-82.6441650390625,135.06918334960938,-95.0415267944336,-90.61676025390625,-91.637939453125
0.1321253776550293,-6.262641906738281,-82.64437866210938,135.06918334960938,-95.041748046875,-90.61676025390625,-91.63772583007812
0.134291410446167,-6.262641906738281,-82.64437866210938,135.06918334960938,-95.041748046875,-90.61676025390625,-91.63772583007812
0.13646841049194336,-6.262641906738281,-82.64437866210938,135.06918334960938,-95.041748046875,-90.61676025390625,-91.63772583007812
0.13875889778137207,-6.262641906738281,-82.64437866210938,135.06918334960938,-95.041748046875,-90.61676025390625,-91.63772583007812
0.14198827743530273,-6.26285982131958,-82.64437866210938,135.06918334960938,-95.041748046875,-90.61676025390625,-91.63772583007812
0.1441330909729004,-6.26285982131958,-82.64437866210938,135.06918334960938,-95.041748046875,-90.61676025390625,-91.63772583007812
0.14630532264709473,-6.26285982131958,-82.64437866210938,135.06918334960938,-95.041748046875,-90.61676025390625,-91.63772583007812
0.14848542213439941,-6.26285982131958,-82.64437866210938,135.06918334960938,-95.041748046875,-90.61676025390625,-91.63772583007812
0.15077424049377441,-6.26285982131958,-82.64437866210938,135.06918334960938,-95.041748046875,-90.61676025390625,-91.63772583007812
0.15305805206298828,-6.26285982131958,-82.6441650390625,135.06918334960938,-95.041748046875,-90.61676025390625,-91.637939453125
0.15524506568908691,-6.26285982131958,-82.6441650390625,135.06918334960938,-95.041748046875,-90.61676025390625,-91.637939453125
0.15743350982666016,-6.26285982131958,-82.6441650390625,135.06918334960938,-95.041748046875,-90.61676025390625,-91.637939453125
0.15973377227783203,-6.26285982131958,-82.6441650390625,135.06918334960938,-95.041748046875,-90.61676025390625,-91.637939453125
0.16199564933776855,-6.26285982131958,-82.64437866210938,135.0689697265625,-95.0415267944336,-90.61697387695312,-91.63772583007812
0.16418194770812988,-6.26285982131958,-82.64437866210938,135.0689697265625,-95.0415267944336,-90.61697387695312,-91.63772583007812
0.16636180877685547,-6.26285982131958,-82.64437866210938,135.0689697265625,-95.0415267944336,-90.61697387695312,-91.63772583007812
0.16864848136901855,-6.26285982131958,-82.64437866210938,135.0689697265625,-95.0415267944336,-90.61697387695312,-91.63772583007812
0.1719529628753662,-6.26285982131958,-82.64437866210938,135.0689697265625,-95.041748046875,-90.61676025390625,-91.63772583007812
0.1741197109222412,-6.26285982131958,-82.64437866210938,135.0689697265625,-95.041748046875,-90.61676025390625,-91.63772583007812
0.1762700080871582,-6.26285982131958,-82.64437866210938,135.0689697265625,-95.041748046875,-90.61676025390625,-91.63772583007812
0.17842483520507812,-6.26285982131958,-82.64437866210938,135.0689697265625,-95.041748046875,-90.61676025390625,-91.63772583007812
0.18070363998413086,-6.26285982131958,-82.64437866210938,135.0689697265625,-95.041748046875,-90.61676025390625,-91.63772583007812
0.1829686164855957,-6.263077259063721,-82.64437866210938,135.0689697265625,-95.041748046875,-90.61697387695312,-91.637939453125
0.18514680862426758,-6.263077259063721,-82.64437866210938,135.0689697265625,-95.041748046875,-90.61697387695312,-91.637939453125
0.18732237815856934,-6.263077259063721,-82.64437866210938,135.0689697265625,-95.041748046875,-90.61697387695312,-91.637939453125
0.1894974708557129,-6.263077259063721,-82.64437866210938,135.0689697265625,-95.041748046875,-90.61697387695312,-91.637939453125
0.19173812866210938,-6.26285982131958,-82.64437866210938,135.0689697265625,-95.0415267944336,-90.61676025390625,-91.637939453125
0.1940298080444336,-6.26285982131958,-82.64437866210938,135.0689697265625,-95.0415267944336,-90.61676025390625,-91.637939453125
0.19621658325195312,-6.26285982131958,-82.64437866210938,135.0689697265625,-95.0415267944336,-90.61676025390625,-91.637939453125
0.19840312004089355,-6.26285982131958,-82.64437866210938,135.0689697265625,-95.0415267944336,-90.61676025390625,-91.637939453125
0.20070910453796387,-6.26285982131958,-82.64437866210938,135.0689697265625,-95.0415267944336,-90.61676025390625,-91.637939453125
0.2030043601989746,-6.262641906738281,-82.6441650390625,135.0689697265625,-95.0415267944336,-90.61676025390625,-91.637939453125
0.20520877838134766,-6.262641906738281,-82.6441650390625,135.0689697265625,-95.0415267944336,-90.61676025390625,-91.637939453125
0.2073960304260254,-6.262641906738281,-82.6441650390625,135.0689697265625,-95.0415267944336,-90.61676025390625,-91.637939453125
0.20968317985534668,-6.262641906738281,-82.6441650390625,135.0689697265625,-95.0415267944336,-90.61676025390625,-91.637939453125
0.21194195747375488,-6.26285982131958,-82.64437866210938,135.0689697265625,-95.041748046875,-90.61697387695312,-91.637939453125
0.21413326263427734,-6.26285982131958,-82.64437866210938,135.0689697265625,-95.041748046875,-90.61697387695312,-91.637939453125
0.21632003784179688,-6.26285982131958,-82.64437866210938,135.0689697265625,-95.041748046875,-90.61697387695312,-91.637939453125
0.2185068130493164,-6.26285982131958,-82.64437866210938,135.0689697265625,-95.041748046875,-90.61697387695312,-91.637939453125
0.22078871726989746,-6.26285982131958,-82.64437866210938,135.0689697265625,-95.041748046875,-90.61697387695312,-91.637939453125
0.2230844497680664,-6.26285982131958,-82.6441650390625,135.0689697265625,-95.0415267944336,-90.61653900146484,-91.637939453125
0.22526311874389648,-6.26285982131958,-82.6441650390625,135.0689697265625,-95.0415267944336,-90.61653900146484,-91.637939453125
0.22744226455688477,-6.26285982131958,-82.6441650390625,135.0689697265625,-95.0415267944336,-90.61653900146484,-91.637939453125
0.2297379970550537,-6.26285982131958,-82.6441650390625,135.0689697265625,-95.0415267944336,-90.61653900146484,-91.637939453125
0.23199248313903809,-6.26285982131958,-82.64459991455078,135.0689697265625,-95.041748046875,-90.61676025390625,-91.637939453125
0.23416662216186523,-6.26285982131958,-82.64459991455078,135.0689697265625,-95.041748046875,-90.61676025390625,-91.637939453125
0.23635220527648926,-6.26285982131958,-82.64459991455078,135.0689697265625,-95.041748046875,-90.61676025390625,-91.637939453125
0.23864436149597168,-6.26285982131958,-82.64459991455078,135.0689697265625,-95.041748046875,-90.61676025390625,-91.637939453125
0.24202942848205566,-6.26285982131958,-82.64437866210938,135.06918334960938,-95.0415267944336,-90.61653900146484,-91.637939453125
0.24419474601745605,-6.26285982131958,-82.64437866210938,135.06918334960938,-95.0415267944336,-90.61653900146484,-91.637939453125
0.246368408203125,-6.26285982131958,-82.64437866210938,135.06918334960938,-95.0415267944336,-90.61653900146484,-91.637939453125
0.2486560344696045,-6.26285982131958,-82.64437866210938,135.06918334960938,-95.0415267944336,-90.61653900146484,-91.637939453125
0.2518737316131592,-6.26285982131958,-82.64437866210938,135.06918334960938,-95.041748046875,-90.61676025390625,-91.63772583007812
0.2540860176086426,-6.26285982131958,-82.64437866210938,135.06918334960938,-95.041748046875,-90.61676025390625,-91.63772583007812
0.25624823570251465,-6.26285982131958,-82.64437866210938,135.06918334960938,-95.041748046875,-90.61676025390625,-91.63772583007812
0.2584269046783447,-6.26285982131958,-82.64437866210938,135.06918334960938,-95.041748046875,-90.61676025390625,-91.63772583007812
0.260714054107666,-6.26285982131958,-82.64437866210938,135.06918334960938,-95.041748046875,-90.61676025390625,-91.63772583007812
0.26300644874572754,-6.26285982131958,-82.64437866210938,135.06918334960938,-95.041748046875,-90.61676025390625,-91.63772583007812
0.265181303024292,-6.26285982131958,-82.64437866210938,135.06918334960938,-95.041748046875,-90.61676025390625,-91.63772583007812
0.2673673629760742,-6.26285982131958,-82.64437866210938,135.06918334960938,-95.041748046875,-90.61676025390625,-91.63772583007812
0.26967954635620117,-6.26285982131958,-82.64437866210938,135.06918334960938,-95.041748046875,-90.61676025390625,-91.63772583007812
0.2719414234161377,-6.263077259063721,-82.6441650390625,135.0689697265625,-95.041748046875,-90.61676025390625,-91.637939453125
0.2741215229034424,-6.263077259063721,-82.6441650390625,135.0689697265625,-95.041748046875,-90.61676025390625,-91.637939453125
0.27631187438964844,-6.263077259063721,-82.6441650390625,135.0689697265625,-95.041748046875,-90.61676025390625,-91.637939453125
0.2784900665283203,-6.263077259063721,-82.6441650390625,135.0689697265625,-95.041748046875,-90.61676025390625,-91.637939453125
0.2807426452636719,-6.263077259063721,-82.6441650390625,135.0689697265625,-95.041748046875,-90.61676025390625,-91.637939453125
0.2830162048339844,-6.26285982131958,-82.64437866210938,135.06918334960938,-95.041748046875,-90.61676025390625,-91.63772583007812
0.2852005958557129,-6.26285982131958,-82.64437866210938,135.06918334960938,-95.041748046875,-90.61676025390625,-91.63772583007812
0.2873878479003906,-6.26285982131958,-82.64437866210938,135.06918334960938,-95.041748046875,-90.61676025390625,-91.63772583007812
0.2896857261657715,-6.26285982131958,-82.64437866210938,135.06918334960938,-95.041748046875,-90.61676025390625,-91.63772583007812
0.2919433116912842,-6.26285982131958,-82.6441650390625,135.0689697265625,-95.041748046875,-90.61697387695312,-91.63772583007812
0.2941286563873291,-6.26285982131958,-82.6441650390625,135.0689697265625,-95.041748046875,-90.61697387695312,-91.63772583007812
0.29630279541015625,-6.26285982131958,-82.6441650390625,135.0689697265625,-95.041748046875,-90.61697387695312,-91.63772583007812
0.2984805107116699,-6.26285982131958,-82.6441650390625,135.0689697265625,-95.041748046875,-90.61697387695312,-91.63772583007812
0.3007619380950928,-6.26285982131958,-82.6441650390625,135.0689697265625,-95.041748046875,-90.61697387695312,-91.63772583007812
0.3030369281768799,-6.26285982131958,-82.6441650390625,135.06918334960938,-95.041748046875,-90.61676025390625,-91.637939453125
0.3052093982696533,-6.26285982131958,-82.6441650390625,135.06918334960938,-95.041748046875,-90.61676025390625,-91.637939453125
0.30739641189575195,-6.26285982131958,-82.6441650390625,135.06918334960938,-95.041748046875,-90.61676025390625,-91.637939453125
0.30971384048461914,-6.26285982131958,-82.6441650390625,135.06918334960938,-95.041748046875,-90.61676025390625,-91.637939453125
0.31215810775756836,-6.26285982131958,-82.64437866210938,135.0689697265625,-95.0415267944336,-90.61676025390625,-91.63772583007812
0.31432461738586426,-6.26285982131958,-82.64437866210938,135.0689697265625,-95.0415267944336,-90.61676025390625,-91.63772583007812
0.31653428077697754,-6.26285982131958,-82.64437866210938,135.0689697265625,-95.0415267944336,-90.61676025390625,-91.63772583007812
0.31870198249816895,-6.26285982131958,-82.64437866210938,135.0689697265625,-95.0415267944336,-90.61676025390625,-91.63772583007812
0.32138681411743164,-6.26285982131958,-82.6441650390625,135.0689697265625,-95.041748046875,-90.61676025390625,-91.637939453125
0.3235776424407959,-6.26285982131958,-82.6441650390625,135.0689697265625,-95.041748046875,-90.61676025390625,-91.637939453125
0.3257436752319336,-6.26285982131958,-82.6441650390625,135.0689697265625,-95.041748046875,-90.61676025390625,-91.637939453125
0.32791996002197266,-6.26285982131958,-82.6441650390625,135.0689697265625,-95.041748046875,-90.61676025390625,-91.637939453125
0.33006763458251953,-6.26285982131958,-82.6441650390625,135.0689697265625,-95.041748046875,-90.61676025390625,-91.637939453125
0.33217477798461914,-6.26285982131958,-82.64437866210938,135.06918334960938,-95.0415267944336,-90.61697387695312,-91.637939453125
0.334301233291626,-6.26285982131958,-82.64437866210938,135.06918334960938,-95.0415267944336,-90.61697387695312,-91.637939453125
0.3364903926849365,-6.26285982131958,-82.64437866210938,135.06918334960938,-95.0415267944336,-90.61697387695312,-91.637939453125
0.33870625495910645,-6.26285982131958,-82.64437866210938,135.06918334960938,-95.0415267944336,-90.61697387695312,-91.637939453125
0.34145355224609375,-6.26285982131958,-82.6441650390625,135.0689697265625,-95.0415267944336,-90.61676025390625,-91.63772583007812
0.3436710834503174,-6.26285982131958,-82.6441650390625,135.0689697265625,-95.0415267944336,-90.61676025390625,-91.63772583007812
0.3459458351135254,-6.26285982131958,-82.6441650390625,135.0689697265625,-95.0415267944336,-90.61676025390625,-91.63772583007812
0.3481588363647461,-6.26285982131958,-82.6441650390625,135.0689697265625,-95.0415267944336,-90.61676025390625,-91.63772583007812
0.35036563873291016,-6.26285982131958,-82.6441650390625,135.0689697265625,-95.0415267944336,-90.61676025390625,-91.63772583007812
0.35267066955566406,-6.26285982131958,-82.64437866210938,135.06918334960938,-95.0415267944336,-90.61676025390625,-91.637939453125
0.3549647331237793,-6.26285982131958,-82.64437866210938,135.06918334960938,-95.0415267944336,-90.61676025390625,-91.637939453125
0.35712170600891113,-6.26285982131958,-82.64437866210938,135.06918334960938,-95.0415267944336,-90.61676025390625,-91.637939453125
0.35930871963500977,-6.26285982131958,-82.64437866210938,135.06918334960938,-95.0415267944336,-90.61676025390625,-91.637939453125
0.3619570732116699,-6.26285982131958,-82.64437866210938,135.0689697265625,-95.041748046875,-90.61653900146484,-91.63772583007812
0.3641397953033447,-6.26285982131958,-82.64437866210938,135.0689697265625,-95.041748046875,-90.61653900146484,-91.63772583007812
0.3663296699523926,-6.26285982131958,-82.64437866210938,135.0689697265625,-95.041748046875,-90.61653900146484,-91.63772583007812
0.3685145378112793,-6.26285982131958,-82.64437866210938,135.0689697265625,-95.041748046875,-90.61653900146484,-91.63772583007812
0.370755672454834,-6.26285982131958,-82.64437866210938,135.0689697265625,-95.041748046875,-90.61653900146484,-91.63772583007812
0.37304186820983887,-6.26285982131958,-82.6441650390625,135.0689697265625,-95.0415267944336,-90.61697387695312,-91.637939453125
0.375230073928833,-6.26285982131958,-82.6441650390625,135.0689697265625,-95.0415267944336,-90.61697387695312,-91.637939453125
0.37741661071777344,-6.26285982131958,-82.6441650390625,135.0689697265625,-95.0415267944336,-90.61697387695312,-91.637939453125
0.37970423698425293,-6.26285982131958,-82.6441650390625,135.0689697265625,-95.0415267944336,-90.61697387695312,-91.637939453125
0.38196253776550293,-6.263077259063721,-82.6441650390625,135.0689697265625,-95.0415267944336,-90.61676025390625,-91.637939453125
0.3841288089752197,-6.263077259063721,-82.6441650390625,135.0689697265625,-95.0415267944336,-90.61676025390625,-91.637939453125
0.3862922191619873,-6.263077259063721,-82.6441650390625,135.0689697265625,-95.0415267944336,-90.61676025390625,-91.637939453125
0.38846683502197266,-6.263077259063721,-82.6441650390625,135.0689697265625,-95.0415267944336,-90.61676025390625,-91.637939453125
0.3907756805419922,-6.263077259063721,-82.6441650390625,135.0689697265625,-95.0415267944336,-90.61676025390625,-91.637939453125
0.3930699825286865,-6.26285982131958,-82.6441650390625,135.06918334960938,-95.0415267944336,-90.61676025390625,-91.637939453125
0.39525747299194336,-6.26285982131958,-82.6441650390625,135.06918334960938,-95.0415267944336,-90.61676025390625,-91.637939453125
0.397444486618042,-6.26285982131958,-82.6441650390625,135.06918334960938,-95.0415267944336,-90.61676025390625,-91.637939453125
0.39974117279052734,-6.26285982131958,-82.6441650390625,135.06918334960938,-95.0415267944336,-90.61676025390625,-91.637939453125
0.4020085334777832,-6.26285982131958,-82.64437866210938,135.0689697265625,-95.0415267944336,-90.61676025390625,-91.637939453125
0.4041719436645508,-6.26285982131958,-82.64437866210938,135.0689697265625,-95.0415267944336,-90.61676025390625,-91.637939453125
0.4063456058502197,-6.26285982131958,-82.64437866210938,135.0689697265625,-95.0415267944336,-90.61676025390625,-91.637939453125
0.4085218906402588,-6.26285982131958,-82.64437866210938,135.0689697265625,-95.0415267944336,-90.61676025390625,-91.637939453125
0.41076040267944336,-6.26285982131958,-82.64437866210938,135.0689697265625,-95.0415267944336,-90.61676025390625,-91.637939453125
0.41304683685302734,-6.26285982131958,-82.64437866210938,135.0689697265625,-95.0415267944336,-90.61676025390625,-91.63772583007812
0.4152333736419678,-6.26285982131958,-82.64437866210938,135.0689697265625,-95.0415267944336,-90.61676025390625,-91.63772583007812
0.4174211025238037,-6.26285982131958,-82.64437866210938,135.0689697265625,-95.0415267944336,-90.61676025390625,-91.63772583007812
0.4197499752044678,-6.26285982131958,-82.64437866210938,135.0689697265625,-95.0415267944336,-90.61676025390625,-91.63772583007812
0.42200589179992676,-6.26285982131958,-82.64437866210938,135.06918334960938,-95.041748046875,-90.61676025390625,-91.637939453125
0.42417001724243164,-6.26285982131958,-82.64437866210938,135.06918334960938,-95.041748046875,-90.61676025390625,-91.637939453125
0.4263339042663574,-6.26285982131958,-82.64437866210938,135.06918334960938,-95.041748046875,-90.61676025390625,-91.637939453125
0.4285109043121338,-6.26285982131958,-82.64437866210938,135.06918334960938,-95.041748046875,-90.61676025390625,-91.637939453125
0.4307875633239746,-6.26285982131958,-82.64437866210938,135.06918334960938,-95.041748046875,-90.61676025390625,-91.637939453125
0.43302464485168457,-6.26285982131958,-82.6441650390625,135.06918334960938,-95.041748046875,-90.61676025390625,-91.63772583007812
0.43517518043518066,-6.26285982131958,-82.6441650390625,135.06918334960938,-95.041748046875,-90.61676025390625,-91.63772583007812
0.4373173713684082,-6.26285982131958,-82.6441650390625,135.06918334960938,-95.041748046875,-90.61676025390625,-91.63772583007812
0.4394686222076416,-6.26285982131958,-82.6441650390625,135.06918334960938,-95.041748046875,-90.61676025390625,-91.63772583007812
0.4416689872741699,-6.26285982131958,-82.64437866210938,135.06918334960938,-95.0415267944336,-90.61676025390625,-91.637939453125
0.44391918182373047,-6.26285982131958,-82.64437866210938,135.06918334960938,-95.0415267944336,-90.61676025390625,-91.637939453125
0.44608235359191895,-6.26285982131958,-82.64437866210938,135.06918334960938,-95.0415267944336,-90.61676025390625,-91.637939453125
0.4482572078704834,-6.26285982131958,-82.64437866210938,135.06918334960938,-95.0415267944336,-90.61676025390625,-91.637939453125
0.4504239559173584,-6.26285982131958,-82.64437866210938,135.06918334960938,-95.0415267944336,-90.61676025390625,-91.637939453125
0.4526689052581787,-6.26285982131958,-82.6441650390625,135.0689697265625,-95.041748046875,-90.61676025390625,-91.637939453125
0.4549400806427002,-6.26285982131958,-82.6441650390625,135.0689697265625,-95.041748046875,-90.61676025390625,-91.637939453125
0.45712757110595703,-6.26285982131958,-82.6441650390625,135.0689697265625,-95.041748046875,-90.61676025390625,-91.637939453125
0.4593009948730469,-6.26285982131958,-82.6441650390625,135.0689697265625,-95.041748046875,-90.61676025390625,-91.637939453125
0.4618520736694336,-6.26285982131958,-82.6441650390625,135.0689697265625,-95.041748046875,-90.61676025390625,-91.637939453125
0.46410441398620605,-6.26285982131958,-82.6441650390625,135.0689697265625,-95.041748046875,-90.61676025390625,-91.637939453125
0.466292142868042,-6.26285982131958,-82.6441650390625,135.0689697265625,-95.041748046875,-90.61676025390625,-91.637939453125
0.4684779644012451,-6.26285982131958,-82.6441650390625,135.0689697265625,-95.041748046875,-90.61676025390625,-91.637939453125
0.47076916694641113,-6.26285982131958,-82.6441650390625,135.0689697265625,-95.041748046875,-90.61676025390625,-91.637939453125
0.47306013107299805,-6.26285982131958,-82.64437866210938,135.0689697265625,-95.041748046875,-90.61676025390625,-91.63772583007812
0.4752473831176758,-6.26285982131958,-82.64437866210938,135.0689697265625,-95.041748046875,-90.61676025390625,-91.63772583007812
0.4774360656738281,-6.26285982131958,-82.64437866210938,135.0689697265625,-95.041748046875,-90.61676025390625,-91.63772583007812
0.4797241687774658,-6.26285982131958,-82.64437866210938,135.0689697265625,-95.041748046875,-90.61676025390625,-91.63772583007812
0.48198699951171875,-6.26285982131958,-82.64437866210938,135.06874084472656,-95.04196166992188,-90.61676025390625,-91.637939453125
0.4841744899749756,-6.26285982131958,-82.64437866210938,135.06874084472656,-95.04196166992188,-90.61676025390625,-91.637939453125
0.4863617420196533,-6.26285982131958,-82.64437866210938,135.06874084472656,-95.04196166992188,-90.61676025390625,-91.637939453125
0.4886612892150879,-6.26285982131958,-82.64437866210938,135.06874084472656,-95.04196166992188,-90.61676025390625,-91.637939453125
0.49199771881103516,-6.26285982131958,-82.64437866210938,135.06918334960938,-95.041748046875,-90.61676025390625,-91.63772583007812
0.49416542053222656,-6.26285982131958,-82.64437866210938,135.06918334960938,-95.041748046875,-90.61676025390625,-91.63772583007812
0.49633121490478516,-6.26285982131958,-82.64437866210938,135.06918334960938,-95.041748046875,-90.61676025390625,-91.63772583007812
0.49851512908935547,-6.26285982131958,-82.64437866210938,135.06918334960938,-95.041748046875,-90.61676025390625,-91.63772583007812
0.5007627010345459,-6.26285982131958,-82.64437866210938,135.06918334960938,-95.041748046875,-90.61676025390625,-91.63772583007812
0.5030331611633301,-6.263077259063721,-82.64437866210938,135.0689697265625,-95.041748046875,-90.61676025390625,-91.637939453125
0.505218505859375,-6.263077259063721,-82.64437866210938,135.0689697265625,-95.041748046875,-90.61676025390625,-91.637939453125
0.5074052810668945,-6.263077259063721,-82.64437866210938,135.0689697265625,-95.041748046875,-90.61676025390625,-91.637939453125
0.5097000598907471,-6.263077259063721,-82.64437866210938,135.0689697265625,-95.041748046875,-90.61676025390625,-91.637939453125
0.5119576454162598,-6.26285982131958,-82.64437866210938,135.06918334960938,-95.0415267944336,-90.61676025390625,-91.6381607055664
0.5141100883483887,-6.26285982131958,-82.64437866210938,135.06918334960938,-95.0415267944336,-90.61676025390625,-91.6381607055664
0.516284704208374,-6.26285982131958,-82.64437866210938,135.06918334960938,-95.0415267944336,-90.61676025390625,-91.6381607055664
0.5184628963470459,-6.26285982131958,-82.64437866210938,135.06918334960938,-95.0415267944336,-90.61676025390625,-91.6381607055664
0.5207483768463135,-6.26285982131958,-82.64437866210938,135.06918334960938,-95.0415267944336,-90.61676025390625,-91.6381607055664
0.5230238437652588,-6.26285982131958,-82.6441650390625,135.0689697265625,-95.041748046875,-90.61676025390625,-91.637939453125
0.52520751953125,-6.26285982131958,-82.6441650390625,135.0689697265625,-95.041748046875,-90.61676025390625,-91.637939453125
0.5273952484130859,-6.26285982131958,-82.6441650390625,135.0689697265625,-95.041748046875,-90.61676025390625,-91.637939453125
0.5296516418457031,-6.26285982131958,-82.6441650390625,135.0689697265625,-95.041748046875,-90.61676025390625,-91.637939453125
0.5321023464202881,-6.26285982131958,-82.64437866210938,135.06918334960938,-95.0415267944336,-90.61653900146484,-91.637939453125
0.5342683792114258,-6.26285982131958,-82.64437866210938,135.06918334960938,-95.0415267944336,-90.61653900146484,-91.637939453125
0.536431074142456,-6.26285982131958,-82.64437866210938,135.06918334960938,-95.0415267944336,-90.61653900146484,-91.637939453125
0.5386934280395508,-6.26285982131958,-82.64437866210938,135.06918334960938,-95.0415267944336,-90.61653900146484,-91.637939453125
0.5416707992553711,-6.26285982131958,-82.64437866210938,135.0689697265625,-95.04196166992188,-90.61697387695312,-91.63772583007812
0.5439515113830566,-6.26285982131958,-82.64437866210938,135.0689697265625,-95.04196166992188,-90.61697387695312,-91.63772583007812
0.5461182594299316,-6.26285982131958,-82.64437866210938,135.0689697265625,-95.04196166992188,-90.61697387695312,-91.63772583007812
0.5482919216156006,-6.26285982131958,-82.64437866210938,135.0689697265625,-95.04196166992188,-90.61697387695312,-91.63772583007812
0.5504777431488037,-6.26285982131958,-82.64437866210938,135.0689697265625,-95.04196166992188,-90.61697387695312,-91.63772583007812
0.5527510643005371,-6.26285982131958,-82.6441650390625,135.06918334960938,-95.041748046875,-90.61676025390625,-91.63772583007812
0.5550708770751953,-6.26285982131958,-82.6441650390625,135.06918334960938,-95.041748046875,-90.61676025390625,-91.63772583007812
0.5572574138641357,-6.26285982131958,-82.6441650390625,135.06918334960938,-95.041748046875,-90.61676025390625,-91.63772583007812
0.5594449043273926,-6.26285982131958,-82.6441650390625,135.06918334960938,-95.041748046875,-90.61676025390625,-91.63772583007812
0.5619432926177979,-6.26285982131958,-82.64437866210938,135.0689697265625,-95.0415267944336,-90.61676025390625,-91.6381607055664
0.5640997886657715,-6.26285982131958,-82.64437866210938,135.0689697265625,-95.0415267944336,-90.61676025390625,-91.6381607055664
0.5662729740142822,-6.26285982131958,-82.64437866210938,135.0689697265625,-95.0415267944336,-90.61676025390625,-91.6381607055664
0.5684516429901123,-6.26285982131958,-82.64437866210938,135.0689697265625,-95.0415267944336,-90.61676025390625,-91.6381607055664
0.5707151889801025,-6.26285982131958,-82.64437866210938,135.0689697265625,-95.0415267944336,-90.61676025390625,-91.6381607055664
0.5730164051055908,-6.26285982131958,-82.64437866210938,135.0689697265625,-95.04196166992188,-90.61697387695312,-91.637939453125
0.5752034187316895,-6.26285982131958,-82.64437866210938,135.0689697265625,-95.04196166992188,-90.61697387695312,-91.637939453125
0.5773897171020508,-6.26285982131958,-82.64437866210938,135.0689697265625,-95.04196166992188,-90.61697387695312,-91.637939453125
0.5796971321105957,-6.26285982131958,-82.64437866210938,135.0689697265625,-95.04196166992188,-90.61697387695312,-91.637939453125
0.5819637775421143,-6.262641906738281,-82.6441650390625,135.0689697265625,-95.041748046875,-90.61676025390625,-91.63772583007812
0.5841212272644043,-6.262641906738281,-82.6441650390625,135.0689697265625,-95.041748046875,-90.61676025390625,-91.63772583007812
0.5862960815429688,-6.262641906738281,-82.6441650390625,135.0689697265625,-95.041748046875,-90.61676025390625,-91.63772583007812
0.5884733200073242,-6.262641906738281,-82.6441650390625,135.0689697265625,-95.041748046875,-90.61676025390625,-91.63772583007812
0.5907719135284424,-6.262641906738281,-82.6441650390625,135.0689697265625,-95.041748046875,-90.61676025390625,-91.63772583007812
0.5930640697479248,-6.26285982131958,-82.64437866210938,135.0689697265625,-95.0415267944336,-90.61676025390625,-91.63772583007812
0.5952684879302979,-6.26285982131958,-82.64437866210938,135.0689697265625,-95.0415267944336,-90.61676025390625,-91.63772583007812
0.5974569320678711,-6.26285982131958,-82.64437866210938,135.0689697265625,-95.0415267944336,-90.61676025390625,-91.63772583007812
0.5997223854064941,-6.26285982131958,-82.64437866210938,135.0689697265625,-95.0415267944336,-90.61676025390625,-91.63772583007812
0.6019771099090576,-6.262641906738281,-82.64437866210938,135.06918334960938,-95.0415267944336,-90.61676025390625,-91.637939453125
0.6041171550750732,-6.262641906738281,-82.64437866210938,135.06918334960938,-95.0415267944336,-90.61676025390625,-91.637939453125
0.6062912940979004,-6.262641906738281,-82.64437866210938,135.06918334960938,-95.0415267944336,-90.61676025390625,-91.637939453125
0.6084699630737305,-6.262641906738281,-82.64437866210938,135.06918334960938,-95.0415267944336,-90.61676025390625,-91.637939453125
0.6107709407806396,-6.262641906738281,-82.64437866210938,135.06918334960938,-95.0415267944336,-90.61676025390625,-91.637939453125
0.6130471229553223,-6.262641906738281,-82.6441650390625,135.0689697265625,-95.041748046875,-90.61676025390625,-91.637939453125
0.6152298450469971,-6.262641906738281,-82.6441650390625,135.0689697265625,-95.041748046875,-90.61676025390625,-91.637939453125
0.6174163818359375,-6.262641906738281,-82.6441650390625,135.0689697265625,-95.041748046875,-90.61676025390625,-91.637939453125
0.6197102069854736,-6.262641906738281,-82.6441650390625,135.0689697265625,-95.041748046875,-90.61676025390625,-91.637939453125
0.6219654083251953,-6.26285982131958,-82.64437866210938,135.06918334960938,-95.041748046875,-90.61676025390625,-91.63772583007812
0.6241312026977539,-6.26285982131958,-82.64437866210938,135.06918334960938,-95.041748046875,-90.61676025390625,-91.63772583007812
0.6263043880462646,-6.26285982131958,-82.64437866210938,135.06918334960938,-95.041748046875,-90.61676025390625,-91.63772583007812
0.6284830570220947,-6.26285982131958,-82.64437866210938,135.06918334960938,-95.041748046875,-90.61676025390625,-91.63772583007812
0.6307625770568848,-6.26285982131958,-82.64437866210938,135.06918334960938,-95.041748046875,-90.61676025390625,-91.63772583007812
0.6330323219299316,-6.26285982131958,-82.64437866210938,135.06918334960938,-95.041748046875,-90.61676025390625,-91.63772583007812
0.6352372169494629,-6.26285982131958,-82.64437866210938,135.06918334960938,-95.041748046875,-90.61676025390625,-91.63772583007812
0.6374280452728271,-6.26285982131958,-82.64437866210938,135.06918334960938,-95.041748046875,-90.61676025390625,-91.63772583007812
0.6397216320037842,-6.26285982131958,-82.64437866210938,135.06918334960938,-95.041748046875,-90.61676025390625,-91.63772583007812
0.6420094966888428,-6.26285982131958,-82.64437866210938,135.0689697265625,-95.0415267944336,-90.61676025390625,-91.637939453125
0.6441843509674072,-6.26285982131958,-82.64437866210938,135.0689697265625,-95.0415267944336,-90.61676025390625,-91.637939453125
0.6463587284088135,-6.26285982131958,-82.64437866210938,135.0689697265625,-95.0415267944336,-90.61676025390625,-91.637939453125
0.6486656665802002,-6.26285982131958,-82.64437866210938,135.0689697265625,-95.0415267944336,-90.61676025390625,-91.637939453125
0.6520967483520508,-6.26285982131958,-82.6441650390625,135.0689697265625,-95.0415267944336,-90.61676025390625,-91.637939453125
0.6542689800262451,-6.26285982131958,-82.6441650390625,135.0689697265625,-95.0415267944336,-90.61676025390625,-91.637939453125
0.6564438343048096,-6.26285982131958,-82.6441650390625,135.0689697265625,-95.0415267944336,-90.61676025390625,-91.637939453125
0.6587340831756592,-6.26285982131958,-82.6441650390625,135.0689697265625,-95.0415267944336,-90.61676025390625,-91.637939453125
0.6617794036865234,-6.262641906738281,-82.64437866210938,135.06918334960938,-95.0415267944336,-90.61697387695312,-91.637939453125
0.6640748977661133,-6.262641906738281,-82.64437866210938,135.06918334960938,-95.0415267944336,-90.61697387695312,-91.637939453125
0.6662614345550537,-6.262641906738281,-82.64437866210938,135.06918334960938,-95.0415267944336,-90.61697387695312,-91.637939453125
0.668447732925415,-6.262641906738281,-82.64437866210938,135.06918334960938,-95.0415267944336,-90.61697387695312,-91.637939453125
0.6707489490509033,-6.262641906738281,-82.64437866210938,135.06918334960938,-95.0415267944336,-90.61697387695312,-91.637939453125
0.6730461120605469,-6.26285982131958,-82.64437866210938,135.06918334960938,-95.0415267944336,-90.61653900146484,-91.637939453125
0.6752324104309082,-6.26285982131958,-82.64437866210938,135.06918334960938,-95.0415267944336,-90.61653900146484,-91.637939453125
0.6774191856384277,-6.26285982131958,-82.64437866210938,135.06918334960938,-95.0415267944336,-90.61653900146484,-91.637939453125
0.6797342300415039,-6.26285982131958,-82.64437866210938,135.06918334960938,-95.0415267944336,-90.61653900146484,-91.637939453125
0.6819236278533936,-6.26285982131958,-82.6441650390625,135.0689697265625,-95.0415267944336,-90.61676025390625,-91.637939453125
0.6840991973876953,-6.26285982131958,-82.6441650390625,135.0689697265625,-95.0415267944336,-90.61676025390625,-91.637939453125
0.6862857341766357,-6.26285982131958,-82.6441650390625,135.0689697265625,-95.0415267944336,-90.61676025390625,-91.637939453125
0.6884715557098389,-6.26285982131958,-82.6441650390625,135.0689697265625,-95.0415267944336,-90.61676025390625,-91.637939453125
0.6907038688659668,-6.26285982131958,-82.6441650390625,135.0689697265625,-95.0415267944336,-90.61676025390625,-91.637939453125
0.6930160522460938,-6.262641906738281,-82.64437866210938,135.0689697265625,-95.041748046875,-90.61653900146484,-91.637939453125
0.6952006816864014,-6.262641906738281,-82.64437866210938,135.0689697265625,-95.041748046875,-90.61653900146484,-91.637939453125
0.6973867416381836,-6.262641906738281,-82.64437866210938,135.0689697265625,-95.041748046875,-90.61653900146484,-91.637939453125
0.6996841430664062,-6.262641906738281,-82.64437866210938,135.0689697265625,-95.041748046875,-90.61653900146484,-91.637939453125
0.7019059658050537,-6.26285982131958,-82.64437866210938,135.06918334960938,-95.041748046875,-90.61676025390625,-91.637939453125
0.7041094303131104,-6.26285982131958,-82.64437866210938,135.06918334960938,-95.041748046875,-90.61676025390625,-91.637939453125
0.7062826156616211,-6.26285982131958,-82.64437866210938,135.06918334960938,-95.041748046875,-90.61676025390625,-91.637939453125
0.7084782123565674,-6.26285982131958,-82.64437866210938,135.06918334960938,-95.041748046875,-90.61676025390625,-91.637939453125
0.7107329368591309,-6.26285982131958,-82.64437866210938,135.06918334960938,-95.041748046875,-90.61676025390625,-91.637939453125
0.7130239009857178,-6.26285982131958,-82.64437866210938,135.0689697265625,-95.041748046875,-90.61653900146484,-91.637939453125
0.7152101993560791,-6.26285982131958,-82.64437866210938,135.0689697265625,-95.041748046875,-90.61653900146484,-91.637939453125
0.7173967361450195,-6.26285982131958,-82.64437866210938,135.0689697265625,-95.041748046875,-90.61653900146484,-91.637939453125
0.719703197479248,-6.26285982131958,-82.64437866210938,135.0689697265625,-95.041748046875,-90.61653900146484,-91.637939453125
0.721996545791626,-6.26285982131958,-82.64437866210938,135.06918334960938,-95.0415267944336,-90.61697387695312,-91.63772583007812
0.7242300510406494,-6.26285982131958,-82.64437866210938,135.06918334960938,-95.0415267944336,-90.61697387695312,-91.63772583007812
0.7263906002044678,-6.26285982131958,-82.64437866210938,135.06918334960938,-95.0415267944336,-90.61697387695312,-91.63772583007812
0.7286462783813477,-6.26285982131958,-82.64437866210938,135.06918334960938,-95.0415267944336,-90.61697387695312,-91.63772583007812
0.7314133644104004,-6.262641906738281,-82.64437866210938,135.06918334960938,-95.041748046875,-90.61676025390625,-91.63772583007812
0.7336363792419434,-6.262641906738281,-82.64437866210938,135.06918334960938,-95.041748046875,-90.61676025390625,-91.63772583007812
0.735917329788208,-6.262641906738281,-82.64437866210938,135.06918334960938,-95.041748046875,-90.61676025390625,-91.63772583007812
0.7381279468536377,-6.262641906738281,-82.64437866210938,135.06918334960938,-95.041748046875,-90.61676025390625,-91.63772583007812
0.7403020858764648,-6.262641906738281,-82.64437866210938,135.06918334960938,-95.041748046875,-90.61676025390625,-91.63772583007812
0.7424869537353516,-6.262641906738281,-82.64437866210938,135.0689697265625,-95.041748046875,-90.61676025390625,-91.63772583007812
0.7446529865264893,-6.262641906738281,-82.64437866210938,135.0689697265625,-95.041748046875,-90.61676025390625,-91.63772583007812
0.7469232082366943,-6.262641906738281,-82.64437866210938,135.0689697265625,-95.041748046875,-90.61676025390625,-91.63772583007812
0.7491281032562256,-6.262641906738281,-82.64437866210938,135.0689697265625,-95.041748046875,-90.61676025390625,-91.63772583007812
0.7517716884613037,-6.26285982131958,-82.6441650390625,135.0689697265625,-95.0415267944336,-90.61676025390625,-91.637939453125
0.754042387008667,-6.26285982131958,-82.6441650390625,135.0689697265625,-95.0415267944336,-90.61676025390625,-91.637939453125
0.7562289237976074,-6.26285982131958,-82.6441650390625,135.0689697265625,-95.0415267944336,-90.61676025390625,-91.637939453125
0.7584161758422852,-6.26285982131958,-82.6441650390625,135.0689697265625,-95.0415267944336,-90.61676025390625,-91.637939453125
0.7607271671295166,-6.26285982131958,-82.6441650390625,135.0689697265625,-95.0415267944336,-90.61676025390625,-91.637939453125
0.7630257606506348,-6.26285982131958,-82.6441650390625,135.0689697265625,-95.041748046875,-90.61676025390625,-91.637939453125
0.7652122974395752,-6.26285982131958,-82.6441650390625,135.0689697265625,-95.041748046875,-90.61676025390625,-91.637939453125
0.7673983573913574,-6.26285982131958,-82.6441650390625,135.0689697265625,-95.041748046875,-90.61676025390625,-91.637939453125
0.7696816921234131,-6.26285982131958,-82.6441650390625,135.0689697265625,-95.041748046875,-90.61676025390625,-91.637939453125
0.7718589305877686,-6.26285982131958,-82.64437866210938,135.0689697265625,-95.0415267944336,-90.61676025390625,-91.637939453125
0.7740976810455322,-6.26285982131958,-82.64437866210938,135.0689697265625,-95.0415267944336,-90.61676025390625,-91.637939453125
0.7762689590454102,-6.26285982131958,-82.64437866210938,135.0689697265625,-95.0415267944336,-90.61676025390625,-91.637939453125
0.7784481048583984,-6.26285982131958,-82.64437866210938,135.0689697265625,-95.0415267944336,-90.61676025390625,-91.637939453125
0.7807884216308594,-6.26285982131958,-82.64437866210938,135.0689697265625,-95.0415267944336,-90.61676025390625,-91.637939453125
0.7830686569213867,-6.263077259063721,-82.6441650390625,135.06918334960938,-95.0415267944336,-90.61676025390625,-91.637939453125
0.785259485244751,-6.263077259063721,-82.6441650390625,135.06918334960938,-95.0415267944336,-90.61676025390625,-91.637939453125
0.7874467372894287,-6.263077259063721,-82.6441650390625,135.06918334960938,-95.0415267944336,-90.61676025390625,-91.637939453125
0.7897140979766846,-6.263077259063721,-82.6441650390625,135.06918334960938,-95.0415267944336,-90.61676025390625,-91.637939453125
0.7919037342071533,-6.26285982131958,-82.64437866210938,135.06918334960938,-95.041748046875,-90.61653900146484,-91.637939453125
0.7941076755523682,-6.26285982131958,-82.64437866210938,135.06918334960938,-95.041748046875,-90.61653900146484,-91.637939453125
0.796281099319458,-6.26285982131958,-82.64437866210938,135.06918334960938,-95.041748046875,-90.61653900146484,-91.637939453125
0.7984607219696045,-6.26285982131958,-82.64437866210938,135.06918334960938,-95.041748046875,-90.61653900146484,-91.637939453125
0.8007903099060059,-6.26285982131958,-82.64437866210938,135.06918334960938,-95.041748046875,-90.61653900146484,-91.637939453125
0.8030784130096436,-6.262641906738281,-82.64437866210938,135.0689697265625,-95.0415267944336,-90.61676025390625,-91.637939453125
0.8052620887756348,-6.262641906738281,-82.64437866210938,135.0689697265625,-95.0415267944336,-90.61676025390625,-91.637939453125
0.807448148727417,-6.262641906738281,-82.64437866210938,135.0689697265625,-95.0415267944336,-90.61676025390625,-91.637939453125
0.8097453117370605,-6.262641906738281,-82.64437866210938,135.0689697265625,-95.0415267944336,-90.61676025390625,-91.637939453125
0.8119375705718994,-6.26285982131958,-82.6441650390625,135.06918334960938,-95.041748046875,-90.61697387695312,-91.637939453125
0.8141238689422607,-6.26285982131958,-82.6441650390625,135.06918334960938,-95.041748046875,-90.61697387695312,-91.637939453125
0.8162875175476074,-6.26285982131958,-82.6441650390625,135.06918334960938,-95.041748046875,-90.61697387695312,-91.637939453125
0.8184659481048584,-6.26285982131958,-82.6441650390625,135.06918334960938,-95.041748046875,-90.61697387695312,-91.637939453125
0.8207755088806152,-6.26285982131958,-82.6441650390625,135.06918334960938,-95.041748046875,-90.61697387695312,-91.637939453125
0.823066234588623,-6.26285982131958,-82.6441650390625,135.06918334960938,-95.0415267944336,-90.61676025390625,-91.637939453125
0.8252387046813965,-6.26285982131958,-82.6441650390625,135.06918334960938,-95.0415267944336,-90.61676025390625,-91.637939453125
0.8274252414703369,-6.26285982131958,-82.6441650390625,135.06918334960938,-95.0415267944336,-90.61676025390625,-91.637939453125
0.829721212387085,-6.26285982131958,-82.6441650390625,135.06918334960938,-95.0415267944336,-90.61676025390625,-91.637939453125
0.831916093826294,-6.26285982131958,-82.6441650390625,135.0689697265625,-95.041748046875,-90.61676025390625,-91.637939453125
0.8340837955474854,-6.26285982131958,-82.6441650390625,135.0689697265625,-95.041748046875,-90.61676025390625,-91.637939453125
0.836233377456665,-6.26285982131958,-82.6441650390625,135.0689697265625,-95.041748046875,-90.61676025390625,-91.637939453125
0.838381290435791,-6.26285982131958,-82.6441650390625,135.0689697265625,-95.041748046875,-90.61676025390625,-91.637939453125
0.8406591415405273,-6.26285982131958,-82.6441650390625,135.0689697265625,-95.041748046875,-90.61676025390625,-91.637939453125
0.8429021835327148,-6.26285982131958,-82.64437866210938,135.06918334960938,-95.0415267944336,-90.61676025390625,-91.637939453125
0.8450882434844971,-6.26285982131958,-82.64437866210938,135.06918334960938,-95.0415267944336,-90.61676025390625,-91.637939453125
0.8472504615783691,-6.26285982131958,-82.64437866210938,135.06918334960938,-95.0415267944336,-90.61676025390625,-91.637939453125
0.8494439125061035,-6.26285982131958,-82.64437866210938,135.06918334960938,-95.0415267944336,-90.61676025390625,-91.637939453125
0.851776123046875,-6.26285982131958,-82.64437866210938,135.06918334960938,-95.041748046875,-90.61676025390625,-91.63772583007812
0.8540186882019043,-6.26285982131958,-82.64437866210938,135.06918334960938,-95.041748046875,-90.61676025390625,-91.63772583007812
0.8562054634094238,-6.26285982131958,-82.64437866210938,135.06918334960938,-95.041748046875,-90.61676025390625,-91.63772583007812
0.8583927154541016,-6.26285982131958,-82.64437866210938,135.06918334960938,-95.041748046875,-90.61676025390625,-91.63772583007812
0.8607094287872314,-6.26285982131958,-82.64437866210938,135.06918334960938,-95.041748046875,-90.61676025390625,-91.63772583007812
0.8629891872406006,-6.263077259063721,-82.64437866210938,135.06918334960938,-95.041748046875,-90.61653900146484,-91.63772583007812
0.8651528358459473,-6.263077259063721,-82.64437866210938,135.06918334960938,-95.041748046875,-90.61653900146484,-91.63772583007812
0.8673174381256104,-6.263077259063721,-82.64437866210938,135.06918334960938,-95.041748046875,-90.61653900146484,-91.63772583007812
0.869492769241333,-6.263077259063721,-82.64437866210938,135.06918334960938,-95.041748046875,-90.61653900146484,-91.63772583007812
0.871790885925293,-6.26285982131958,-82.64437866210938,135.0689697265625,-95.041748046875,-90.61653900146484,-91.637939453125
0.874047040939331,-6.26285982131958,-82.64437866210938,135.0689697265625,-95.041748046875,-90.61653900146484,-91.637939453125
0.8762111663818359,-6.26285982131958,-82.64437866210938,135.0689697265625,-95.041748046875,-90.61653900146484,-91.637939453125
0.8783841133117676,-6.26285982131958,-82.64437866210938,135.0689697265625,-95.041748046875,-90.61653900146484,-91.637939453125
0.880685567855835,-6.26285982131958,-82.64437866210938,135.0689697265625,-95.041748046875,-90.61653900146484,-91.637939453125
0.8829679489135742,-6.26285982131958,-82.64437866210938,135.0689697265625,-95.0415267944336,-90.61676025390625,-91.637939453125
0.8851237297058105,-6.26285982131958,-82.64437866210938,135.0689697265625,-95.0415267944336,-90.61676025390625,-91.637939453125
0.8872878551483154,-6.26285982131958,-82.64437866210938,135.0689697265625,-95.0415267944336,-90.61676025390625,-91.637939453125
0.8894631862640381,-6.26285982131958,-82.64437866210938,135.0689697265625,-95.0415267944336,-90.61676025390625,-91.637939453125
0.8917970657348633,-6.263077259063721,-82.6441650390625,135.0689697265625,-95.0415267944336,-90.61676025390625,-91.637939453125
0.8940896987915039,-6.263077259063721,-82.6441650390625,135.0689697265625,-95.0415267944336,-90.61676025390625,-91.637939453125
0.8962762355804443,-6.263077259063721,-82.6441650390625,135.0689697265625,-95.0415267944336,-90.61676025390625,-91.637939453125
0.8984627723693848,-6.263077259063721,-82.6441650390625,135.0689697265625,-95.0415267944336,-90.61676025390625,-91.637939453125
0.9007818698883057,-6.263077259063721,-82.6441650390625,135.0689697265625,-95.0415267944336,-90.61676025390625,-91.637939453125
0.9030506610870361,-6.26285982131958,-82.64437866210938,135.0689697265625,-95.041748046875,-90.61676025390625,-91.637939453125
0.9052364826202393,-6.26285982131958,-82.64437866210938,135.0689697265625,-95.041748046875,-90.61676025390625,-91.637939453125
0.9074232578277588,-6.26285982131958,-82.64437866210938,135.0689697265625,-95.041748046875,-90.61676025390625,-91.637939453125
0.9097230434417725,-6.26285982131958,-82.64437866210938,135.0689697265625,-95.041748046875,-90.61676025390625,-91.637939453125
0.9119033813476562,-6.26285982131958,-82.6441650390625,135.06918334960938,-95.041748046875,-90.61676025390625,-91.637939453125
0.9140872955322266,-6.26285982131958,-82.6441650390625,135.06918334960938,-95.041748046875,-90.61676025390625,-91.637939453125
0.9162609577178955,-6.26285982131958,-82.6441650390625,135.06918334960938,-95.041748046875,-90.61676025390625,-91.637939453125
0.9184398651123047,-6.26285982131958,-82.6441650390625,135.06918334960938,-95.041748046875,-90.61676025390625,-91.637939453125
0.920771598815918,-6.26285982131958,-82.6441650390625,135.06918334960938,-95.041748046875,-90.61676025390625,-91.637939453125
0.9230456352233887,-6.263077259063721,-82.6441650390625,135.0689697265625,-95.0415267944336,-90.61676025390625,-91.637939453125
0.9252078533172607,-6.263077259063721,-82.6441650390625,135.0689697265625,-95.0415267944336,-90.61676025390625,-91.637939453125
0.9273834228515625,-6.263077259063721,-82.6441650390625,135.0689697265625,-95.0415267944336,-90.61676025390625,-91.637939453125
0.9296677112579346,-6.263077259063721,-82.6441650390625,135.0689697265625,-95.0415267944336,-90.61676025390625,-91.637939453125
0.9318318367004395,-6.26285982131958,-82.64437866210938,135.0689697265625,-95.041748046875,-90.61676025390625,-91.63772583007812
0.9341247081756592,-6.26285982131958,-82.64437866210938,135.0689697265625,-95.041748046875,-90.61676025390625,-91.63772583007812
0.9363110065460205,-6.26285982131958,-82.64437866210938,135.0689697265625,-95.041748046875,-90.61676025390625,-91.63772583007812
0.9384987354278564,-6.26285982131958,-82.64437866210938,135.0689697265625,-95.041748046875,-90.61676025390625,-91.63772583007812
0.9407484531402588,-6.26285982131958,-82.64437866210938,135.0689697265625,-95.041748046875,-90.61676025390625,-91.63772583007812
0.9430406093597412,-6.26285982131958,-82.6441650390625,135.06918334960938,-95.041748046875,-90.61676025390625,-91.63772583007812
0.9452269077301025,-6.26285982131958,-82.6441650390625,135.06918334960938,-95.041748046875,-90.61676025390625,-91.63772583007812
0.9474153518676758,-6.26285982131958,-82.6441650390625,135.06918334960938,-95.041748046875,-90.61676025390625,-91.63772583007812
0.9497079849243164,-6.26285982131958,-82.6441650390625,135.06918334960938,-95.041748046875,-90.61676025390625,-91.63772583007812
0.9518835544586182,-6.26285982131958,-82.64437866210938,135.0689697265625,-95.041748046875,-90.61676025390625,-91.63772583007812
0.954087495803833,-6.26285982131958,-82.64437866210938,135.0689697265625,-95.041748046875,-90.61676025390625,-91.63772583007812
0.9562621116638184,-6.26285982131958,-82.64437866210938,135.0689697265625,-95.041748046875,-90.61676025390625,-91.63772583007812
0.958439826965332,-6.26285982131958,-82.64437866210938,135.0689697265625,-95.041748046875,-90.61676025390625,-91.63772583007812
0.960763692855835,-6.26285982131958,-82.64437866210938,135.0689697265625,-95.041748046875,-90.61676025390625,-91.63772583007812
0.9630768299102783,-6.26285982131958,-82.64437866210938,135.06918334960938,-95.041748046875,-90.61653900146484,-91.637939453125
0.9652614593505859,-6.26285982131958,-82.64437866210938,135.06918334960938,-95.041748046875,-90.61653900146484,-91.637939453125
0.9674503803253174,-6.26285982131958,-82.64437866210938,135.06918334960938,-95.041748046875,-90.61653900146484,-91.637939453125
0.9697277545928955,-6.26285982131958,-82.64437866210938,135.06918334960938,-95.041748046875,-90.61653900146484,-91.637939453125
0.9719095230102539,-6.263077259063721,-82.6441650390625,135.06918334960938,-95.0415267944336,-90.61676025390625,-91.63772583007812
0.9740583896636963,-6.263077259063721,-82.6441650390625,135.06918334960938,-95.0415267944336,-90.61676025390625,-91.63772583007812
0.9762723445892334,-6.263077259063721,-82.6441650390625,135.06918334960938,-95.0415267944336,-90.61676025390625,-91.63772583007812
0.9784271717071533,-6.263077259063721,-82.6441650390625,135.06918334960938,-95.0415267944336,-90.61676025390625,-91.63772583007812
0.9807031154632568,-6.263077259063721,-82.6441650390625,135.06918334960938,-95.0415267944336,-90.61676025390625,-91.63772583007812
0.9829676151275635,-6.26285982131958,-82.64437866210938,135.0689697265625,-95.041748046875,-90.61676025390625,-91.637939453125
0.9851131439208984,-6.26285982131958,-82.64437866210938,135.0689697265625,-95.041748046875,-90.61676025390625,-91.637939453125
0.9872863292694092,-6.26285982131958,-82.64437866210938,135.0689697265625,-95.041748046875,-90.61676025390625,-91.637939453125
0.989464521408081,-6.26285982131958,-82.64437866210938,135.0689697265625,-95.041748046875,-90.61676025390625,-91.637939453125
0.9918656349182129,-6.262641906738281,-82.6441650390625,135.0689697265625,-95.0415267944336,-90.61676025390625,-91.637939453125
0.9941012859344482,-6.262641906738281,-82.6441650390625,135.0689697265625,-95.0415267944336,-90.61676025390625,-91.637939453125
0.9962713718414307,-6.262641906738281,-82.6441650390625,135.0689697265625,-95.0415267944336,-90.61676025390625,-91.637939453125
0.9984478950500488,-6.262641906738281,-82.6441650390625,135.0689697265625,-95.0415267944336,-90.61676025390625,-91.637939453125
1.000675916671753,-6.262641906738281,-82.6441650390625,135.0689697265625,-95.0415267944336,-90.61676025390625,-91.637939453125
1.0029301643371582,-6.262641906738281,-82.64437866210938,135.0689697265625,-95.0415267944336,-90.61697387695312,-91.637939453125
1.005052089691162,-6.262641906738281,-82.64437866210938,135.0689697265625,-95.0415267944336,-90.61697387695312,-91.637939453125
1.0071814060211182,-6.262641906738281,-82.64437866210938,135.0689697265625,-95.0415267944336,-90.61697387695312,-91.637939453125
1.0093111991882324,-6.262641906738281,-82.64437866210938,135.0689697265625,-95.0415267944336,-90.61697387695312,-91.637939453125
1.0114469528198242,-6.262641906738281,-82.64481353759766,135.0689697265625,-95.041748046875,-90.61697387695312,-91.63772583007812
1.0136339664459229,-6.262641906738281,-82.64481353759766,135.0689697265625,-95.041748046875,-90.61697387695312,-91.63772583007812
1.0158233642578125,-6.262641906738281,-82.64481353759766,135.0689697265625,-95.041748046875,-90.61697387695312,-91.63772583007812
1.018019199371338,-6.262641906738281,-82.64481353759766,135.0689697265625,-95.041748046875,-90.61697387695312,-91.63772583007812
1.020136833190918,-6.262641906738281,-82.64481353759766,135.0689697265625,-95.041748046875,-90.61697387695312,-91.63772583007812
1.0222551822662354,-6.262641906738281,-82.64524841308594,135.06918334960938,-95.0415267944336,-90.61676025390625,-91.637939453125
1.024390697479248,-6.262641906738281,-82.64524841308594,135.06918334960938,-95.0415267944336,-90.61676025390625,-91.637939453125
1.0265858173370361,-6.262641906738281,-82.64524841308594,135.06918334960938,-95.0415267944336,-90.61676025390625,-91.637939453125
1.0287790298461914,-6.262641906738281,-82.64524841308594,135.06918334960938,-95.0415267944336,-90.61676025390625,-91.637939453125
1.0311951637268066,-6.262641906738281,-82.64524841308594,135.06918334960938,-95.0415267944336,-90.61676025390625,-91.637939453125
1.033313274383545,-6.262641906738281,-82.64524841308594,135.06918334960938,-95.0415267944336,-90.61676025390625,-91.637939453125
1.0354971885681152,-6.262641906738281,-82.64524841308594,135.06918334960938,-95.0415267944336,-90.61676025390625,-91.637939453125
1.037684679031372,-6.262641906738281,-82.64524841308594,135.06918334960938,-95.0415267944336,-90.61676025390625,-91.637939453125
1.0398750305175781,-6.262641906738281,-82.64524841308594,135.06918334960938,-95.0415267944336,-90.61676025390625,-91.637939453125
1.0420384407043457,-6.262424468994141,-82.64503479003906,135.06918334960938,-95.041748046875,-90.61676025390625,-91.63772583007812
1.0441746711730957,-6.262424468994141,-82.64503479003906,135.06918334960938,-95.041748046875,-90.61676025390625,-91.63772583007812
1.0462961196899414,-6.262424468994141,-82.64503479003906,135.06918334960938,-95.041748046875,-90.61676025390625,-91.63772583007812
1.0484428405761719,-6.262424468994141,-82.64503479003906,135.06918334960938,-95.041748046875,-90.61676025390625,-91.63772583007812
1.050647497177124,-6.262424468994141,-82.64503479003906,135.06918334960938,-95.041748046875,-90.61676025390625,-91.63772583007812
1.0528607368469238,-6.262424468994141,-82.64503479003906,135.0689697265625,-95.041748046875,-90.61697387695312,-91.63772583007812
1.0550920963287354,-6.262424468994141,-82.64503479003906,135.0689697265625,-95.041748046875,-90.61697387695312,-91.63772583007812
1.0572657585144043,-6.262424468994141,-82.64503479003906,135.0689697265625,-95.041748046875,-90.61697387695312,-91.63772583007812
1.0594525337219238,-6.262424468994141,-82.64503479003906,135.0689697265625,-95.041748046875,-90.61697387695312,-91.63772583007812
1.0619306564331055,-6.262641906738281,-82.64503479003906,135.06918334960938,-95.0415267944336,-90.61676025390625,-91.637939453125
1.0642988681793213,-6.262641906738281,-82.64503479003906,135.06918334960938,-95.0415267944336,-90.61676025390625,-91.637939453125
1.0664870738983154,-6.262641906738281,-82.64503479003906,135.06918334960938,-95.0415267944336,-90.61676025390625,-91.637939453125
1.0687296390533447,-6.262641906738281,-82.64503479003906,135.06918334960938,-95.0415267944336,-90.61676025390625,-91.637939453125
1.0719356536865234,-6.262641906738281,-82.64503479003906,135.0689697265625,-95.041748046875,-90.61676025390625,-91.637939453125
1.0741229057312012,-6.262641906738281,-82.64503479003906,135.0689697265625,-95.041748046875,-90.61676025390625,-91.637939453125
1.0763087272644043,-6.262641906738281,-82.64503479003906,135.0689697265625,-95.041748046875,-90.61676025390625,-91.637939453125
1.0785794258117676,-6.262641906738281,-82.64503479003906,135.0689697265625,-95.041748046875,-90.61676025390625,-91.637939453125
1.0819883346557617,-6.262424468994141,-82.64503479003906,135.0689697265625,-95.0415267944336,-90.61676025390625,-91.63772583007812
1.0841550827026367,-6.262424468994141,-82.64503479003906,135.0689697265625,-95.0415267944336,-90.61676025390625,-91.63772583007812
1.0863466262817383,-6.262424468994141,-82.64503479003906,135.0689697265625,-95.0415267944336,-90.61676025390625,-91.63772583007812
1.0886385440826416,-6.262424468994141,-82.64503479003906,135.0689697265625,-95.0415267944336,-90.61676025390625,-91.63772583007812
1.0918033123016357,-6.262424468994141,-82.64481353759766,135.06918334960938,-95.0415267944336,-90.61676025390625,-91.63772583007812
1.094088077545166,-6.262424468994141,-82.64481353759766,135.06918334960938,-95.0415267944336,-90.61676025390625,-91.63772583007812
1.0962743759155273,-6.262424468994141,-82.64481353759766,135.06918334960938,-95.0415267944336,-90.61676025390625,-91.63772583007812
1.0984611511230469,-6.262424468994141,-82.64481353759766,135.06918334960938,-95.0415267944336,-90.61676025390625,-91.63772583007812
1.1007750034332275,-6.262424468994141,-82.64481353759766,135.06918334960938,-95.0415267944336,-90.61676025390625,-91.63772583007812
1.103050947189331,-6.262641906738281,-82.64503479003906,135.0689697265625,-95.041748046875,-90.61676025390625,-91.63772583007812
1.1052367687225342,-6.262641906738281,-82.64503479003906,135.0689697265625,-95.041748046875,-90.61676025390625,-91.63772583007812
1.107424020767212,-6.262641906738281,-82.64503479003906,135.0689697265625,-95.041748046875,-90.61676025390625,-91.63772583007812
1.109713077545166,-6.262641906738281,-82.64503479003906,135.0689697265625,-95.041748046875,-90.61676025390625,-91.63772583007812
1.1121127605438232,-6.262641906738281,-82.64437866210938,135.0689697265625,-95.041748046875,-90.61676025390625,-91.63772583007812
1.1142783164978027,-6.262641906738281,-82.64437866210938,135.0689697265625,-95.041748046875,-90.61676025390625,-91.63772583007812
1.116455316543579,-6.262641906738281,-82.64437866210938,135.0689697265625,-95.041748046875,-90.61676025390625,-91.63772583007812
1.1187527179718018,-6.262641906738281,-82.64437866210938,135.0689697265625,-95.041748046875,-90.61676025390625,-91.63772583007812
1.1218585968017578,-6.262641906738281,-82.6441650390625,135.0689697265625,-95.041748046875,-90.61676025390625,-91.637939453125
1.1240651607513428,-6.262641906738281,-82.6441650390625,135.0689697265625,-95.041748046875,-90.61676025390625,-91.637939453125
1.1262223720550537,-6.262641906738281,-82.6441650390625,135.0689697265625,-95.041748046875,-90.61676025390625,-91.637939453125
1.1283907890319824,-6.262641906738281,-82.6441650390625,135.0689697265625,-95.041748046875,-90.61676025390625,-91.637939453125
1.1306426525115967,-6.262641906738281,-82.6441650390625,135.0689697265625,-95.041748046875,-90.61676025390625,-91.637939453125
1.132906198501587,-6.26285982131958,-82.6439437866211,135.06918334960938,-95.0415267944336,-90.61697387695312,-91.637939453125
1.135084629058838,-6.26285982131958,-82.6439437866211,135.06918334960938,-95.0415267944336,-90.61697387695312,-91.637939453125
1.1372768878936768,-6.26285982131958,-82.6439437866211,135.06918334960938,-95.0415267944336,-90.61697387695312,-91.637939453125
1.1394567489624023,-6.26285982131958,-82.6439437866211,135.06918334960938,-95.0415267944336,-90.61697387695312,-91.637939453125
1.1418452262878418,-6.26285982131958,-82.6439437866211,135.0689697265625,-95.041748046875,-90.61676025390625,-91.637939453125
1.1441364288330078,-6.26285982131958,-82.6439437866211,135.0689697265625,-95.041748046875,-90.61676025390625,-91.637939453125
1.1463210582733154,-6.26285982131958,-82.6439437866211,135.0689697265625,-95.041748046875,-90.61676025390625,-91.637939453125
1.1484999656677246,-6.26285982131958,-82.6439437866211,135.0689697265625,-95.041748046875,-90.61676025390625,-91.637939453125
1.1507434844970703,-6.26285982131958,-82.6439437866211,135.0689697265625,-95.041748046875,-90.61676025390625,-91.637939453125
1.1530404090881348,-6.26285982131958,-82.6441650390625,135.0689697265625,-95.041748046875,-90.61676025390625,-91.637939453125
1.155226707458496,-6.26285982131958,-82.6441650390625,135.0689697265625,-95.041748046875,-90.61676025390625,-91.637939453125
1.1574130058288574,-6.26285982131958,-82.6441650390625,135.0689697265625,-95.041748046875,-90.61676025390625,-91.637939453125
1.1597020626068115,-6.26285982131958,-82.6441650390625,135.0689697265625,-95.041748046875,-90.61676025390625,-91.637939453125
1.1619598865509033,-6.262641906738281,-82.64459991455078,135.0689697265625,-95.041748046875,-90.61676025390625,-91.637939453125
1.1641278266906738,-6.262641906738281,-82.64459991455078,135.0689697265625,-95.041748046875,-90.61676025390625,-91.637939453125
1.1662909984588623,-6.262641906738281,-82.64459991455078,135.0689697265625,-95.041748046875,-90.61676025390625,-91.637939453125
1.1684839725494385,-6.262641906738281,-82.64459991455078,135.0689697265625,-95.041748046875,-90.61676025390625,-91.637939453125
1.170752763748169,-6.262641906738281,-82.64459991455078,135.0689697265625,-95.041748046875,-90.61676025390625,-91.637939453125
1.1730375289916992,-6.262424468994141,-82.64437866210938,135.06918334960938,-95.0415267944336,-90.61676025390625,-91.63772583007812
1.1752228736877441,-6.262424468994141,-82.64437866210938,135.06918334960938,-95.0415267944336,-90.61676025390625,-91.63772583007812
1.1774110794067383,-6.262424468994141,-82.64437866210938,135.06918334960938,-95.0415267944336,-90.61676025390625,-91.63772583007812
1.1796784400939941,-6.262424468994141,-82.64437866210938,135.06918334960938,-95.0415267944336,-90.61676025390625,-91.63772583007812
1.181931972503662,-6.262641906738281,-82.64459991455078,135.0689697265625,-95.041748046875,-90.61676025390625,-91.637939453125
1.1841049194335938,-6.262641906738281,-82.64459991455078,135.0689697265625,-95.041748046875,-90.61676025390625,-91.637939453125
1.1862773895263672,-6.262641906738281,-82.64459991455078,135.0689697265625,-95.041748046875,-90.61676025390625,-91.637939453125
1.1884543895721436,-6.262641906738281,-82.64459991455078,135.0689697265625,-95.041748046875,-90.61676025390625,-91.637939453125
1.1907358169555664,-6.262641906738281,-82.64459991455078,135.0689697265625,-95.041748046875,-90.61676025390625,-91.637939453125
1.1930148601531982,-6.262641906738281,-82.64459991455078,135.0689697265625,-95.041748046875,-90.61676025390625,-91.637939453125
1.1951978206634521,-6.262641906738281,-82.64459991455078,135.0689697265625,-95.041748046875,-90.61676025390625,-91.637939453125
1.197385549545288,-6.262641906738281,-82.64459991455078,135.0689697265625,-95.041748046875,-90.61676025390625,-91.637939453125
1.1996724605560303,-6.262641906738281,-82.64459991455078,135.0689697265625,-95.041748046875,-90.61676025390625,-91.637939453125
1.201927661895752,-6.26285982131958,-82.64481353759766,135.0689697265625,-95.041748046875,-90.61676025390625,-91.637939453125
1.2041282653808594,-6.26285982131958,-82.64481353759766,135.0689697265625,-95.041748046875,-90.61676025390625,-91.637939453125
1.2063148021697998,-6.26285982131958,-82.64481353759766,135.0689697265625,-95.041748046875,-90.61676025390625,-91.637939453125
1.2085251808166504,-6.26285982131958,-82.64481353759766,135.0689697265625,-95.041748046875,-90.61676025390625,-91.637939453125
1.2107617855072021,-6.26285982131958,-82.64481353759766,135.0689697265625,-95.041748046875,-90.61676025390625,-91.637939453125
1.2130405902862549,-6.26285982131958,-82.64481353759766,135.06874084472656,-95.041748046875,-90.61676025390625,-91.637939453125
1.215202808380127,-6.26285982131958,-82.64481353759766,135.06874084472656,-95.041748046875,-90.61676025390625,-91.637939453125
1.2173726558685303,-6.26285982131958,-82.64481353759766,135.06874084472656,-95.041748046875,-90.61676025390625,-91.637939453125
1.2195496559143066,-6.26285982131958,-82.64481353759766,135.06874084472656,-95.041748046875,-90.61676025390625,-91.637939453125
1.2217786312103271,-6.262641906738281,-82.64481353759766,135.0689697265625,-95.041748046875,-90.61697387695312,-91.637939453125
1.2240636348724365,-6.262641906738281,-82.64481353759766,135.0689697265625,-95.041748046875,-90.61697387695312,-91.637939453125
1.2262496948242188,-6.262641906738281,-82.64481353759766,135.0689697265625,-95.041748046875,-90.61697387695312,-91.637939453125
1.22843599319458,-6.262641906738281,-82.64481353759766,135.0689697265625,-95.041748046875,-90.61697387695312,-91.637939453125
1.2307050228118896,-6.262641906738281,-82.64481353759766,135.0689697265625,-95.041748046875,-90.61697387695312,-91.637939453125
1.2329978942871094,-6.262641906738281,-82.64503479003906,135.06918334960938,-95.0415267944336,-90.61676025390625,-91.6381607055664
1.235161542892456,-6.262641906738281,-82.64503479003906,135.06918334960938,-95.0415267944336,-90.61676025390625,-91.6381607055664
1.2373173236846924,-6.262641906738281,-82.64503479003906,135.06918334960938,-95.0415267944336,-90.61676025390625,-91.6381607055664
1.2395315170288086,-6.262641906738281,-82.64503479003906,135.06918334960938,-95.0415267944336,-90.61676025390625,-91.6381607055664
1.2417306900024414,-6.262424468994141,-82.64503479003906,135.06874084472656,-95.041748046875,-90.61676025390625,-91.637939453125
1.2439813613891602,-6.262424468994141,-82.64503479003906,135.06874084472656,-95.041748046875,-90.61676025390625,-91.637939453125
1.2461037635803223,-6.262424468994141,-82.64503479003906,135.06874084472656,-95.041748046875,-90.61676025390625,-91.637939453125
1.2482428550720215,-6.262424468994141,-82.64503479003906,135.06874084472656,-95.041748046875,-90.61676025390625,-91.637939453125
1.250422477722168,-6.262424468994141,-82.64503479003906,135.06874084472656,-95.041748046875,-90.61676025390625,-91.637939453125
1.2527186870574951,-6.262641906738281,-82.64481353759766,135.0689697265625,-95.041748046875,-90.61676025390625,-91.637939453125
1.2550148963928223,-6.262641906738281,-82.64481353759766,135.0689697265625,-95.041748046875,-90.61676025390625,-91.637939453125
1.257200002670288,-6.262641906738281,-82.64481353759766,135.0689697265625,-95.041748046875,-90.61676025390625,-91.637939453125
1.2593879699707031,-6.262641906738281,-82.64481353759766,135.0689697265625,-95.041748046875,-90.61676025390625,-91.637939453125
1.2619402408599854,-6.262641906738281,-82.64459991455078,135.06918334960938,-95.041748046875,-90.61676025390625,-91.637939453125
1.264103889465332,-6.262641906738281,-82.64459991455078,135.06918334960938,-95.041748046875,-90.61676025390625,-91.637939453125
1.2662770748138428,-6.262641906738281,-82.64459991455078,135.06918334960938,-95.041748046875,-90.61676025390625,-91.637939453125
1.2684533596038818,-6.262641906738281,-82.64459991455078,135.06918334960938,-95.041748046875,-90.61676025390625,-91.637939453125
1.270740032196045,-6.262641906738281,-82.64459991455078,135.06918334960938,-95.041748046875,-90.61676025390625,-91.637939453125
1.2730298042297363,-6.262641906738281,-82.64503479003906,135.06874084472656,-95.0415267944336,-90.61697387695312,-91.637939453125
1.2752044200897217,-6.262641906738281,-82.64503479003906,135.06874084472656,-95.0415267944336,-90.61697387695312,-91.637939453125
1.277390718460083,-6.262641906738281,-82.64503479003906,135.06874084472656,-95.0415267944336,-90.61697387695312,-91.637939453125
1.2797212600708008,-6.262641906738281,-82.64503479003906,135.06874084472656,-95.0415267944336,-90.61697387695312,-91.637939453125
1.2819774150848389,-6.26285982131958,-82.64503479003906,135.06874084472656,-95.0415267944336,-90.61676025390625,-91.637939453125
1.2841243743896484,-6.26285982131958,-82.64503479003906,135.06874084472656,-95.0415267944336,-90.61676025390625,-91.637939453125
1.2862977981567383,-6.26285982131958,-82.64503479003906,135.06874084472656,-95.0415267944336,-90.61676025390625,-91.637939453125
1.2884745597839355,-6.26285982131958,-82.64503479003906,135.06874084472656,-95.0415267944336,-90.61676025390625,-91.637939453125
1.290724277496338,-6.26285982131958,-82.64503479003906,135.06874084472656,-95.0415267944336,-90.61676025390625,-91.637939453125
1.293015956878662,-6.262641906738281,-82.64503479003906,135.0689697265625,-95.0415267944336,-90.61676025390625,-91.637939453125
1.2952020168304443,-6.262641906738281,-82.64503479003906,135.0689697265625,-95.0415267944336,-90.61676025390625,-91.637939453125
1.2973883152008057,-6.262641906738281,-82.64503479003906,135.0689697265625,-95.0415267944336,-90.61676025390625,-91.637939453125
1.299678087234497,-6.262641906738281,-82.64503479003906,135.0689697265625,-95.0415267944336,-90.61676025390625,-91.637939453125
1.3019368648529053,-6.262424468994141,-82.64481353759766,135.0689697265625,-95.04196166992188,-90.61653900146484,-91.63772583007812
1.3041348457336426,-6.262424468994141,-82.64481353759766,135.0689697265625,-95.04196166992188,-90.61653900146484,-91.63772583007812
1.306321144104004,-6.262424468994141,-82.64481353759766,135.0689697265625,-95.04196166992188,-90.61653900146484,-91.63772583007812
1.3085060119628906,-6.262424468994141,-82.64481353759766,135.0689697265625,-95.04196166992188,-90.61653900146484,-91.63772583007812
1.3118643760681152,-6.262424468994141,-82.64503479003906,135.0689697265625,-95.041748046875,-90.61653900146484,-91.637939453125
1.3141043186187744,-6.262424468994141,-82.64503479003906,135.0689697265625,-95.041748046875,-90.61653900146484,-91.637939453125
1.3162894248962402,-6.262424468994141,-82.64503479003906,135.0689697265625,-95.041748046875,-90.61653900146484,-91.637939453125
1.3184781074523926,-6.262424468994141,-82.64503479003906,135.0689697265625,-95.041748046875,-90.61653900146484,-91.637939453125
1.3207697868347168,-6.262424468994141,-82.64503479003906,135.0689697265625,-95.041748046875,-90.61653900146484,-91.637939453125
1.3230464458465576,-6.262424468994141,-82.64481353759766,135.06918334960938,-95.041748046875,-90.61676025390625,-91.63772583007812
1.3252043724060059,-6.262424468994141,-82.64481353759766,135.06918334960938,-95.041748046875,-90.61676025390625,-91.63772583007812
1.327378273010254,-6.262424468994141,-82.64481353759766,135.06918334960938,-95.041748046875,-90.61676025390625,-91.63772583007812
1.329665184020996,-6.262424468994141,-82.64481353759766,135.06918334960938,-95.041748046875,-90.61676025390625,-91.63772583007812
1.3319220542907715,-6.262641906738281,-82.64503479003906,135.06918334960938,-95.041748046875,-90.61676025390625,-91.637939453125
1.3341314792633057,-6.262641906738281,-82.64503479003906,135.06918334960938,-95.041748046875,-90.61676025390625,-91.637939453125
1.3363358974456787,-6.262641906738281,-82.64503479003906,135.06918334960938,-95.041748046875,-90.61676025390625,-91.637939453125
1.3385224342346191,-6.262641906738281,-82.64503479003906,135.06918334960938,-95.041748046875,-90.61676025390625,-91.637939453125
1.340768575668335,-6.262641906738281,-82.64503479003906,135.06918334960938,-95.041748046875,-90.61676025390625,-91.637939453125
1.343050241470337,-6.262424468994141,-82.64524841308594,135.06918334960938,-95.041748046875,-90.61676025390625,-91.63772583007812
1.34523606300354,-6.262424468994141,-82.64524841308594,135.06918334960938,-95.041748046875,-90.61676025390625,-91.63772583007812
1.3474242687225342,-6.262424468994141,-82.64524841308594,135.06918334960938,-95.041748046875,-90.61676025390625,-91.63772583007812
1.3497235774993896,-6.262424468994141,-82.64524841308594,135.06918334960938,-95.041748046875,-90.61676025390625,-91.63772583007812
1.3519980907440186,-6.262424468994141,-82.64524841308594,135.0689697265625,-95.041748046875,-90.61676025390625,-91.637939453125
1.3541631698608398,-6.262424468994141,-82.64524841308594,135.0689697265625,-95.041748046875,-90.61676025390625,-91.637939453125
1.3563265800476074,-6.262424468994141,-82.64524841308594,135.0689697265625,-95.041748046875,-90.61676025390625,-91.637939453125
1.3585035800933838,-6.262424468994141,-82.64524841308594,135.0689697265625,-95.041748046875,-90.61676025390625,-91.637939453125
1.360762119293213,-6.262424468994141,-82.64524841308594,135.0689697265625,-95.041748046875,-90.61676025390625,-91.637939453125
1.3630516529083252,-6.262424468994141,-82.64524841308594,135.06939697265625,-95.04131317138672,-90.61676025390625,-91.637939453125
1.3652231693267822,-6.262424468994141,-82.64524841308594,135.06939697265625,-95.04131317138672,-90.61676025390625,-91.637939453125
1.3674099445343018,-6.262424468994141,-82.64524841308594,135.06939697265625,-95.04131317138672,-90.61676025390625,-91.637939453125
1.3697125911712646,-6.262424468994141,-82.64524841308594,135.06939697265625,-95.04131317138672,-90.61676025390625,-91.637939453125
1.3719921112060547,-6.262424468994141,-82.64546966552734,135.06939697265625,-95.041748046875,-90.61676025390625,-91.637939453125
1.3741583824157715,-6.262424468994141,-82.64546966552734,135.06939697265625,-95.041748046875,-90.61676025390625,-91.637939453125
1.376312494277954,-6.262424468994141,-82.64546966552734,135.06939697265625,-95.041748046875,-90.61676025390625,-91.637939453125
1.3784666061401367,-6.262424468994141,-82.64546966552734,135.06939697265625,-95.041748046875,-90.61676025390625,-91.637939453125
1.3807384967803955,-6.262424468994141,-82.64546966552734,135.06939697265625,-95.041748046875,-90.61676025390625,-91.637939453125
1.3829631805419922,-6.262424468994141,-82.64546966552734,135.06939697265625,-95.041748046875,-90.61676025390625,-91.637939453125
1.3851292133331299,-6.262424468994141,-82.64546966552734,135.06939697265625,-95.041748046875,-90.61676025390625,-91.637939453125
1.3873021602630615,-6.262424468994141,-82.64546966552734,135.06939697265625,-95.041748046875,-90.61676025390625,-91.637939453125
1.3894786834716797,-6.262424468994141,-82.64546966552734,135.06939697265625,-95.041748046875,-90.61676025390625,-91.637939453125
1.3917219638824463,-6.262424468994141,-82.64568328857422,135.06939697265625,-95.041748046875,-90.61676025390625,-91.637939453125
1.3940134048461914,-6.262424468994141,-82.64568328857422,135.06939697265625,-95.041748046875,-90.61676025390625,-91.637939453125
1.3961994647979736,-6.262424468994141,-82.64568328857422,135.06939697265625,-95.041748046875,-90.61676025390625,-91.637939453125
1.3983850479125977,-6.262424468994141,-82.64568328857422,135.06939697265625,-95.041748046875,-90.61676025390625,-91.637939453125
1.4006636142730713,-6.262424468994141,-82.64568328857422,135.06939697265625,-95.041748046875,-90.61676025390625,-91.637939453125
1.4029467105865479,-6.262424468994141,-82.64524841308594,135.06939697265625,-95.041748046875,-90.61697387695312,-91.63772583007812
1.4050984382629395,-6.262424468994141,-82.64524841308594,135.06939697265625,-95.041748046875,-90.61697387695312,-91.63772583007812
1.4072721004486084,-6.262424468994141,-82.64524841308594,135.06939697265625,-95.041748046875,-90.61697387695312,-91.63772583007812
1.4094483852386475,-6.262424468994141,-82.64524841308594,135.06939697265625,-95.041748046875,-90.61697387695312,-91.63772583007812
1.4118430614471436,-6.262641906738281,-82.64568328857422,135.06918334960938,-95.041748046875,-90.61676025390625,-91.637939453125
1.4141442775726318,-6.262641906738281,-82.64568328857422,135.06918334960938,-95.041748046875,-90.61676025390625,-91.637939453125
1.4163298606872559,-6.262641906738281,-82.64568328857422,135.06918334960938,-95.041748046875,-90.61676025390625,-91.637939453125
1.4185154438018799,-6.262641906738281,-82.64568328857422,135.06918334960938,-95.041748046875,-90.61676025390625,-91.637939453125
1.4207782745361328,-6.262641906738281,-82.64568328857422,135.06918334960938,-95.041748046875,-90.61676025390625,-91.637939453125
1.423074722290039,-6.262424468994141,-82.64568328857422,135.06918334960938,-95.041748046875,-90.61676025390625,-91.637939453125
1.4252629280090332,-6.262424468994141,-82.64568328857422,135.06918334960938,-95.041748046875,-90.61676025390625,-91.637939453125
1.4274492263793945,-6.262424468994141,-82.64568328857422,135.06918334960938,-95.041748046875,-90.61676025390625,-91.637939453125
1.4297430515289307,-6.262424468994141,-82.64568328857422,135.06918334960938,-95.041748046875,-90.61676025390625,-91.637939453125
1.4319963455200195,-6.262424468994141,-82.64568328857422,135.0689697265625,-95.041748046875,-90.61653900146484,-91.637939453125
1.4341604709625244,-6.262424468994141,-82.64568328857422,135.0689697265625,-95.041748046875,-90.61653900146484,-91.637939453125
1.4363329410552979,-6.262424468994141,-82.64568328857422,135.0689697265625,-95.041748046875,-90.61653900146484,-91.637939453125
1.438615322113037,-6.262424468994141,-82.64568328857422,135.0689697265625,-95.041748046875,-90.61653900146484,-91.637939453125
1.4418234825134277,-6.262424468994141,-82.64568328857422,135.06874084472656,-95.041748046875,-90.61676025390625,-91.63772583007812
1.4441025257110596,-6.262424468994141,-82.64568328857422,135.06874084472656,-95.041748046875,-90.61676025390625,-91.63772583007812
1.4462642669677734,-6.262424468994141,-82.64568328857422,135.06874084472656,-95.041748046875,-90.61676025390625,-91.63772583007812
1.448441982269287,-6.262424468994141,-82.64568328857422,135.06874084472656,-95.041748046875,-90.61676025390625,-91.63772583007812
1.4506926536560059,-6.262424468994141,-82.64568328857422,135.06874084472656,-95.041748046875,-90.61676025390625,-91.63772583007812
1.4529943466186523,-6.26220703125,-82.64590454101562,135.0689697265625,-95.041748046875,-90.61676025390625,-91.63772583007812
1.4552001953125,-6.26220703125,-82.64590454101562,135.0689697265625,-95.041748046875,-90.61676025390625,-91.63772583007812
1.4573874473571777,-6.26220703125,-82.64590454101562,135.0689697265625,-95.041748046875,-90.61676025390625,-91.63772583007812
1.45967698097229,-6.26220703125,-82.64590454101562,135.0689697265625,-95.041748046875,-90.61676025390625,-91.63772583007812
1.4619486331939697,-6.26220703125,-82.64590454101562,135.06874084472656,-95.0415267944336,-90.61676025390625,-91.637939453125
1.464118242263794,-6.26220703125,-82.64590454101562,135.06874084472656,-95.0415267944336,-90.61676025390625,-91.637939453125
1.4662818908691406,-6.26220703125,-82.64590454101562,135.06874084472656,-95.0415267944336,-90.61676025390625,-91.637939453125
1.4684600830078125,-6.26220703125,-82.64590454101562,135.06874084472656,-95.0415267944336,-90.61676025390625,-91.637939453125
1.4707472324371338,-6.26220703125,-82.64590454101562,135.06874084472656,-95.0415267944336,-90.61676025390625,-91.637939453125
1.473039150238037,-6.26220703125,-82.64568328857422,135.06918334960938,-95.041748046875,-90.61676025390625,-91.637939453125
1.4752118587493896,-6.26220703125,-82.64568328857422,135.06918334960938,-95.041748046875,-90.61676025390625,-91.637939453125
1.4773976802825928,-6.26220703125,-82.64568328857422,135.06918334960938,-95.041748046875,-90.61676025390625,-91.637939453125
1.4796984195709229,-6.26220703125,-82.64568328857422,135.06918334960938,-95.041748046875,-90.61676025390625,-91.637939453125
1.4819543361663818,-6.26220703125,-82.64568328857422,135.06918334960938,-95.041748046875,-90.61697387695312,-91.637939453125
1.484130859375,-6.26220703125,-82.64568328857422,135.06918334960938,-95.041748046875,-90.61697387695312,-91.637939453125
1.4863166809082031,-6.26220703125,-82.64568328857422,135.06918334960938,-95.041748046875,-90.61697387695312,-91.637939453125
1.488504409790039,-6.26220703125,-82.64568328857422,135.06918334960938,-95.041748046875,-90.61697387695312,-91.637939453125
1.4907405376434326,-6.26220703125,-82.64568328857422,135.06918334960938,-95.041748046875,-90.61697387695312,-91.637939453125
1.4930403232574463,-6.261772155761719,-82.64568328857422,135.0689697265625,-95.0415267944336,-90.61676025390625,-91.63772583007812
1.495211124420166,-6.261772155761719,-82.64568328857422,135.0689697265625,-95.0415267944336,-90.61676025390625,-91.63772583007812
1.497385025024414,-6.261772155761719,-82.64568328857422,135.0689697265625,-95.0415267944336,-90.61676025390625,-91.63772583007812
1.4996862411499023,-6.261772155761719,-82.64568328857422,135.0689697265625,-95.0415267944336,-90.61676025390625,-91.63772583007812
1.5019466876983643,-6.261772155761719,-82.64568328857422,135.0689697265625,-95.0415267944336,-90.61676025390625,-91.637939453125
1.504091739654541,-6.261772155761719,-82.64568328857422,135.0689697265625,-95.0415267944336,-90.61676025390625,-91.637939453125
1.5062766075134277,-6.261772155761719,-82.64568328857422,135.0689697265625,-95.0415267944336,-90.61676025390625,-91.637939453125
1.5084624290466309,-6.261772155761719,-82.64568328857422,135.0689697265625,-95.0415267944336,-90.61676025390625,-91.637939453125
1.5106985569000244,-6.261772155761719,-82.64568328857422,135.0689697265625,-95.0415267944336,-90.61676025390625,-91.637939453125
1.5129954814910889,-6.261772155761719,-82.64590454101562,135.0689697265625,-95.0415267944336,-90.61676025390625,-91.63772583007812
1.5151822566986084,-6.261772155761719,-82.64590454101562,135.0689697265625,-95.0415267944336,-90.61676025390625,-91.63772583007812
1.5173695087432861,-6.261772155761719,-82.64590454101562,135.0689697265625,-95.0415267944336,-90.61676025390625,-91.63772583007812
1.5195541381835938,-6.261772155761719,-82.64590454101562,135.0689697265625,-95.0415267944336,-90.61676025390625,-91.63772583007812
1.5219504833221436,-6.261989593505859,-82.6461181640625,135.0689697265625,-95.0415267944336,-90.61676025390625,-91.637939453125
1.5241374969482422,-6.261989593505859,-82.6461181640625,135.0689697265625,-95.0415267944336,-90.61676025390625,-91.637939453125
1.5263035297393799,-6.261989593505859,-82.6461181640625,135.0689697265625,-95.0415267944336,-90.61676025390625,-91.637939453125
1.528456687927246,-6.261989593505859,-82.6461181640625,135.0689697265625,-95.0415267944336,-90.61676025390625,-91.637939453125
1.5307016372680664,-6.261989593505859,-82.6461181640625,135.0689697265625,-95.0415267944336,-90.61676025390625,-91.637939453125
1.532963752746582,-6.26220703125,-82.64590454101562,135.06874084472656,-95.041748046875,-90.61676025390625,-91.637939453125
1.5351183414459229,-6.26220703125,-82.64590454101562,135.06874084472656,-95.041748046875,-90.61676025390625,-91.637939453125
1.537273645401001,-6.26220703125,-82.64590454101562,135.06874084472656,-95.041748046875,-90.61676025390625,-91.637939453125
1.5394415855407715,-6.26220703125,-82.64590454101562,135.06874084472656,-95.041748046875,-90.61676025390625,-91.637939453125
1.5418124198913574,-6.261989593505859,-82.6463394165039,135.06874084472656,-95.041748046875,-90.61676025390625,-91.63772583007812
1.544081211090088,-6.261989593505859,-82.6463394165039,135.06874084472656,-95.041748046875,-90.61676025390625,-91.63772583007812
1.5462665557861328,-6.261989593505859,-82.6463394165039,135.06874084472656,-95.041748046875,-90.61676025390625,-91.63772583007812
1.5484542846679688,-6.261989593505859,-82.6463394165039,135.06874084472656,-95.041748046875,-90.61676025390625,-91.63772583007812
1.5507473945617676,-6.261989593505859,-82.6463394165039,135.06874084472656,-95.041748046875,-90.61676025390625,-91.63772583007812
1.5530433654785156,-6.261989593505859,-82.6461181640625,135.06874084472656,-95.0415267944336,-90.61697387695312,-91.637939453125
1.5552284717559814,-6.261989593505859,-82.6461181640625,135.06874084472656,-95.0415267944336,-90.61697387695312,-91.637939453125
1.5574142932891846,-6.261989593505859,-82.6461181640625,135.06874084472656,-95.0415267944336,-90.61697387695312,-91.637939453125
1.5596845149993896,-6.261989593505859,-82.6461181640625,135.06874084472656,-95.0415267944336,-90.61697387695312,-91.637939453125
1.5619447231292725,-6.261772155761719,-82.6463394165039,135.0685272216797,-95.041748046875,-90.61653900146484,-91.63772583007812
1.5641374588012695,-6.261772155761719,-82.6463394165039,135.0685272216797,-95.041748046875,-90.61653900146484,-91.63772583007812
1.5663113594055176,-6.261772155761719,-82.6463394165039,135.0685272216797,-95.041748046875,-90.61653900146484,-91.63772583007812
1.5684893131256104,-6.261772155761719,-82.6463394165039,135.0685272216797,-95.041748046875,-90.61653900146484,-91.63772583007812
1.57072114944458,-6.261772155761719,-82.6463394165039,135.0685272216797,-95.041748046875,-90.61653900146484,-91.63772583007812
1.5730085372924805,-6.261989593505859,-82.64677429199219,135.0683135986328,-95.041748046875,-90.61676025390625,-91.637939453125
1.5752108097076416,-6.261989593505859,-82.64677429199219,135.0683135986328,-95.041748046875,-90.61676025390625,-91.637939453125
1.5773978233337402,-6.261989593505859,-82.64677429199219,135.0683135986328,-95.041748046875,-90.61676025390625,-91.637939453125
1.579699993133545,-6.261989593505859,-82.64677429199219,135.0683135986328,-95.041748046875,-90.61676025390625,-91.637939453125
1.5819616317749023,-6.261772155761719,-82.64720916748047,135.06787109375,-95.041748046875,-90.61676025390625,-91.63772583007812
1.5841164588928223,-6.261772155761719,-82.64720916748047,135.06787109375,-95.041748046875,-90.61676025390625,-91.63772583007812
1.5862908363342285,-6.261772155761719,-82.64720916748047,135.06787109375,-95.041748046875,-90.61676025390625,-91.63772583007812
1.5884692668914795,-6.261772155761719,-82.64720916748047,135.06787109375,-95.041748046875,-90.61676025390625,-91.63772583007812
1.5907576084136963,-6.261772155761719,-82.64720916748047,135.06787109375,-95.041748046875,-90.61676025390625,-91.63772583007812
1.5930414199829102,-6.261989593505859,-82.64743041992188,135.06723022460938,-95.0415267944336,-90.61676025390625,-91.637939453125
1.5952250957489014,-6.261989593505859,-82.64743041992188,135.06723022460938,-95.0415267944336,-90.61676025390625,-91.637939453125
1.5974133014678955,-6.261989593505859,-82.64743041992188,135.06723022460938,-95.0415267944336,-90.61676025390625,-91.637939453125
1.5997226238250732,-6.261989593505859,-82.64743041992188,135.06723022460938,-95.0415267944336,-90.61676025390625,-91.637939453125
1.6019749641418457,-6.261772155761719,-82.64786529541016,135.0665740966797,-95.041748046875,-90.61676025390625,-91.637939453125
1.6041383743286133,-6.261772155761719,-82.64786529541016,135.0665740966797,-95.041748046875,-90.61676025390625,-91.637939453125
1.6063251495361328,-6.261772155761719,-82.64786529541016,135.0665740966797,-95.041748046875,-90.61676025390625,-91.637939453125
1.6085116863250732,-6.261772155761719,-82.64786529541016,135.0665740966797,-95.041748046875,-90.61676025390625,-91.637939453125
1.610755205154419,-6.261772155761719,-82.64786529541016,135.0665740966797,-95.041748046875,-90.61676025390625,-91.637939453125
1.613013505935669,-6.261989593505859,-82.64830017089844,135.06613159179688,-95.041748046875,-90.61697387695312,-91.637939453125
1.6151988506317139,-6.261989593505859,-82.64830017089844,135.06613159179688,-95.041748046875,-90.61697387695312,-91.637939453125
1.6174068450927734,-6.261989593505859,-82.64830017089844,135.06613159179688,-95.041748046875,-90.61697387695312,-91.637939453125
1.6197102069854736,-6.261989593505859,-82.64830017089844,135.06613159179688,-95.041748046875,-90.61697387695312,-91.637939453125
1.6219773292541504,-6.261772155761719,-82.64938354492188,135.0652618408203,-95.0415267944336,-90.61676025390625,-91.63772583007812
1.6241190433502197,-6.261772155761719,-82.64938354492188,135.0652618408203,-95.0415267944336,-90.61676025390625,-91.63772583007812
1.6262834072113037,-6.261772155761719,-82.64938354492188,135.0652618408203,-95.0415267944336,-90.61676025390625,-91.63772583007812
1.62846040725708,-6.261772155761719,-82.64938354492188,135.0652618408203,-95.0415267944336,-90.61676025390625,-91.63772583007812
1.6307504177093506,-6.261772155761719,-82.64938354492188,135.0652618408203,-95.0415267944336,-90.61676025390625,-91.63772583007812
1.6330015659332275,-6.26155424118042,-82.65047454833984,135.06439208984375,-95.041748046875,-90.61676025390625,-91.637939453125
1.6351733207702637,-6.26155424118042,-82.65047454833984,135.06439208984375,-95.041748046875,-90.61676025390625,-91.637939453125
1.6373291015625,-6.26155424118042,-82.65047454833984,135.06439208984375,-95.041748046875,-90.61676025390625,-91.637939453125
1.639502763748169,-6.26155424118042,-82.65047454833984,135.06439208984375,-95.041748046875,-90.61676025390625,-91.637939453125
1.641739845275879,-6.261336803436279,-82.65177917480469,135.06309509277344,-95.041748046875,-90.61676025390625,-91.637939453125
1.6439926624298096,-6.261336803436279,-82.65177917480469,135.06309509277344,-95.041748046875,-90.61676025390625,-91.637939453125
1.6461303234100342,-6.261336803436279,-82.65177917480469,135.06309509277344,-95.041748046875,-90.61676025390625,-91.637939453125
1.6482794284820557,-6.261336803436279,-82.65177917480469,135.06309509277344,-95.041748046875,-90.61676025390625,-91.637939453125
1.6504404544830322,-6.261336803436279,-82.65177917480469,135.06309509277344,-95.041748046875,-90.61676025390625,-91.637939453125
1.6526918411254883,-6.26155424118042,-82.65264892578125,135.0615692138672,-95.041748046875,-90.61676025390625,-91.6381607055664
1.6549527645111084,-6.26155424118042,-82.65264892578125,135.0615692138672,-95.041748046875,-90.61676025390625,-91.6381607055664
1.6571574211120605,-6.26155424118042,-82.65264892578125,135.0615692138672,-95.041748046875,-90.61676025390625,-91.6381607055664
1.659332036972046,-6.26155424118042,-82.65264892578125,135.0615692138672,-95.041748046875,-90.61676025390625,-91.6381607055664
1.6619493961334229,-6.261336803436279,-82.65308380126953,135.05917358398438,-95.0415267944336,-90.61676025390625,-91.637939453125
1.6640965938568115,-6.261336803436279,-82.65308380126953,135.05917358398438,-95.0415267944336,-90.61676025390625,-91.637939453125
1.6662709712982178,-6.261336803436279,-82.65308380126953,135.05917358398438,-95.0415267944336,-90.61676025390625,-91.637939453125
1.6684560775756836,-6.261336803436279,-82.65308380126953,135.05917358398438,-95.0415267944336,-90.61676025390625,-91.637939453125
1.6707446575164795,-6.261336803436279,-82.65308380126953,135.05917358398438,-95.0415267944336,-90.61676025390625,-91.637939453125
1.673046588897705,-6.26155424118042,-82.6532974243164,135.055908203125,-95.041748046875,-90.61676025390625,-91.637939453125
1.6752333641052246,-6.26155424118042,-82.6532974243164,135.055908203125,-95.041748046875,-90.61676025390625,-91.637939453125
1.677419662475586,-6.26155424118042,-82.6532974243164,135.055908203125,-95.041748046875,-90.61676025390625,-91.637939453125
1.6797282695770264,-6.26155424118042,-82.6532974243164,135.055908203125,-95.041748046875,-90.61676025390625,-91.637939453125
1.6819870471954346,-6.26155424118042,-82.65373229980469,135.05111694335938,-95.0415267944336,-90.61676025390625,-91.63772583007812
1.6841251850128174,-6.26155424118042,-82.65373229980469,135.05111694335938,-95.0415267944336,-90.61676025390625,-91.63772583007812
1.6862993240356445,-6.26155424118042,-82.65373229980469,135.05111694335938,-95.0415267944336,-90.61676025390625,-91.63772583007812
1.6884758472442627,-6.26155424118042,-82.65373229980469,135.05111694335938,-95.0415267944336,-90.61676025390625,-91.63772583007812
1.690704584121704,-6.26155424118042,-82.65373229980469,135.05111694335938,-95.0415267944336,-90.61676025390625,-91.63772583007812
1.692997694015503,-6.261336803436279,-82.6541748046875,135.04568481445312,-95.041748046875,-90.61676025390625,-91.63772583007812
1.6951820850372314,-6.261336803436279,-82.6541748046875,135.04568481445312,-95.041748046875,-90.61676025390625,-91.63772583007812
1.6973893642425537,-6.261336803436279,-82.6541748046875,135.04568481445312,-95.041748046875,-90.61676025390625,-91.63772583007812
1.6996793746948242,-6.261336803436279,-82.6541748046875,135.04568481445312,-95.041748046875,-90.61676025390625,-91.63772583007812
1.7019405364990234,-6.261336803436279,-82.65504455566406,135.03872680664062,-95.0415267944336,-90.61676025390625,-91.637939453125
1.7041232585906982,-6.261336803436279,-82.65504455566406,135.03872680664062,-95.0415267944336,-90.61676025390625,-91.637939453125
1.706315040588379,-6.261336803436279,-82.65504455566406,135.03872680664062,-95.0415267944336,-90.61676025390625,-91.637939453125
1.7084925174713135,-6.261336803436279,-82.65504455566406,135.03872680664062,-95.0415267944336,-90.61676025390625,-91.637939453125
1.7107338905334473,-6.261336803436279,-82.65504455566406,135.03872680664062,-95.0415267944336,-90.61676025390625,-91.637939453125
1.7130231857299805,-6.261119365692139,-82.6563491821289,135.03176879882812,-95.041748046875,-90.61676025390625,-91.637939453125
1.715209722518921,-6.261119365692139,-82.6563491821289,135.03176879882812,-95.041748046875,-90.61676025390625,-91.637939453125
1.7173969745635986,-6.261119365692139,-82.6563491821289,135.03176879882812,-95.041748046875,-90.61676025390625,-91.637939453125
1.7196893692016602,-6.261119365692139,-82.6563491821289,135.03176879882812,-95.041748046875,-90.61676025390625,-91.637939453125
1.7219445705413818,-6.260901927947998,-82.65786743164062,135.02371215820312,-95.0415267944336,-90.61676025390625,-91.63772583007812
1.7241151332855225,-6.260901927947998,-82.65786743164062,135.02371215820312,-95.0415267944336,-90.61676025390625,-91.63772583007812
1.7262885570526123,-6.260901927947998,-82.65786743164062,135.02371215820312,-95.0415267944336,-90.61676025390625,-91.63772583007812
1.7284650802612305,-6.260901927947998,-82.65786743164062,135.02371215820312,-95.0415267944336,-90.61676025390625,-91.63772583007812
