Ultramotiv/Mauris-Progress-/All_other_stuff/dmp_trial5.csv
timestamp,joint1,joint2,joint3,joint4,joint5,joint6
8.845329284667969e-05,-6.372940540313721,-83.1932601928711,136.68296813964844,-95.05805969238281,-90.72618865966797,-90.68572235107422
0.0024352073669433594,-6.372940540313721,-83.1932601928711,136.68296813964844,-95.05805969238281,-90.72618865966797,-90.68572235107422
0.004796266555786133,-6.372940540313721,-83.1932601928711,136.68296813964844,-95.05805969238281,-90.72618865966797,-90.68572235107422
0.007817745208740234,-6.372940540313721,-83.19304656982422,136.68275451660156,-95.05805969238281,-90.72596740722656,-90.6859359741211
0.00998687744140625,-6.372940540313721,-83.19304656982422,136.68275451660156,-95.05805969238281,-90.72596740722656,-90.6859359741211
0.012160301208496094,-6.372940540313721,-83.19304656982422,136.68275451660156,-95.05805969238281,-90.72596740722656,-90.6859359741211
0.014295101165771484,-6.372940540313721,-83.19304656982422,136.68275451660156,-95.05805969238281,-90.72596740722656,-90.6859359741211
0.016483545303344727,-6.372940540313721,-83.19304656982422,136.68275451660156,-95.05805969238281,-90.72596740722656,-90.6859359741211
0.0186612606048584,-6.37272310256958,-83.19282531738281,136.68275451660156,-95.05805969238281,-90.72596740722656,-90.68572235107422
0.02083277702331543,-6.37272310256958,-83.19282531738281,136.68275451660156,-95.05805969238281,-90.72596740722656,-90.68572235107422
0.02298569679260254,-6.37272310256958,-83.19282531738281,136.68275451660156,-95.05805969238281,-90.72596740722656,-90.68572235107422
0.02521657943725586,-6.37272310256958,-83.19282531738281,136.68275451660156,-95.05805969238281,-90.72596740722656,-90.68572235107422
0.028090715408325195,-6.37272310256958,-83.19282531738281,136.68275451660156,-95.05805969238281,-90.72596740722656,-90.68572235107422
0.030388593673706055,-6.37272310256958,-83.19282531738281,136.68275451660156,-95.05805969238281,-90.72596740722656,-90.68572235107422
0.03265023231506348,-6.37272310256958,-83.19282531738281,136.68275451660156,-95.05805969238281,-90.72596740722656,-90.68572235107422
0.03478360176086426,-6.37272310256958,-83.19282531738281,136.68275451660156,-95.05805969238281,-90.72596740722656,-90.68572235107422
0.03789520263671875,-6.372940540313721,-83.19304656982422,136.68296813964844,-95.05828094482422,-90.72596740722656,-90.68572235107422
0.04006242752075195,-6.372940540313721,-83.19304656982422,136.68296813964844,-95.05828094482422,-90.72596740722656,-90.68572235107422
0.04227614402770996,-6.372940540313721,-83.19304656982422,136.68296813964844,-95.05828094482422,-90.72596740722656,-90.68572235107422
0.04450416564941406,-6.372940540313721,-83.19304656982422,136.68296813964844,-95.05828094482422,-90.72596740722656,-90.68572235107422
0.04667043685913086,-6.372940540313721,-83.19304656982422,136.68296813964844,-95.05828094482422,-90.72596740722656,-90.68572235107422
0.0488433837890625,-6.372940540313721,-83.19282531738281,136.68275451660156,-95.05828094482422,-90.72618865966797,-90.68572235107422
0.051012516021728516,-6.372940540313721,-83.19282531738281,136.68275451660156,-95.05828094482422,-90.72618865966797,-90.68572235107422
0.05322909355163574,-6.372940540313721,-83.19282531738281,136.68275451660156,-95.05828094482422,-90.72618865966797,-90.68572235107422
0.055445194244384766,-6.372940540313721,-83.19282531738281,136.68275451660156,-95.05828094482422,-90.72618865966797,-90.68572235107422
0.058114051818847656,-6.372940540313721,-83.19261169433594,136.68275451660156,-95.05805969238281,-90.72596740722656,-90.6859359741211
0.06034207344055176,-6.372940540313721,-83.19261169433594,136.68275451660156,-95.05805969238281,-90.72596740722656,-90.6859359741211
0.06254816055297852,-6.372940540313721,-83.19261169433594,136.68275451660156,-95.05805969238281,-90.72596740722656,-90.6859359741211
0.06470370292663574,-6.372940540313721,-83.19261169433594,136.68275451660156,-95.05805969238281,-90.72596740722656,-90.6859359741211
0.06686115264892578,-6.372940540313721,-83.19261169433594,136.68275451660156,-95.05805969238281,-90.72596740722656,-90.6859359741211
0.06903743743896484,-6.37272310256958,-83.19282531738281,136.68296813964844,-95.05805969238281,-90.72596740722656,-90.68572235107422
0.07124686241149902,-6.37272310256958,-83.19282531738281,136.68296813964844,-95.05805969238281,-90.72596740722656,-90.68572235107422
0.0734703540802002,-6.37272310256958,-83.19282531738281,136.68296813964844,-95.05805969238281,-90.72596740722656,-90.68572235107422
0.07566571235656738,-6.37272310256958,-83.19282531738281,136.68296813964844,-95.05805969238281,-90.72596740722656,-90.68572235107422
0.07800459861755371,-6.372940540313721,-83.19304656982422,136.68296813964844,-95.05805969238281,-90.72596740722656,-90.68572235107422
0.08021068572998047,-6.372940540313721,-83.19304656982422,136.68296813964844,-95.05805969238281,-90.72596740722656,-90.68572235107422
0.08242440223693848,-6.372940540313721,-83.19304656982422,136.68296813964844,-95.05805969238281,-90.72596740722656,-90.68572235107422
0.0847468376159668,-6.372940540313721,-83.19304656982422,136.68296813964844,-95.05805969238281,-90.72596740722656,-90.68572235107422
0.08790469169616699,-6.373157978057861,-83.19282531738281,136.68275451660156,-95.05805969238281,-90.72618865966797,-90.68572235107422
0.09008288383483887,-6.373157978057861,-83.19282531738281,136.68275451660156,-95.05805969238281,-90.72618865966797,-90.68572235107422
0.09236335754394531,-6.373157978057861,-83.19282531738281,136.68275451660156,-95.05805969238281,-90.72618865966797,-90.68572235107422
0.0946662425994873,-6.373157978057861,-83.19282531738281,136.68275451660156,-95.05805969238281,-90.72618865966797,-90.68572235107422
0.09684395790100098,-6.373157978057861,-83.19282531738281,136.68275451660156,-95.05805969238281,-90.72618865966797,-90.68572235107422
0.09902501106262207,-6.372940540313721,-83.19282531738281,136.68296813964844,-95.05805969238281,-90.72596740722656,-90.6859359741211
0.10129117965698242,-6.372940540313721,-83.19282531738281,136.68296813964844,-95.05805969238281,-90.72596740722656,-90.6859359741211
0.10362863540649414,-6.372940540313721,-83.19282531738281,136.68296813964844,-95.05805969238281,-90.72596740722656,-90.6859359741211
0.10581326484680176,-6.372940540313721,-83.19282531738281,136.68296813964844,-95.05805969238281,-90.72596740722656,-90.6859359741211
0.10818052291870117,-6.372940540313721,-83.19282531738281,136.68296813964844,-95.05805969238281,-90.72618865966797,-90.6859359741211
0.11046504974365234,-6.372940540313721,-83.19282531738281,136.68296813964844,-95.05805969238281,-90.72618865966797,-90.6859359741211
0.11272120475769043,-6.372940540313721,-83.19282531738281,136.68296813964844,-95.05805969238281,-90.72618865966797,-90.6859359741211
0.11489391326904297,-6.372940540313721,-83.19282531738281,136.68296813964844,-95.05805969238281,-90.72618865966797,-90.6859359741211
0.11791563034057617,-6.372940540313721,-83.19282531738281,136.68296813964844,-95.05805969238281,-90.72596740722656,-90.68572235107422
0.12009215354919434,-6.372940540313721,-83.19282531738281,136.68296813964844,-95.05805969238281,-90.72596740722656,-90.68572235107422
0.12237906455993652,-6.372940540313721,-83.19282531738281,136.68296813964844,-95.05805969238281,-90.72596740722656,-90.68572235107422
0.1246950626373291,-6.372940540313721,-83.19282531738281,136.68296813964844,-95.05805969238281,-90.72596740722656,-90.68572235107422
0.12688660621643066,-6.372940540313721,-83.19282531738281,136.68296813964844,-95.05805969238281,-90.72596740722656,-90.68572235107422
0.12906765937805176,-6.372940540313721,-83.19304656982422,136.68275451660156,-95.05828094482422,-90.72575378417969,-90.6859359741211
0.13135457038879395,-6.372940540313721,-83.19304656982422,136.68275451660156,-95.05828094482422,-90.72575378417969,-90.6859359741211
0.13365650177001953,-6.372940540313721,-83.19304656982422,136.68275451660156,-95.05828094482422,-90.72575378417969,-90.6859359741211
0.13582921028137207,-6.372940540313721,-83.19304656982422,136.68275451660156,-95.05828094482422,-90.72575378417969,-90.6859359741211
0.13800716400146484,-6.373157978057861,-83.19282531738281,136.68275451660156,-95.05805969238281,-90.72575378417969,-90.68572235107422
0.14011311531066895,-6.373157978057861,-83.19282531738281,136.68275451660156,-95.05805969238281,-90.72575378417969,-90.68572235107422
0.14220094680786133,-6.373157978057861,-83.19282531738281,136.68275451660156,-95.05805969238281,-90.72575378417969,-90.68572235107422
0.14430570602416992,-6.373157978057861,-83.19282531738281,136.68275451660156,-95.05805969238281,-90.72575378417969,-90.68572235107422
0.1463909149169922,-6.373157978057861,-83.19282531738281,136.68275451660156,-95.05805969238281,-90.72575378417969,-90.68572235107422
0.1484830379486084,-6.372940540313721,-83.19282531738281,136.68275451660156,-95.05805969238281,-90.72596740722656,-90.68572235107422
0.1505270004272461,-6.372940540313721,-83.19282531738281,136.68275451660156,-95.05805969238281,-90.72596740722656,-90.68572235107422
0.15261387825012207,-6.372940540313721,-83.19282531738281,136.68275451660156,-95.05805969238281,-90.72596740722656,-90.68572235107422
0.15469789505004883,-6.372940540313721,-83.19282531738281,136.68275451660156,-95.05805969238281,-90.72596740722656,-90.68572235107422
0.1578371524810791,-6.372940540313721,-83.19282531738281,136.6825408935547,-95.05805969238281,-90.72596740722656,-90.6859359741211
0.15992426872253418,-6.372940540313721,-83.19282531738281,136.6825408935547,-95.05805969238281,-90.72596740722656,-90.6859359741211
0.16200852394104004,-6.372940540313721,-83.19282531738281,136.6825408935547,-95.05805969238281,-90.72596740722656,-90.6859359741211
0.1640927791595459,-6.372940540313721,-83.19282531738281,136.6825408935547,-95.05805969238281,-90.72596740722656,-90.6859359741211
0.16617679595947266,-6.372940540313721,-83.19282531738281,136.6825408935547,-95.05805969238281,-90.72596740722656,-90.6859359741211
0.16826462745666504,-6.372940540313721,-83.19282531738281,136.68296813964844,-95.05805969238281,-90.72596740722656,-90.68572235107422
0.1703495979309082,-6.372940540313721,-83.19282531738281,136.68296813964844,-95.05805969238281,-90.72596740722656,-90.68572235107422
0.17243313789367676,-6.372940540313721,-83.19282531738281,136.68296813964844,-95.05805969238281,-90.72596740722656,-90.68572235107422
0.1745281219482422,-6.372940540313721,-83.19282531738281,136.68296813964844,-95.05805969238281,-90.72596740722656,-90.68572235107422
0.17661261558532715,-6.372940540313721,-83.19282531738281,136.68296813964844,-95.05805969238281,-90.72596740722656,-90.68572235107422
0.1786956787109375,-6.372940540313721,-83.19282531738281,136.68275451660156,-95.05805969238281,-90.72596740722656,-90.6859359741211
0.1807701587677002,-6.372940540313721,-83.19282531738281,136.68275451660156,-95.05805969238281,-90.72596740722656,-90.6859359741211
0.18285799026489258,-6.372940540313721,-83.19282531738281,136.68275451660156,-95.05805969238281,-90.72596740722656,-90.6859359741211
0.18494009971618652,-6.372940540313721,-83.19282531738281,136.68275451660156,-95.05805969238281,-90.72596740722656,-90.6859359741211
0.1871929168701172,-6.373157978057861,-83.19282531738281,136.6825408935547,-95.05784606933594,-90.72596740722656,-90.6859359741211
0.18926286697387695,-6.373157978057861,-83.19282531738281,136.6825408935547,-95.05784606933594,-90.72596740722656,-90.6859359741211
0.19135236740112305,-6.373157978057861,-83.19282531738281,136.6825408935547,-95.05784606933594,-90.72596740722656,-90.6859359741211
0.19343781471252441,-6.373157978057861,-83.19282531738281,136.6825408935547,-95.05784606933594,-90.72596740722656,-90.6859359741211
0.19551992416381836,-6.373157978057861,-83.19282531738281,136.6825408935547,-95.05784606933594,-90.72596740722656,-90.6859359741211
0.19759917259216309,-6.372940540313721,-83.19282531738281,136.68296813964844,-95.05805969238281,-90.72596740722656,-90.68572235107422
0.19970083236694336,-6.372940540313721,-83.19282531738281,136.68296813964844,-95.05805969238281,-90.72596740722656,-90.68572235107422
0.20178699493408203,-6.372940540313721,-83.19282531738281,136.68296813964844,-95.05805969238281,-90.72596740722656,-90.68572235107422
0.2038712501525879,-6.372940540313721,-83.19282531738281,136.68296813964844,-95.05805969238281,-90.72596740722656,-90.68572235107422
0.20595598220825195,-6.372940540313721,-83.19282531738281,136.68296813964844,-95.05805969238281,-90.72596740722656,-90.68572235107422
0.20804357528686523,-6.372940540313721,-83.19282531738281,136.68275451660156,-95.05805969238281,-90.72618865966797,-90.68572235107422
0.21013712882995605,-6.372940540313721,-83.19282531738281,136.68275451660156,-95.05805969238281,-90.72618865966797,-90.68572235107422
0.21222519874572754,-6.372940540313721,-83.19282531738281,136.68275451660156,-95.05805969238281,-90.72618865966797,-90.68572235107422
0.21431398391723633,-6.372940540313721,-83.19282531738281,136.68275451660156,-95.05805969238281,-90.72618865966797,-90.68572235107422
0.21640229225158691,-6.372940540313721,-83.19282531738281,136.68275451660156,-95.05805969238281,-90.72618865966797,-90.68572235107422
0.21869754791259766,-6.372940540313721,-83.19282531738281,136.6825408935547,-95.05805969238281,-90.72618865966797,-90.68572235107422
0.2209005355834961,-6.372940540313721,-83.19282531738281,136.6825408935547,-95.05805969238281,-90.72618865966797,-90.68572235107422
0.22308635711669922,-6.372940540313721,-83.19282531738281,136.6825408935547,-95.05805969238281,-90.72618865966797,-90.68572235107422
0.22537708282470703,-6.372940540313721,-83.19282531738281,136.6825408935547,-95.05805969238281,-90.72618865966797,-90.68572235107422
0.22805142402648926,-6.37272310256958,-83.19282531738281,136.68275451660156,-95.05805969238281,-90.72596740722656,-90.6859359741211
0.2303166389465332,-6.37272310256958,-83.19282531738281,136.68275451660156,-95.05805969238281,-90.72596740722656,-90.6859359741211
0.23263001441955566,-6.37272310256958,-83.19282531738281,136.68275451660156,-95.05805969238281,-90.72596740722656,-90.6859359741211
0.2348039150238037,-6.37272310256958,-83.19282531738281,136.68275451660156,-95.05805969238281,-90.72596740722656,-90.6859359741211
0.23801684379577637,-6.373157978057861,-83.19304656982422,136.68296813964844,-95.05805969238281,-90.72618865966797,-90.68572235107422
0.24027395248413086,-6.373157978057861,-83.19304656982422,136.68296813964844,-95.05805969238281,-90.72618865966797,-90.68572235107422
0.24259424209594727,-6.373157978057861,-83.19304656982422,136.68296813964844,-95.05805969238281,-90.72618865966797,-90.68572235107422
0.2447681427001953,-6.373157978057861,-83.19304656982422,136.68296813964844,-95.05805969238281,-90.72618865966797,-90.68572235107422
0.24799799919128418,-6.372940540313721,-83.19282531738281,136.68275451660156,-95.05805969238281,-90.72596740722656,-90.6859359741211
0.2502562999725342,-6.372940540313721,-83.19282531738281,136.68275451660156,-95.05805969238281,-90.72596740722656,-90.6859359741211
0.2525665760040283,-6.372940540313721,-83.19282531738281,136.68275451660156,-95.05805969238281,-90.72596740722656,-90.6859359741211
0.25472164154052734,-6.372940540313721,-83.19282531738281,136.68275451660156,-95.05805969238281,-90.72596740722656,-90.6859359741211
0.2578446865081787,-6.37272310256958,-83.19304656982422,136.68275451660156,-95.05828094482422,-90.72618865966797,-90.68572235107422
0.2600283622741699,-6.37272310256958,-83.19304656982422,136.68275451660156,-95.05828094482422,-90.72618865966797,-90.68572235107422
0.2622990608215332,-6.37272310256958,-83.19304656982422,136.68275451660156,-95.05828094482422,-90.72618865966797,-90.68572235107422
0.264615535736084,-6.37272310256958,-83.19304656982422,136.68275451660156,-95.05828094482422,-90.72618865966797,-90.68572235107422
0.2668418884277344,-6.37272310256958,-83.19304656982422,136.68275451660156,-95.05828094482422,-90.72618865966797,-90.68572235107422
0.26911258697509766,-6.372940540313721,-83.19282531738281,136.68275451660156,-95.05805969238281,-90.72596740722656,-90.6859359741211
0.27139759063720703,-6.372940540313721,-83.19282531738281,136.68275451660156,-95.05805969238281,-90.72596740722656,-90.6859359741211
0.27367687225341797,-6.372940540313721,-83.19282531738281,136.68275451660156,-95.05805969238281,-90.72596740722656,-90.6859359741211
0.2758617401123047,-6.372940540313721,-83.19282531738281,136.68275451660156,-95.05805969238281,-90.72596740722656,-90.6859359741211
0.2780489921569824,-6.372940540313721,-83.19282531738281,136.68275451660156,-95.05828094482422,-90.72618865966797,-90.68572235107422
0.28027987480163574,-6.372940540313721,-83.19282531738281,136.68275451660156,-95.05828094482422,-90.72618865966797,-90.68572235107422
0.2825605869293213,-6.372940540313721,-83.19282531738281,136.68275451660156,-95.05828094482422,-90.72618865966797,-90.68572235107422
0.2846965789794922,-6.372940540313721,-83.19282531738281,136.68275451660156,-95.05828094482422,-90.72618865966797,-90.68572235107422
0.28748583793640137,-6.373157978057861,-83.19282531738281,136.68275451660156,-95.05828094482422,-90.72618865966797,-90.68572235107422
0.2897214889526367,-6.373157978057861,-83.19282531738281,136.68275451660156,-95.05828094482422,-90.72618865966797,-90.68572235107422
0.29191064834594727,-6.373157978057861,-83.19282531738281,136.68275451660156,-95.05828094482422,-90.72618865966797,-90.68572235107422
0.29408693313598633,-6.373157978057861,-83.19282531738281,136.68275451660156,-95.05828094482422,-90.72618865966797,-90.68572235107422
0.2963755130767822,-6.373157978057861,-83.19282531738281,136.68275451660156,-95.05828094482422,-90.72618865966797,-90.68572235107422
0.29865264892578125,-6.372940540313721,-83.19304656982422,136.68275451660156,-95.05805969238281,-90.72596740722656,-90.68572235107422
0.30083560943603516,-6.372940540313721,-83.19304656982422,136.68275451660156,-95.05805969238281,-90.72596740722656,-90.68572235107422
0.3030211925506592,-6.372940540313721,-83.19304656982422,136.68275451660156,-95.05805969238281,-90.72596740722656,-90.68572235107422
0.30529308319091797,-6.372940540313721,-83.19304656982422,136.68275451660156,-95.05805969238281,-90.72596740722656,-90.68572235107422
0.3080258369445801,-6.372940540313721,-83.19282531738281,136.68275451660156,-95.05805969238281,-90.72618865966797,-90.68572235107422
0.3103170394897461,-6.372940540313721,-83.19282531738281,136.68275451660156,-95.05805969238281,-90.72618865966797,-90.68572235107422
0.312610387802124,-6.372940540313721,-83.19282531738281,136.68275451660156,-95.05805969238281,-90.72618865966797,-90.68572235107422
0.31479597091674805,-6.372940540313721,-83.19282531738281,136.68275451660156,-95.05805969238281,-90.72618865966797,-90.68572235107422
0.31794023513793945,-6.372940540313721,-83.19282531738281,136.68296813964844,-95.05805969238281,-90.72596740722656,-90.6859359741211
0.3201165199279785,-6.372940540313721,-83.19282531738281,136.68296813964844,-95.05805969238281,-90.72596740722656,-90.6859359741211
0.3223879337310791,-6.372940540313721,-83.19282531738281,136.68296813964844,-95.05805969238281,-90.72596740722656,-90.6859359741211
0.3246781826019287,-6.372940540313721,-83.19282531738281,136.68296813964844,-95.05805969238281,-90.72596740722656,-90.6859359741211
0.32686328887939453,-6.372940540313721,-83.19282531738281,136.68296813964844,-95.05805969238281,-90.72596740722656,-90.6859359741211
0.329042911529541,-6.372940540313721,-83.19282531738281,136.68275451660156,-95.05805969238281,-90.72618865966797,-90.68572235107422
0.3313279151916504,-6.372940540313721,-83.19282531738281,136.68275451660156,-95.05805969238281,-90.72618865966797,-90.68572235107422
0.3336446285247803,-6.372940540313721,-83.19282531738281,136.68275451660156,-95.05805969238281,-90.72618865966797,-90.68572235107422
0.335829496383667,-6.372940540313721,-83.19282531738281,136.68275451660156,-95.05805969238281,-90.72618865966797,-90.68572235107422
0.3380763530731201,-6.373157978057861,-83.19282531738281,136.68275451660156,-95.05805969238281,-90.72618865966797,-90.6859359741211
0.3403658866882324,-6.373157978057861,-83.19282531738281,136.68275451660156,-95.05805969238281,-90.72618865966797,-90.6859359741211
0.34267520904541016,-6.373157978057861,-83.19282531738281,136.68275451660156,-95.05805969238281,-90.72618865966797,-90.6859359741211
0.3448793888092041,-6.373157978057861,-83.19282531738281,136.68275451660156,-95.05805969238281,-90.72618865966797,-90.6859359741211
0.3480043411254883,-6.373157978057861,-83.19304656982422,136.68275451660156,-95.05805969238281,-90.72618865966797,-90.68572235107422
0.35029172897338867,-6.373157978057861,-83.19304656982422,136.68275451660156,-95.05805969238281,-90.72618865966797,-90.68572235107422
0.3526005744934082,-6.373157978057861,-83.19304656982422,136.68275451660156,-95.05805969238281,-90.72618865966797,-90.68572235107422
0.3547859191894531,-6.373157978057861,-83.19304656982422,136.68275451660156,-95.05805969238281,-90.72618865966797,-90.68572235107422
0.3579404354095459,-6.372940540313721,-83.19282531738281,136.68275451660156,-95.05805969238281,-90.72596740722656,-90.68572235107422
0.3601243495941162,-6.372940540313721,-83.19282531738281,136.68275451660156,-95.05805969238281,-90.72596740722656,-90.68572235107422
0.3624110221862793,-6.372940540313721,-83.19282531738281,136.68275451660156,-95.05805969238281,-90.72596740722656,-90.68572235107422
0.3647189140319824,-6.372940540313721,-83.19282531738281,136.68275451660156,-95.05805969238281,-90.72596740722656,-90.68572235107422
0.367936372756958,-6.372940540313721,-83.19282531738281,136.68275451660156,-95.05805969238281,-90.72596740722656,-90.6859359741211
0.37011027336120605,-6.372940540313721,-83.19282531738281,136.68275451660156,-95.05805969238281,-90.72596740722656,-90.6859359741211
0.3723633289337158,-6.372940540313721,-83.19282531738281,136.68275451660156,-95.05805969238281,-90.72596740722656,-90.6859359741211
0.37465810775756836,-6.372940540313721,-83.19282531738281,136.68275451660156,-95.05805969238281,-90.72596740722656,-90.6859359741211
0.37776756286621094,-6.372940540313721,-83.19304656982422,136.68296813964844,-95.05805969238281,-90.72596740722656,-90.68572235107422
0.37993955612182617,-6.372940540313721,-83.19304656982422,136.68296813964844,-95.05805969238281,-90.72596740722656,-90.68572235107422
0.38211703300476074,-6.372940540313721,-83.19304656982422,136.68296813964844,-95.05805969238281,-90.72596740722656,-90.68572235107422
0.3844008445739746,-6.372940540313721,-83.19304656982422,136.68296813964844,-95.05805969238281,-90.72596740722656,-90.68572235107422
0.3867490291595459,-6.372940540313721,-83.19304656982422,136.68296813964844,-95.05805969238281,-90.72596740722656,-90.68572235107422
0.3889486789703369,-6.37272310256958,-83.19282531738281,136.68275451660156,-95.05805969238281,-90.72596740722656,-90.6859359741211
0.39124035835266113,-6.37272310256958,-83.19282531738281,136.68275451660156,-95.05805969238281,-90.72596740722656,-90.6859359741211
0.39357781410217285,-6.37272310256958,-83.19282531738281,136.68275451660156,-95.05805969238281,-90.72596740722656,-90.6859359741211
0.3957486152648926,-6.37272310256958,-83.19282531738281,136.68275451660156,-95.05805969238281,-90.72596740722656,-90.6859359741211
0.3979153633117676,-6.372940540313721,-83.19282531738281,136.68296813964844,-95.05805969238281,-90.72618865966797,-90.6859359741211
0.400083065032959,-6.372940540313721,-83.19282531738281,136.68296813964844,-95.05805969238281,-90.72618865966797,-90.6859359741211
0.4023604393005371,-6.372940540313721,-83.19282531738281,136.68296813964844,-95.05805969238281,-90.72618865966797,-90.6859359741211
0.4046595096588135,-6.372940540313721,-83.19282531738281,136.68296813964844,-95.05805969238281,-90.72618865966797,-90.6859359741211
0.4068310260772705,-6.372940540313721,-83.19282531738281,136.68296813964844,-95.05805969238281,-90.72618865966797,-90.6859359741211
0.40900325775146484,-6.372940540313721,-83.19282531738281,136.68275451660156,-95.05805969238281,-90.72596740722656,-90.68572235107422
0.41127586364746094,-6.372940540313721,-83.19282531738281,136.68275451660156,-95.05805969238281,-90.72596740722656,-90.68572235107422
0.4135572910308838,-6.372940540313721,-83.19282531738281,136.68275451660156,-95.05805969238281,-90.72596740722656,-90.68572235107422
0.4157383441925049,-6.372940540313721,-83.19282531738281,136.68275451660156,-95.05805969238281,-90.72596740722656,-90.68572235107422
0.4180905818939209,-6.372940540313721,-83.19282531738281,136.68275451660156,-95.05805969238281,-90.72618865966797,-90.6859359741211
0.42039060592651367,-6.372940540313721,-83.19282531738281,136.68275451660156,-95.05805969238281,-90.72618865966797,-90.6859359741211
0.42267656326293945,-6.372940540313721,-83.19282531738281,136.68275451660156,-95.05805969238281,-90.72618865966797,-90.6859359741211
0.4248476028442383,-6.372940540313721,-83.19282531738281,136.68275451660156,-95.05805969238281,-90.72618865966797,-90.6859359741211
0.42786097526550293,-6.372940540313721,-83.19282531738281,136.68275451660156,-95.05805969238281,-90.72596740722656,-90.68572235107422
0.4301109313964844,-6.372940540313721,-83.19282531738281,136.68275451660156,-95.05805969238281,-90.72596740722656,-90.68572235107422
0.43228650093078613,-6.372940540313721,-83.19282531738281,136.68275451660156,-95.05805969238281,-90.72596740722656,-90.68572235107422
0.43453192710876465,-6.372940540313721,-83.19282531738281,136.68275451660156,-95.05805969238281,-90.72596740722656,-90.68572235107422
0.4366476535797119,-6.372940540313721,-83.19282531738281,136.68275451660156,-95.05805969238281,-90.72596740722656,-90.68572235107422
0.4387664794921875,-6.37272310256958,-83.19282531738281,136.68275451660156,-95.05805969238281,-90.72596740722656,-90.68572235107422
0.4408731460571289,-6.37272310256958,-83.19282531738281,136.68275451660156,-95.05805969238281,-90.72596740722656,-90.68572235107422
0.4430091381072998,-6.37272310256958,-83.19282531738281,136.68275451660156,-95.05805969238281,-90.72596740722656,-90.68572235107422
0.4451918601989746,-6.37272310256958,-83.19282531738281,136.68275451660156,-95.05805969238281,-90.72596740722656,-90.68572235107422
0.44730257987976074,-6.373157978057861,-83.19282531738281,136.68296813964844,-95.05828094482422,-90.72596740722656,-90.6859359741211
0.4494774341583252,-6.373157978057861,-83.19282531738281,136.68296813964844,-95.05828094482422,-90.72596740722656,-90.6859359741211
0.4516141414642334,-6.373157978057861,-83.19282531738281,136.68296813964844,-95.05828094482422,-90.72596740722656,-90.6859359741211
0.45377159118652344,-6.373157978057861,-83.19282531738281,136.68296813964844,-95.05828094482422,-90.72596740722656,-90.6859359741211
0.4558835029602051,-6.373157978057861,-83.19282531738281,136.68296813964844,-95.05828094482422,-90.72596740722656,-90.6859359741211
0.45806431770324707,-6.37272310256958,-83.19304656982422,136.68275451660156,-95.05828094482422,-90.72596740722656,-90.68572235107422
0.4602506160736084,-6.37272310256958,-83.19304656982422,136.68275451660156,-95.05828094482422,-90.72596740722656,-90.68572235107422
0.462435245513916,-6.37272310256958,-83.19304656982422,136.68275451660156,-95.05828094482422,-90.72596740722656,-90.68572235107422
0.4646892547607422,-6.37272310256958,-83.19304656982422,136.68275451660156,-95.05828094482422,-90.72596740722656,-90.68572235107422
0.4672889709472656,-6.372940540313721,-83.19282531738281,136.68275451660156,-95.05805969238281,-90.72618865966797,-90.68572235107422
0.46955251693725586,-6.372940540313721,-83.19282531738281,136.68275451660156,-95.05805969238281,-90.72618865966797,-90.68572235107422
0.471698522567749,-6.372940540313721,-83.19282531738281,136.68275451660156,-95.05805969238281,-90.72618865966797,-90.68572235107422
0.4738459587097168,-6.372940540313721,-83.19282531738281,136.68275451660156,-95.05805969238281,-90.72618865966797,-90.68572235107422
0.4760289192199707,-6.372940540313721,-83.19282531738281,136.68275451660156,-95.05805969238281,-90.72618865966797,-90.68572235107422
0.47832560539245605,-6.372940540313721,-83.19304656982422,136.68275451660156,-95.05805969238281,-90.72575378417969,-90.68572235107422
0.48060178756713867,-6.372940540313721,-83.19304656982422,136.68275451660156,-95.05805969238281,-90.72575378417969,-90.68572235107422
0.4827876091003418,-6.372940540313721,-83.19304656982422,136.68275451660156,-95.05805969238281,-90.72575378417969,-90.68572235107422
0.48496150970458984,-6.372940540313721,-83.19304656982422,136.68275451660156,-95.05805969238281,-90.72575378417969,-90.68572235107422
0.488008975982666,-6.372940540313721,-83.19282531738281,136.68296813964844,-95.05805969238281,-90.72596740722656,-90.6859359741211
0.4902760982513428,-6.372940540313721,-83.19282531738281,136.68296813964844,-95.05805969238281,-90.72596740722656,-90.6859359741211
0.49258971214294434,-6.372940540313721,-83.19282531738281,136.68296813964844,-95.05805969238281,-90.72596740722656,-90.6859359741211
0.4947776794433594,-6.372940540313721,-83.19282531738281,136.68296813964844,-95.05805969238281,-90.72596740722656,-90.6859359741211
0.4979972839355469,-6.373157978057861,-83.19282531738281,136.68319702148438,-95.05805969238281,-90.72596740722656,-90.6859359741211
0.5002813339233398,-6.373157978057861,-83.19282531738281,136.68319702148438,-95.05805969238281,-90.72596740722656,-90.6859359741211
0.5025761127471924,-6.373157978057861,-83.19282531738281,136.68319702148438,-95.05805969238281,-90.72596740722656,-90.6859359741211
0.5047173500061035,-6.373157978057861,-83.19282531738281,136.68319702148438,-95.05805969238281,-90.72596740722656,-90.6859359741211
0.5078170299530029,-6.372940540313721,-83.19304656982422,136.68275451660156,-95.05828094482422,-90.72596740722656,-90.68572235107422
0.5099711418151855,-6.372940540313721,-83.19304656982422,136.68275451660156,-95.05828094482422,-90.72596740722656,-90.68572235107422
0.5122458934783936,-6.372940540313721,-83.19304656982422,136.68275451660156,-95.05828094482422,-90.72596740722656,-90.68572235107422
0.5145530700683594,-6.372940540313721,-83.19304656982422,136.68275451660156,-95.05828094482422,-90.72596740722656,-90.68572235107422
0.5167460441589355,-6.372940540313721,-83.19304656982422,136.68275451660156,-95.05828094482422,-90.72596740722656,-90.68572235107422
0.5189192295074463,-6.372940540313721,-83.19282531738281,136.68275451660156,-95.05805969238281,-90.72596740722656,-90.68572235107422
0.5211055278778076,-6.372940540313721,-83.19282531738281,136.68275451660156,-95.05805969238281,-90.72596740722656,-90.68572235107422
0.5234038829803467,-6.372940540313721,-83.19282531738281,136.68275451660156,-95.05805969238281,-90.72596740722656,-90.68572235107422
0.5257227420806885,-6.372940540313721,-83.19282531738281,136.68275451660156,-95.05805969238281,-90.72596740722656,-90.68572235107422
0.5280215740203857,-6.372940540313721,-83.19282531738281,136.68296813964844,-95.05805969238281,-90.72618865966797,-90.68572235107422
0.5302765369415283,-6.372940540313721,-83.19282531738281,136.68296813964844,-95.05805969238281,-90.72618865966797,-90.68572235107422
0.5325765609741211,-6.372940540313721,-83.19282531738281,136.68296813964844,-95.05805969238281,-90.72618865966797,-90.68572235107422
0.534733772277832,-6.372940540313721,-83.19282531738281,136.68296813964844,-95.05805969238281,-90.72618865966797,-90.68572235107422
0.5379378795623779,-6.372940540313721,-83.19304656982422,136.68275451660156,-95.05805969238281,-90.72596740722656,-90.68572235107422
0.5401098728179932,-6.372940540313721,-83.19304656982422,136.68275451660156,-95.05805969238281,-90.72596740722656,-90.68572235107422
0.5423147678375244,-6.372940540313721,-83.19304656982422,136.68275451660156,-95.05805969238281,-90.72596740722656,-90.68572235107422
0.5445952415466309,-6.372940540313721,-83.19304656982422,136.68275451660156,-95.05805969238281,-90.72596740722656,-90.68572235107422
0.5467305183410645,-6.372940540313721,-83.19304656982422,136.68275451660156,-95.05805969238281,-90.72596740722656,-90.68572235107422
0.5488648414611816,-6.372940540313721,-83.19282531738281,136.68275451660156,-95.05805969238281,-90.72596740722656,-90.68572235107422
0.5510232448577881,-6.372940540313721,-83.19282531738281,136.68275451660156,-95.05805969238281,-90.72596740722656,-90.68572235107422
0.5532901287078857,-6.372940540313721,-83.19282531738281,136.68275451660156,-95.05805969238281,-90.72596740722656,-90.68572235107422
0.5555956363677979,-6.372940540313721,-83.19282531738281,136.68275451660156,-95.05805969238281,-90.72596740722656,-90.68572235107422
0.5577623844146729,-6.372940540313721,-83.19282531738281,136.68275451660156,-95.05805969238281,-90.72618865966797,-90.68572235107422
0.5599477291107178,-6.372940540313721,-83.19282531738281,136.68275451660156,-95.05805969238281,-90.72618865966797,-90.68572235107422
0.5621345043182373,-6.372940540313721,-83.19282531738281,136.68275451660156,-95.05805969238281,-90.72618865966797,-90.68572235107422
0.5644283294677734,-6.372940540313721,-83.19282531738281,136.68275451660156,-95.05805969238281,-90.72618865966797,-90.68572235107422
0.5667581558227539,-6.372940540313721,-83.19282531738281,136.68275451660156,-95.05805969238281,-90.72618865966797,-90.68572235107422
0.5689451694488525,-6.372940540313721,-83.19304656982422,136.68275451660156,-95.05805969238281,-90.72618865966797,-90.68550109863281
0.5711309909820557,-6.372940540313721,-83.19304656982422,136.68275451660156,-95.05805969238281,-90.72618865966797,-90.68550109863281
0.5733828544616699,-6.372940540313721,-83.19304656982422,136.68275451660156,-95.05805969238281,-90.72618865966797,-90.68550109863281
0.5756208896636963,-6.372940540313721,-83.19304656982422,136.68275451660156,-95.05805969238281,-90.72618865966797,-90.68550109863281
0.5777831077575684,-6.372940540313721,-83.19304656982422,136.68296813964844,-95.05805969238281,-90.72596740722656,-90.68572235107422
0.57993483543396,-6.372940540313721,-83.19304656982422,136.68296813964844,-95.05805969238281,-90.72596740722656,-90.68572235107422
0.5821554660797119,-6.372940540313721,-83.19304656982422,136.68296813964844,-95.05805969238281,-90.72596740722656,-90.68572235107422
0.5843815803527832,-6.372940540313721,-83.19304656982422,136.68296813964844,-95.05805969238281,-90.72596740722656,-90.68572235107422
0.5866284370422363,-6.372940540313721,-83.19304656982422,136.68296813964844,-95.05805969238281,-90.72596740722656,-90.68572235107422
0.588799238204956,-6.37272310256958,-83.19282531738281,136.68275451660156,-95.05805969238281,-90.72618865966797,-90.6859359741211
0.5909719467163086,-6.37272310256958,-83.19282531738281,136.68275451660156,-95.05805969238281,-90.72618865966797,-90.6859359741211
0.5932552814483643,-6.37272310256958,-83.19282531738281,136.68275451660156,-95.05805969238281,-90.72618865966797,-90.6859359741211
0.5955426692962646,-6.37272310256958,-83.19282531738281,136.68275451660156,-95.05805969238281,-90.72618865966797,-90.6859359741211
0.5979406833648682,-6.372940540313721,-83.19304656982422,136.68275451660156,-95.05805969238281,-90.72618865966797,-90.6859359741211
0.600144624710083,-6.372940540313721,-83.19304656982422,136.68275451660156,-95.05805969238281,-90.72618865966797,-90.6859359741211
0.6023802757263184,-6.372940540313721,-83.19304656982422,136.68275451660156,-95.05805969238281,-90.72618865966797,-90.6859359741211
0.6046919822692871,-6.372940540313721,-83.19304656982422,136.68275451660156,-95.05805969238281,-90.72618865966797,-90.6859359741211
0.6079251766204834,-6.372940540313721,-83.1932601928711,136.68296813964844,-95.05805969238281,-90.72618865966797,-90.6859359741211
0.6101086139678955,-6.372940540313721,-83.1932601928711,136.68296813964844,-95.05805969238281,-90.72618865966797,-90.6859359741211
0.6123678684234619,-6.372940540313721,-83.1932601928711,136.68296813964844,-95.05805969238281,-90.72618865966797,-90.6859359741211
0.6146163940429688,-6.372940540313721,-83.1932601928711,136.68296813964844,-95.05805969238281,-90.72618865966797,-90.6859359741211
0.616765022277832,-6.372940540313721,-83.1932601928711,136.68296813964844,-95.05805969238281,-90.72618865966797,-90.6859359741211
0.6188855171203613,-6.372940540313721,-83.1934814453125,136.68275451660156,-95.05805969238281,-90.72596740722656,-90.6859359741211
0.621018648147583,-6.372940540313721,-83.1934814453125,136.68275451660156,-95.05805969238281,-90.72596740722656,-90.6859359741211
0.6232113838195801,-6.372940540313721,-83.1934814453125,136.68275451660156,-95.05805969238281,-90.72596740722656,-90.6859359741211
0.6254005432128906,-6.372940540313721,-83.1934814453125,136.68275451660156,-95.05805969238281,-90.72596740722656,-90.6859359741211
0.6276021003723145,-6.372940540313721,-83.19369506835938,136.68296813964844,-95.05805969238281,-90.72596740722656,-90.6859359741211
0.6297187805175781,-6.372940540313721,-83.19369506835938,136.68296813964844,-95.05805969238281,-90.72596740722656,-90.6859359741211
0.6318402290344238,-6.372940540313721,-83.19369506835938,136.68296813964844,-95.05805969238281,-90.72596740722656,-90.6859359741211
0.6339724063873291,-6.372940540313721,-83.19369506835938,136.68296813964844,-95.05805969238281,-90.72596740722656,-90.6859359741211
0.6361174583435059,-6.372940540313721,-83.19369506835938,136.68296813964844,-95.05805969238281,-90.72596740722656,-90.6859359741211
0.6383240222930908,-6.372940540313721,-83.19391632080078,136.68275451660156,-95.05805969238281,-90.72618865966797,-90.68572235107422
0.6405258178710938,-6.372940540313721,-83.19391632080078,136.68275451660156,-95.05805969238281,-90.72618865966797,-90.68572235107422
0.6426503658294678,-6.372940540313721,-83.19391632080078,136.68275451660156,-95.05805969238281,-90.72618865966797,-90.68572235107422
0.644761323928833,-6.372940540313721,-83.19391632080078,136.68275451660156,-95.05805969238281,-90.72618865966797,-90.68572235107422
0.6473562717437744,-6.372940540313721,-83.19412994384766,136.68275451660156,-95.05828094482422,-90.72596740722656,-90.6859359741211
0.6496453285217285,-6.372940540313721,-83.19412994384766,136.68275451660156,-95.05828094482422,-90.72596740722656,-90.6859359741211
0.6517977714538574,-6.372940540313721,-83.19412994384766,136.68275451660156,-95.05828094482422,-90.72596740722656,-90.6859359741211
0.6539602279663086,-6.372940540313721,-83.19412994384766,136.68275451660156,-95.05828094482422,-90.72596740722656,-90.6859359741211
0.6561393737792969,-6.372940540313721,-83.19412994384766,136.68275451660156,-95.05828094482422,-90.72596740722656,-90.6859359741211
0.6584391593933105,-6.372940540313721,-83.19391632080078,136.68296813964844,-95.05805969238281,-90.72596740722656,-90.6859359741211
0.6607711315155029,-6.372940540313721,-83.19391632080078,136.68296813964844,-95.05805969238281,-90.72596740722656,-90.6859359741211
0.6629538536071777,-6.372940540313721,-83.19391632080078,136.68296813964844,-95.05805969238281,-90.72596740722656,-90.6859359741211
0.6651384830474854,-6.372940540313721,-83.19391632080078,136.68296813964844,-95.05805969238281,-90.72596740722656,-90.6859359741211
0.6680612564086914,-6.372940540313721,-83.19369506835938,136.68275451660156,-95.05828094482422,-90.72596740722656,-90.68572235107422
0.6703522205352783,-6.372940540313721,-83.19369506835938,136.68275451660156,-95.05828094482422,-90.72596740722656,-90.68572235107422
0.6726343631744385,-6.372940540313721,-83.19369506835938,136.68275451660156,-95.05828094482422,-90.72596740722656,-90.68572235107422
0.674818754196167,-6.372940540313721,-83.19369506835938,136.68275451660156,-95.05828094482422,-90.72596740722656,-90.68572235107422
0.678015947341919,-6.372940540313721,-83.19391632080078,136.6825408935547,-95.05805969238281,-90.72596740722656,-90.6859359741211
0.6802506446838379,-6.372940540313721,-83.19391632080078,136.6825408935547,-95.05805969238281,-90.72596740722656,-90.6859359741211
0.6825506687164307,-6.372940540313721,-83.19391632080078,136.6825408935547,-95.05805969238281,-90.72596740722656,-90.6859359741211
0.6846888065338135,-6.372940540313721,-83.19391632080078,136.6825408935547,-95.05805969238281,-90.72596740722656,-90.6859359741211
0.687690258026123,-6.372940540313721,-83.19391632080078,136.68275451660156,-95.05805969238281,-90.72618865966797,-90.6859359741211
0.6898603439331055,-6.372940540313721,-83.19391632080078,136.68275451660156,-95.05805969238281,-90.72618865966797,-90.6859359741211
0.6920371055603027,-6.372940540313721,-83.19391632080078,136.68275451660156,-95.05805969238281,-90.72618865966797,-90.6859359741211
0.6943292617797852,-6.372940540313721,-83.19391632080078,136.68275451660156,-95.05805969238281,-90.72618865966797,-90.6859359741211
0.6966300010681152,-6.372940540313721,-83.19391632080078,136.68275451660156,-95.05805969238281,-90.72618865966797,-90.6859359741211
0.6988186836242676,-6.372940540313721,-83.19391632080078,136.68296813964844,-95.05805969238281,-90.72618865966797,-90.6859359741211
0.7009906768798828,-6.372940540313721,-83.19391632080078,136.68296813964844,-95.05805969238281,-90.72618865966797,-90.6859359741211
0.7032680511474609,-6.372940540313721,-83.19391632080078,136.68296813964844,-95.05805969238281,-90.72618865966797,-90.6859359741211
0.7055728435516357,-6.372940540313721,-83.19391632080078,136.68296813964844,-95.05805969238281,-90.72618865966797,-90.6859359741211
0.7077970504760742,-6.372940540313721,-83.19391632080078,136.68275451660156,-95.05805969238281,-90.72618865966797,-90.6859359741211
0.7099809646606445,-6.372940540313721,-83.19391632080078,136.68275451660156,-95.05805969238281,-90.72618865966797,-90.6859359741211
0.7122912406921387,-6.372940540313721,-83.19391632080078,136.68275451660156,-95.05805969238281,-90.72618865966797,-90.6859359741211
0.7146196365356445,-6.372940540313721,-83.19391632080078,136.68275451660156,-95.05805969238281,-90.72618865966797,-90.6859359741211
0.7168376445770264,-6.372940540313721,-83.19391632080078,136.68275451660156,-95.05805969238281,-90.72618865966797,-90.6859359741211
0.7190170288085938,-6.372940540313721,-83.19412994384766,136.68296813964844,-95.05805969238281,-90.72596740722656,-90.68572235107422
0.7212691307067871,-6.372940540313721,-83.19412994384766,136.68296813964844,-95.05805969238281,-90.72596740722656,-90.68572235107422
0.7235720157623291,-6.372940540313721,-83.19412994384766,136.68296813964844,-95.05805969238281,-90.72596740722656,-90.68572235107422
0.725759744644165,-6.372940540313721,-83.19412994384766,136.68296813964844,-95.05805969238281,-90.72596740722656,-90.68572235107422
0.7279210090637207,-6.372940540313721,-83.19391632080078,136.68275451660156,-95.05784606933594,-90.72596740722656,-90.6859359741211
0.7300968170166016,-6.372940540313721,-83.19391632080078,136.68275451660156,-95.05784606933594,-90.72596740722656,-90.6859359741211
0.7324016094207764,-6.372940540313721,-83.19391632080078,136.68275451660156,-95.05784606933594,-90.72596740722656,-90.6859359741211
0.734642744064331,-6.372940540313721,-83.19391632080078,136.68275451660156,-95.05784606933594,-90.72596740722656,-90.6859359741211
0.736828088760376,-6.372940540313721,-83.19391632080078,136.68275451660156,-95.05784606933594,-90.72596740722656,-90.6859359741211
0.7390134334564209,-6.372940540313721,-83.19412994384766,136.68275451660156,-95.05805969238281,-90.72618865966797,-90.6859359741211
0.7412874698638916,-6.372940540313721,-83.19412994384766,136.68275451660156,-95.05805969238281,-90.72618865966797,-90.6859359741211
0.7436928749084473,-6.372940540313721,-83.19412994384766,136.68275451660156,-95.05805969238281,-90.72618865966797,-90.6859359741211
0.7458839416503906,-6.372940540313721,-83.19412994384766,136.68275451660156,-95.05805969238281,-90.72618865966797,-90.6859359741211
0.7480583190917969,-6.372940540313721,-83.19412994384766,136.68296813964844,-95.05805969238281,-90.72596740722656,-90.6859359741211
0.7503073215484619,-6.372940540313721,-83.19412994384766,136.68296813964844,-95.05805969238281,-90.72596740722656,-90.6859359741211
0.7526001930236816,-6.372940540313721,-83.19412994384766,136.68296813964844,-95.05805969238281,-90.72596740722656,-90.6859359741211
0.7547729015350342,-6.372940540313721,-83.19412994384766,136.68296813964844,-95.05805969238281,-90.72596740722656,-90.6859359741211
0.757800817489624,-6.372940540313721,-83.19412994384766,136.68296813964844,-95.05805969238281,-90.72618865966797,-90.68572235107422
0.7599713802337646,-6.372940540313721,-83.19412994384766,136.68296813964844,-95.05805969238281,-90.72618865966797,-90.68572235107422
0.7621555328369141,-6.372940540313721,-83.19412994384766,136.68296813964844,-95.05805969238281,-90.72618865966797,-90.68572235107422
0.7644569873809814,-6.372940540313721,-83.19412994384766,136.68296813964844,-95.05805969238281,-90.72618865966797,-90.68572235107422
0.766798734664917,-6.372940540313721,-83.19412994384766,136.68296813964844,-95.05805969238281,-90.72618865966797,-90.68572235107422
0.768988847732544,-6.37272310256958,-83.19412994384766,136.68296813964844,-95.05784606933594,-90.72596740722656,-90.6859359741211
0.7712578773498535,-6.37272310256958,-83.19412994384766,136.68296813964844,-95.05784606933594,-90.72596740722656,-90.6859359741211
0.773583173751831,-6.37272310256958,-83.19412994384766,136.68296813964844,-95.05784606933594,-90.72596740722656,-90.6859359741211
0.7757668495178223,-6.37272310256958,-83.19412994384766,136.68296813964844,-95.05784606933594,-90.72596740722656,-90.6859359741211
0.7779977321624756,-6.373157978057861,-83.19412994384766,136.68275451660156,-95.05828094482422,-90.72596740722656,-90.68572235107422
0.7802879810333252,-6.373157978057861,-83.19412994384766,136.68275451660156,-95.05828094482422,-90.72596740722656,-90.68572235107422
0.782573938369751,-6.373157978057861,-83.19412994384766,136.68275451660156,-95.05828094482422,-90.72596740722656,-90.68572235107422
0.7847599983215332,-6.373157978057861,-83.19412994384766,136.68275451660156,-95.05828094482422,-90.72596740722656,-90.68572235107422
0.7880182266235352,-6.372940540313721,-83.19412994384766,136.68296813964844,-95.05805969238281,-90.72618865966797,-90.68572235107422
0.790269136428833,-6.372940540313721,-83.19412994384766,136.68296813964844,-95.05805969238281,-90.72618865966797,-90.68572235107422
0.7925682067871094,-6.372940540313721,-83.19412994384766,136.68296813964844,-95.05805969238281,-90.72618865966797,-90.68572235107422
0.7947163581848145,-6.372940540313721,-83.19412994384766,136.68296813964844,-95.05805969238281,-90.72618865966797,-90.68572235107422
0.797818660736084,-6.373157978057861,-83.19391632080078,136.68275451660156,-95.05805969238281,-90.72618865966797,-90.6859359741211
0.7999930381774902,-6.373157978057861,-83.19391632080078,136.68275451660156,-95.05805969238281,-90.72618865966797,-90.6859359741211
0.8022480010986328,-6.373157978057861,-83.19391632080078,136.68275451660156,-95.05805969238281,-90.72618865966797,-90.6859359741211
0.8045670986175537,-6.373157978057861,-83.19391632080078,136.68275451660156,-95.05805969238281,-90.72618865966797,-90.6859359741211
0.8067879676818848,-6.373157978057861,-83.19391632080078,136.68275451660156,-95.05805969238281,-90.72618865966797,-90.6859359741211
0.8089957237243652,-6.372940540313721,-83.19391632080078,136.68275451660156,-95.05805969238281,-90.72618865966797,-90.6859359741211
0.8112637996673584,-6.372940540313721,-83.19391632080078,136.68275451660156,-95.05805969238281,-90.72618865966797,-90.6859359741211
0.8135881423950195,-6.372940540313721,-83.19391632080078,136.68275451660156,-95.05805969238281,-90.72618865966797,-90.6859359741211
0.8157718181610107,-6.372940540313721,-83.19391632080078,136.68275451660156,-95.05805969238281,-90.72618865966797,-90.6859359741211
0.8180887699127197,-6.372940540313721,-83.19412994384766,136.68275451660156,-95.05805969238281,-90.72596740722656,-90.6859359741211
0.8203656673431396,-6.372940540313721,-83.19412994384766,136.68275451660156,-95.05805969238281,-90.72596740722656,-90.6859359741211
0.8226604461669922,-6.372940540313721,-83.19412994384766,136.68275451660156,-95.05805969238281,-90.72596740722656,-90.6859359741211
0.8248326778411865,-6.372940540313721,-83.19412994384766,136.68275451660156,-95.05805969238281,-90.72596740722656,-90.6859359741211
0.8278989791870117,-6.372940540313721,-83.19435119628906,136.68275451660156,-95.05805969238281,-90.72596740722656,-90.6859359741211
0.830075740814209,-6.372940540313721,-83.19435119628906,136.68275451660156,-95.05805969238281,-90.72596740722656,-90.6859359741211
0.832308292388916,-6.372940540313721,-83.19435119628906,136.68275451660156,-95.05805969238281,-90.72596740722656,-90.6859359741211
0.8346061706542969,-6.372940540313721,-83.19435119628906,136.68275451660156,-95.05805969238281,-90.72596740722656,-90.6859359741211
0.8367605209350586,-6.372940540313721,-83.19435119628906,136.68275451660156,-95.05805969238281,-90.72596740722656,-90.6859359741211
0.8389039039611816,-6.372940540313721,-83.19412994384766,136.68275451660156,-95.05828094482422,-90.72596740722656,-90.6859359741211
0.8410654067993164,-6.372940540313721,-83.19412994384766,136.68275451660156,-95.05828094482422,-90.72596740722656,-90.6859359741211
0.8433117866516113,-6.372940540313721,-83.19412994384766,136.68275451660156,-95.05828094482422,-90.72596740722656,-90.6859359741211
0.8456189632415771,-6.372940540313721,-83.19412994384766,136.68275451660156,-95.05828094482422,-90.72596740722656,-90.6859359741211
0.8478569984436035,-6.37272310256958,-83.19412994384766,136.68296813964844,-95.05805969238281,-90.72596740722656,-90.68572235107422
0.8500590324401855,-6.37272310256958,-83.19412994384766,136.68296813964844,-95.05805969238281,-90.72596740722656,-90.68572235107422
0.8523492813110352,-6.37272310256958,-83.19412994384766,136.68296813964844,-95.05805969238281,-90.72596740722656,-90.68572235107422
0.8546590805053711,-6.37272310256958,-83.19412994384766,136.68296813964844,-95.05805969238281,-90.72596740722656,-90.68572235107422
0.8579132556915283,-6.37272310256958,-83.19412994384766,136.68296813964844,-95.05784606933594,-90.72596740722656,-90.68572235107422
0.8600888252258301,-6.37272310256958,-83.19412994384766,136.68296813964844,-95.05784606933594,-90.72596740722656,-90.68572235107422
0.8623650074005127,-6.37272310256958,-83.19412994384766,136.68296813964844,-95.05784606933594,-90.72596740722656,-90.68572235107422
0.8646636009216309,-6.37272310256958,-83.19412994384766,136.68296813964844,-95.05784606933594,-90.72596740722656,-90.68572235107422
0.8677620887756348,-6.372940540313721,-83.19412994384766,136.68275451660156,-95.05784606933594,-90.72596740722656,-90.68572235107422
0.8699326515197754,-6.372940540313721,-83.19412994384766,136.68275451660156,-95.05784606933594,-90.72596740722656,-90.68572235107422
0.8721098899841309,-6.372940540313721,-83.19412994384766,136.68275451660156,-95.05784606933594,-90.72596740722656,-90.68572235107422
0.8744072914123535,-6.372940540313721,-83.19412994384766,136.68275451660156,-95.05784606933594,-90.72596740722656,-90.68572235107422
0.8767232894897461,-6.372940540313721,-83.19412994384766,136.68275451660156,-95.05784606933594,-90.72596740722656,-90.68572235107422
0.8789100646972656,-6.372940540313721,-83.19435119628906,136.68275451660156,-95.05805969238281,-90.72596740722656,-90.68572235107422
0.8810951709747314,-6.372940540313721,-83.19435119628906,136.68275451660156,-95.05805969238281,-90.72596740722656,-90.68572235107422
0.8833897113800049,-6.372940540313721,-83.19435119628906,136.68275451660156,-95.05805969238281,-90.72596740722656,-90.68572235107422
0.8856966495513916,-6.372940540313721,-83.19435119628906,136.68275451660156,-95.05805969238281,-90.72596740722656,-90.68572235107422
0.8880910873413086,-6.372940540313721,-83.19412994384766,136.68275451660156,-95.05828094482422,-90.72596740722656,-90.68572235107422
0.8903627395629883,-6.372940540313721,-83.19412994384766,136.68275451660156,-95.05828094482422,-90.72596740722656,-90.68572235107422
0.8926551342010498,-6.372940540313721,-83.19412994384766,136.68275451660156,-95.05828094482422,-90.72596740722656,-90.68572235107422
0.8948438167572021,-6.372940540313721,-83.19412994384766,136.68275451660156,-95.05828094482422,-90.72596740722656,-90.68572235107422
0.8978316783905029,-6.372940540313721,-83.19391632080078,136.68296813964844,-95.05784606933594,-90.72596740722656,-90.6859359741211
0.9000067710876465,-6.372940540313721,-83.19391632080078,136.68296813964844,-95.05784606933594,-90.72596740722656,-90.6859359741211
0.9022648334503174,-6.372940540313721,-83.19391632080078,136.68296813964844,-95.05784606933594,-90.72596740722656,-90.6859359741211
0.904592752456665,-6.372940540313721,-83.19391632080078,136.68296813964844,-95.05784606933594,-90.72596740722656,-90.6859359741211
0.9067783355712891,-6.372940540313721,-83.19391632080078,136.68296813964844,-95.05784606933594,-90.72596740722656,-90.6859359741211
0.908966064453125,-6.373157978057861,-83.19412994384766,136.68275451660156,-95.05828094482422,-90.72596740722656,-90.68572235107422
0.9112310409545898,-6.373157978057861,-83.19412994384766,136.68275451660156,-95.05828094482422,-90.72596740722656,-90.68572235107422
0.9135468006134033,-6.373157978057861,-83.19412994384766,136.68275451660156,-95.05828094482422,-90.72596740722656,-90.68572235107422
0.9157383441925049,-6.373157978057861,-83.19412994384766,136.68275451660156,-95.05828094482422,-90.72596740722656,-90.68572235107422
0.9180223941802979,-6.37272310256958,-83.19435119628906,136.68296813964844,-95.05805969238281,-90.72596740722656,-90.68572235107422
0.920295000076294,-6.37272310256958,-83.19435119628906,136.68296813964844,-95.05805969238281,-90.72596740722656,-90.68572235107422
0.9225907325744629,-6.37272310256958,-83.19435119628906,136.68296813964844,-95.05805969238281,-90.72596740722656,-90.68572235107422
0.9247627258300781,-6.37272310256958,-83.19435119628906,136.68296813964844,-95.05805969238281,-90.72596740722656,-90.68572235107422
0.9278113842010498,-6.372940540313721,-83.19412994384766,136.68275451660156,-95.05805969238281,-90.72618865966797,-90.68550109863281
0.9299840927124023,-6.372940540313721,-83.19412994384766,136.68275451660156,-95.05805969238281,-90.72618865966797,-90.68550109863281
0.9322638511657715,-6.372940540313721,-83.19412994384766,136.68275451660156,-95.05805969238281,-90.72618865966797,-90.68550109863281
0.9344501495361328,-6.372940540313721,-83.19412994384766,136.68275451660156,-95.05805969238281,-90.72618865966797,-90.68550109863281
0.9367637634277344,-6.372940540313721,-83.19412994384766,136.68275451660156,-95.05805969238281,-90.72618865966797,-90.68550109863281
0.9389491081237793,-6.372940540313721,-83.19412994384766,136.68275451660156,-95.05805969238281,-90.72596740722656,-90.68572235107422
0.9411327838897705,-6.372940540313721,-83.19412994384766,136.68275451660156,-95.05805969238281,-90.72596740722656,-90.68572235107422
0.9432389736175537,-6.372940540313721,-83.19412994384766,136.68275451660156,-95.05805969238281,-90.72596740722656,-90.68572235107422
0.9453258514404297,-6.372940540313721,-83.19412994384766,136.68275451660156,-95.05805969238281,-90.72596740722656,-90.68572235107422
0.9474008083343506,-6.372940540313721,-83.19435119628906,136.68275451660156,-95.05828094482422,-90.72596740722656,-90.6859359741211
0.9495048522949219,-6.372940540313721,-83.19435119628906,136.68275451660156,-95.05828094482422,-90.72596740722656,-90.6859359741211
0.9515807628631592,-6.372940540313721,-83.19435119628906,136.68275451660156,-95.05828094482422,-90.72596740722656,-90.6859359741211
0.9536604881286621,-6.372940540313721,-83.19435119628906,136.68275451660156,-95.05828094482422,-90.72596740722656,-90.6859359741211
0.9557416439056396,-6.372940540313721,-83.19435119628906,136.68275451660156,-95.05828094482422,-90.72596740722656,-90.6859359741211
0.9578289985656738,-6.372940540313721,-83.19435119628906,136.68275451660156,-95.05805969238281,-90.72618865966797,-90.68572235107422
0.9599177837371826,-6.372940540313721,-83.19435119628906,136.68275451660156,-95.05805969238281,-90.72618865966797,-90.68572235107422
0.9620075225830078,-6.372940540313721,-83.19435119628906,136.68275451660156,-95.05805969238281,-90.72618865966797,-90.68572235107422
0.9640963077545166,-6.372940540313721,-83.19435119628906,136.68275451660156,-95.05805969238281,-90.72618865966797,-90.68572235107422
0.9661853313446045,-6.372940540313721,-83.19435119628906,136.68275451660156,-95.05805969238281,-90.72618865966797,-90.68572235107422
0.9684488773345947,-6.37272310256958,-83.19435119628906,136.68275451660156,-95.05805969238281,-90.72618865966797,-90.68572235107422
0.9707314968109131,-6.37272310256958,-83.19435119628906,136.68275451660156,-95.05805969238281,-90.72618865966797,-90.68572235107422
0.9729154109954834,-6.37272310256958,-83.19435119628906,136.68275451660156,-95.05805969238281,-90.72618865966797,-90.68572235107422
0.9751207828521729,-6.37272310256958,-83.19435119628906,136.68275451660156,-95.05805969238281,-90.72618865966797,-90.68572235107422
0.9780747890472412,-6.372940540313721,-83.19435119628906,136.68275451660156,-95.05805969238281,-90.72596740722656,-90.68572235107422
0.9803276062011719,-6.372940540313721,-83.19435119628906,136.68275451660156,-95.05805969238281,-90.72596740722656,-90.68572235107422
0.9826090335845947,-6.372940540313721,-83.19435119628906,136.68275451660156,-95.05805969238281,-90.72596740722656,-90.68572235107422
0.984872579574585,-6.372940540313721,-83.19435119628906,136.68275451660156,-95.05805969238281,-90.72596740722656,-90.68572235107422
0.9879615306854248,-6.373157978057861,-83.19412994384766,136.68275451660156,-95.05805969238281,-90.72618865966797,-90.68572235107422
0.9901382923126221,-6.373157978057861,-83.19412994384766,136.68275451660156,-95.05805969238281,-90.72618865966797,-90.68572235107422
0.992443323135376,-6.373157978057861,-83.19412994384766,136.68275451660156,-95.05805969238281,-90.72618865966797,-90.68572235107422
0.9947316646575928,-6.373157978057861,-83.19412994384766,136.68275451660156,-95.05805969238281,-90.72618865966797,-90.68572235107422
0.9980297088623047,-6.372940540313721,-83.19435119628906,136.68275451660156,-95.05805969238281,-90.72618865966797,-90.68572235107422
1.0002632141113281,-6.372940540313721,-83.19435119628906,136.68275451660156,-95.05805969238281,-90.72618865966797,-90.68572235107422
1.0025019645690918,-6.372940540313721,-83.19435119628906,136.68275451660156,-95.05805969238281,-90.72618865966797,-90.68572235107422
1.0046718120574951,-6.372940540313721,-83.19435119628906,136.68275451660156,-95.05805969238281,-90.72618865966797,-90.68572235107422
1.0072836875915527,-6.373157978057861,-83.19435119628906,136.68275451660156,-95.05805969238281,-90.72618865966797,-90.68550109863281
1.0094618797302246,-6.373157978057861,-83.19435119628906,136.68275451660156,-95.05805969238281,-90.72618865966797,-90.68550109863281
1.0116264820098877,-6.373157978057861,-83.19435119628906,136.68275451660156,-95.05805969238281,-90.72618865966797,-90.68550109863281
1.013739824295044,-6.373157978057861,-83.19435119628906,136.68275451660156,-95.05805969238281,-90.72618865966797,-90.68550109863281
1.0158534049987793,-6.373157978057861,-83.19435119628906,136.68275451660156,-95.05805969238281,-90.72618865966797,-90.68550109863281
1.017998456954956,-6.373157978057861,-83.19412994384766,136.68296813964844,-95.05828094482422,-90.72596740722656,-90.68572235107422
1.0201847553253174,-6.373157978057861,-83.19412994384766,136.68296813964844,-95.05828094482422,-90.72596740722656,-90.68572235107422
1.0223462581634521,-6.373157978057861,-83.19412994384766,136.68296813964844,-95.05828094482422,-90.72596740722656,-90.68572235107422
1.0245780944824219,-6.373157978057861,-83.19412994384766,136.68296813964844,-95.05828094482422,-90.72596740722656,-90.68572235107422
1.0266737937927246,-6.373157978057861,-83.19412994384766,136.68296813964844,-95.05828094482422,-90.72596740722656,-90.68572235107422
1.0287895202636719,-6.372940540313721,-83.19412994384766,136.68275451660156,-95.05805969238281,-90.72596740722656,-90.68572235107422
1.0309231281280518,-6.372940540313721,-83.19412994384766,136.68275451660156,-95.05805969238281,-90.72596740722656,-90.68572235107422
1.0330567359924316,-6.372940540313721,-83.19412994384766,136.68275451660156,-95.05805969238281,-90.72596740722656,-90.68572235107422
1.0351691246032715,-6.372940540313721,-83.19412994384766,136.68275451660156,-95.05805969238281,-90.72596740722656,-90.68572235107422
1.0374083518981934,-6.372940540313721,-83.19435119628906,136.68296813964844,-95.05805969238281,-90.72596740722656,-90.6859359741211
1.0396103858947754,-6.372940540313721,-83.19435119628906,136.68296813964844,-95.05805969238281,-90.72596740722656,-90.6859359741211
1.0417354106903076,-6.372940540313721,-83.19435119628906,136.68296813964844,-95.05805969238281,-90.72596740722656,-90.6859359741211
1.043860912322998,-6.372940540313721,-83.19435119628906,136.68296813964844,-95.05805969238281,-90.72596740722656,-90.6859359741211
1.0459988117218018,-6.372940540313721,-83.19435119628906,136.68296813964844,-95.05805969238281,-90.72596740722656,-90.6859359741211
1.0481550693511963,-6.372940540313721,-83.19435119628906,136.68275451660156,-95.05828094482422,-90.72596740722656,-90.68572235107422
1.050431251525879,-6.372940540313721,-83.19435119628906,136.68275451660156,-95.05828094482422,-90.72596740722656,-90.68572235107422
1.0527739524841309,-6.372940540313721,-83.19435119628906,136.68275451660156,-95.05828094482422,-90.72596740722656,-90.68572235107422
1.0549590587615967,-6.372940540313721,-83.19435119628906,136.68275451660156,-95.05828094482422,-90.72596740722656,-90.68572235107422
1.0579400062561035,-6.372940540313721,-83.19412994384766,136.68275451660156,-95.05805969238281,-90.72596740722656,-90.6859359741211
1.060133934020996,-6.372940540313721,-83.19412994384766,136.68275451660156,-95.05805969238281,-90.72596740722656,-90.6859359741211
1.06241774559021,-6.372940540313721,-83.19412994384766,136.68275451660156,-95.05805969238281,-90.72596740722656,-90.6859359741211
1.0647222995758057,-6.372940540313721,-83.19412994384766,136.68275451660156,-95.05805969238281,-90.72596740722656,-90.6859359741211
1.0679492950439453,-6.372940540313721,-83.19435119628906,136.68296813964844,-95.05828094482422,-90.72618865966797,-90.68572235107422
1.0702323913574219,-6.372940540313721,-83.19435119628906,136.68296813964844,-95.05828094482422,-90.72618865966797,-90.68572235107422
1.0725593566894531,-6.372940540313721,-83.19435119628906,136.68296813964844,-95.05828094482422,-90.72618865966797,-90.68572235107422
1.07474684715271,-6.372940540313721,-83.19435119628906,136.68296813964844,-95.05828094482422,-90.72618865966797,-90.68572235107422
1.077958345413208,-6.372940540313721,-83.19412994384766,136.68296813964844,-95.05805969238281,-90.72596740722656,-90.68572235107422
1.080256700515747,-6.372940540313721,-83.19412994384766,136.68296813964844,-95.05805969238281,-90.72596740722656,-90.68572235107422
1.082763433456421,-6.372940540313721,-83.19412994384766,136.68296813964844,-95.05805969238281,-90.72596740722656,-90.68572235107422
1.0849494934082031,-6.372940540313721,-83.19412994384766,136.68296813964844,-95.05805969238281,-90.72596740722656,-90.68572235107422
1.0879368782043457,-6.37272310256958,-83.19412994384766,136.68296813964844,-95.05805969238281,-90.72618865966797,-90.6859359741211
1.0902118682861328,-6.37272310256958,-83.19412994384766,136.68296813964844,-95.05805969238281,-90.72618865966797,-90.6859359741211
1.0925350189208984,-6.37272310256958,-83.19412994384766,136.68296813964844,-95.05805969238281,-90.72618865966797,-90.6859359741211
1.0947113037109375,-6.37272310256958,-83.19412994384766,136.68296813964844,-95.05805969238281,-90.72618865966797,-90.6859359741211
1.097782850265503,-6.372940540313721,-83.19435119628906,136.68275451660156,-95.05805969238281,-90.72618865966797,-90.68572235107422
1.0999553203582764,-6.372940540313721,-83.19435119628906,136.68275451660156,-95.05805969238281,-90.72618865966797,-90.68572235107422
1.1021404266357422,-6.372940540313721,-83.19435119628906,136.68275451660156,-95.05805969238281,-90.72618865966797,-90.68572235107422
1.1044576168060303,-6.372940540313721,-83.19435119628906,136.68275451660156,-95.05805969238281,-90.72618865966797,-90.68572235107422
1.1067390441894531,-6.372940540313721,-83.19435119628906,136.68275451660156,-95.05805969238281,-90.72618865966797,-90.68572235107422
1.1089255809783936,-6.372940540313721,-83.19412994384766,136.68275451660156,-95.05805969238281,-90.72618865966797,-90.6859359741211
1.111109733581543,-6.372940540313721,-83.19412994384766,136.68275451660156,-95.05805969238281,-90.72618865966797,-90.6859359741211
1.113396167755127,-6.372940540313721,-83.19412994384766,136.68275451660156,-95.05805969238281,-90.72618865966797,-90.6859359741211
1.115696907043457,-6.372940540313721,-83.19412994384766,136.68275451660156,-95.05805969238281,-90.72618865966797,-90.6859359741211
1.1180763244628906,-6.373157978057861,-83.19391632080078,136.68275451660156,-95.05805969238281,-90.72596740722656,-90.6859359741211
1.1203560829162598,-6.373157978057861,-83.19391632080078,136.68275451660156,-95.05805969238281,-90.72596740722656,-90.6859359741211
1.1226394176483154,-6.373157978057861,-83.19391632080078,136.68275451660156,-95.05805969238281,-90.72596740722656,-90.6859359741211
1.1248018741607666,-6.373157978057861,-83.19391632080078,136.68275451660156,-95.05805969238281,-90.72596740722656,-90.6859359741211
1.1278417110443115,-6.372940540313721,-83.19369506835938,136.68296813964844,-95.05805969238281,-90.72596740722656,-90.6859359741211
1.130016565322876,-6.372940540313721,-83.19369506835938,136.68296813964844,-95.05805969238281,-90.72596740722656,-90.6859359741211
1.1322999000549316,-6.372940540313721,-83.19369506835938,136.68296813964844,-95.05805969238281,-90.72596740722656,-90.6859359741211
1.1346168518066406,-6.372940540313721,-83.19369506835938,136.68296813964844,-95.05805969238281,-90.72596740722656,-90.6859359741211
1.1368215084075928,-6.372940540313721,-83.19369506835938,136.68296813964844,-95.05805969238281,-90.72596740722656,-90.6859359741211
1.1390035152435303,-6.372940540313721,-83.19369506835938,136.68296813964844,-95.05805969238281,-90.72618865966797,-90.6859359741211
1.1412513256072998,-6.372940540313721,-83.19369506835938,136.68296813964844,-95.05805969238281,-90.72618865966797,-90.6859359741211
1.143545389175415,-6.372940540313721,-83.19369506835938,136.68296813964844,-95.05805969238281,-90.72618865966797,-90.6859359741211
1.1457421779632568,-6.372940540313721,-83.19369506835938,136.68296813964844,-95.05805969238281,-90.72618865966797,-90.6859359741211
1.1479015350341797,-6.372940540313721,-83.19369506835938,136.68275451660156,-95.05828094482422,-90.72618865966797,-90.68572235107422
1.1500768661499023,-6.372940540313721,-83.19369506835938,136.68275451660156,-95.05828094482422,-90.72618865966797,-90.68572235107422
1.1523795127868652,-6.372940540313721,-83.19369506835938,136.68275451660156,-95.05828094482422,-90.72618865966797,-90.68572235107422
1.1546988487243652,-6.372940540313721,-83.19369506835938,136.68275451660156,-95.05828094482422,-90.72618865966797,-90.68572235107422
1.1579153537750244,-6.372940540313721,-83.19369506835938,136.68275451660156,-95.05805969238281,-90.72596740722656,-90.68572235107422
1.1601009368896484,-6.372940540313721,-83.19369506835938,136.68275451660156,-95.05805969238281,-90.72596740722656,-90.68572235107422
1.1623718738555908,-6.372940540313721,-83.19369506835938,136.68275451660156,-95.05805969238281,-90.72596740722656,-90.68572235107422
1.164684772491455,-6.372940540313721,-83.19369506835938,136.68275451660156,-95.05805969238281,-90.72596740722656,-90.68572235107422
1.167917013168335,-6.372940540313721,-83.19369506835938,136.68275451660156,-95.05828094482422,-90.72596740722656,-90.68572235107422
1.1700997352600098,-6.372940540313721,-83.19369506835938,136.68275451660156,-95.05828094482422,-90.72596740722656,-90.68572235107422
1.1723523139953613,-6.372940540313721,-83.19369506835938,136.68275451660156,-95.05828094482422,-90.72596740722656,-90.68572235107422
1.1746025085449219,-6.372940540313721,-83.19369506835938,136.68275451660156,-95.05828094482422,-90.72596740722656,-90.68572235107422
1.176788330078125,-6.372940540313721,-83.19369506835938,136.68275451660156,-95.05828094482422,-90.72596740722656,-90.68572235107422
1.1789655685424805,-6.372940540313721,-83.19391632080078,136.68296813964844,-95.05805969238281,-90.72596740722656,-90.68572235107422
1.181257963180542,-6.372940540313721,-83.19391632080078,136.68296813964844,-95.05805969238281,-90.72596740722656,-90.68572235107422
1.183570146560669,-6.372940540313721,-83.19391632080078,136.68296813964844,-95.05805969238281,-90.72596740722656,-90.68572235107422
1.1857309341430664,-6.372940540313721,-83.19391632080078,136.68296813964844,-95.05805969238281,-90.72596740722656,-90.68572235107422
1.188028335571289,-6.372940540313721,-83.19369506835938,136.68296813964844,-95.05805969238281,-90.72596740722656,-90.68572235107422
1.1903021335601807,-6.372940540313721,-83.19369506835938,136.68296813964844,-95.05805969238281,-90.72596740722656,-90.68572235107422
1.1925928592681885,-6.372940540313721,-83.19369506835938,136.68296813964844,-95.05805969238281,-90.72596740722656,-90.68572235107422
1.1947646141052246,-6.372940540313721,-83.19369506835938,136.68296813964844,-95.05805969238281,-90.72596740722656,-90.68572235107422
1.19783616065979,-6.372940540313721,-83.19412994384766,136.68275451660156,-95.05805969238281,-90.72596740722656,-90.6859359741211
1.2000105381011963,-6.372940540313721,-83.19412994384766,136.68275451660156,-95.05805969238281,-90.72596740722656,-90.6859359741211
1.2022745609283447,-6.372940540313721,-83.19412994384766,136.68275451660156,-95.05805969238281,-90.72596740722656,-90.6859359741211
1.2045931816101074,-6.372940540313721,-83.19412994384766,136.68275451660156,-95.05805969238281,-90.72596740722656,-90.6859359741211
1.2067947387695312,-6.372940540313721,-83.19412994384766,136.68275451660156,-95.05805969238281,-90.72596740722656,-90.6859359741211
1.208986759185791,-6.372940540313721,-83.19391632080078,136.68275451660156,-95.05805969238281,-90.72596740722656,-90.68572235107422
1.2112576961517334,-6.372940540313721,-83.19391632080078,136.68275451660156,-95.05805969238281,-90.72596740722656,-90.68572235107422
1.2135686874389648,-6.372940540313721,-83.19391632080078,136.68275451660156,-95.05805969238281,-90.72596740722656,-90.68572235107422
1.2157552242279053,-6.372940540313721,-83.19391632080078,136.68275451660156,-95.05805969238281,-90.72596740722656,-90.68572235107422
1.2180099487304688,-6.372940540313721,-83.19391632080078,136.68275451660156,-95.05828094482422,-90.72618865966797,-90.68572235107422
1.220261573791504,-6.372940540313721,-83.19391632080078,136.68275451660156,-95.05828094482422,-90.72618865966797,-90.68572235107422
1.2225635051727295,-6.372940540313721,-83.19391632080078,136.68275451660156,-95.05828094482422,-90.72618865966797,-90.68572235107422
1.2247140407562256,-6.372940540313721,-83.19391632080078,136.68275451660156,-95.05828094482422,-90.72618865966797,-90.68572235107422
1.227860927581787,-6.372940540313721,-83.19369506835938,136.68296813964844,-95.05805969238281,-90.72596740722656,-90.6859359741211
1.2300560474395752,-6.372940540313721,-83.19369506835938,136.68296813964844,-95.05805969238281,-90.72596740722656,-90.6859359741211
1.2322866916656494,-6.372940540313721,-83.19369506835938,136.68296813964844,-95.05805969238281,-90.72596740722656,-90.6859359741211
1.2345361709594727,-6.372940540313721,-83.19369506835938,136.68296813964844,-95.05805969238281,-90.72596740722656,-90.6859359741211
1.2367124557495117,-6.372940540313721,-83.19369506835938,136.68296813964844,-95.05805969238281,-90.72596740722656,-90.6859359741211
1.2388675212860107,-6.373157978057861,-83.19369506835938,136.68296813964844,-95.05828094482422,-90.72596740722656,-90.68572235107422
1.2410435676574707,-6.373157978057861,-83.19369506835938,136.68296813964844,-95.05828094482422,-90.72596740722656,-90.68572235107422
1.2433247566223145,-6.373157978057861,-83.19369506835938,136.68296813964844,-95.05828094482422,-90.72596740722656,-90.68572235107422
1.24558687210083,-6.373157978057861,-83.19369506835938,136.68296813964844,-95.05828094482422,-90.72596740722656,-90.68572235107422
1.247971534729004,-6.372940540313721,-83.19369506835938,136.68296813964844,-95.05805969238281,-90.72618865966797,-90.6859359741211
1.2501440048217773,-6.372940540313721,-83.19369506835938,136.68296813964844,-95.05805969238281,-90.72618865966797,-90.6859359741211
1.252443790435791,-6.372940540313721,-83.19369506835938,136.68296813964844,-95.05805969238281,-90.72618865966797,-90.6859359741211
1.2547211647033691,-6.372940540313721,-83.19369506835938,136.68296813964844,-95.05805969238281,-90.72618865966797,-90.6859359741211
1.2568943500518799,-6.372940540313721,-83.19369506835938,136.68296813964844,-95.05805969238281,-90.72618865966797,-90.6859359741211
1.259070634841919,-6.37272310256958,-83.19369506835938,136.68296813964844,-95.05805969238281,-90.72596740722656,-90.68572235107422
1.261338233947754,-6.37272310256958,-83.19369506835938,136.68296813964844,-95.05805969238281,-90.72596740722656,-90.68572235107422
1.2637526988983154,-6.37272310256958,-83.19369506835938,136.68296813964844,-95.05805969238281,-90.72596740722656,-90.68572235107422
1.265927791595459,-6.37272310256958,-83.19369506835938,136.68296813964844,-95.05805969238281,-90.72596740722656,-90.68572235107422
1.2682108879089355,-6.37272310256958,-83.19391632080078,136.68296813964844,-95.05805969238281,-90.72596740722656,-90.68572235107422
1.2704684734344482,-6.37272310256958,-83.19391632080078,136.68296813964844,-95.05805969238281,-90.72596740722656,-90.68572235107422
1.2727241516113281,-6.37272310256958,-83.19391632080078,136.68296813964844,-95.05805969238281,-90.72596740722656,-90.68572235107422
1.2749102115631104,-6.37272310256958,-83.19391632080078,136.68296813964844,-95.05805969238281,-90.72596740722656,-90.68572235107422
1.2780437469482422,-6.372940540313721,-83.19391632080078,136.68296813964844,-95.05805969238281,-90.72596740722656,-90.6859359741211
1.280294418334961,-6.372940540313721,-83.19391632080078,136.68296813964844,-95.05805969238281,-90.72596740722656,-90.6859359741211
1.2825889587402344,-6.372940540313721,-83.19391632080078,136.68296813964844,-95.05805969238281,-90.72596740722656,-90.6859359741211
1.2847607135772705,-6.372940540313721,-83.19391632080078,136.68296813964844,-95.05805969238281,-90.72596740722656,-90.6859359741211
1.287907361984253,-6.373157978057861,-83.19369506835938,136.68275451660156,-95.05828094482422,-90.72596740722656,-90.68572235107422
1.2900841236114502,-6.373157978057861,-83.19369506835938,136.68275451660156,-95.05828094482422,-90.72596740722656,-90.68572235107422
1.2923879623413086,-6.373157978057861,-83.19369506835938,136.68275451660156,-95.05828094482422,-90.72596740722656,-90.68572235107422
1.2947008609771729,-6.373157978057861,-83.19369506835938,136.68275451660156,-95.05828094482422,-90.72596740722656,-90.68572235107422
1.2968852519989014,-6.373157978057861,-83.19369506835938,136.68275451660156,-95.05828094482422,-90.72596740722656,-90.68572235107422
1.299076795578003,-6.372940540313721,-83.1934814453125,136.6825408935547,-95.05828094482422,-90.72596740722656,-90.68572235107422
1.3013837337493896,-6.372940540313721,-83.1934814453125,136.6825408935547,-95.05828094482422,-90.72596740722656,-90.68572235107422
1.3036890029907227,-6.372940540313721,-83.1934814453125,136.6825408935547,-95.05828094482422,-90.72596740722656,-90.68572235107422
1.3058748245239258,-6.372940540313721,-83.1934814453125,136.6825408935547,-95.05828094482422,-90.72596740722656,-90.68572235107422
1.3080601692199707,-6.372940540313721,-83.19369506835938,136.68275451660156,-95.05805969238281,-90.72596740722656,-90.68572235107422
1.3103420734405518,-6.372940540313721,-83.19369506835938,136.68275451660156,-95.05805969238281,-90.72596740722656,-90.68572235107422
1.3126437664031982,-6.372940540313721,-83.19369506835938,136.68275451660156,-95.05805969238281,-90.72596740722656,-90.68572235107422
1.314836025238037,-6.372940540313721,-83.19369506835938,136.68275451660156,-95.05805969238281,-90.72596740722656,-90.68572235107422
1.317944049835205,-6.37272310256958,-83.19369506835938,136.68296813964844,-95.05805969238281,-90.72596740722656,-90.68572235107422
1.3201210498809814,-6.37272310256958,-83.19369506835938,136.68296813964844,-95.05805969238281,-90.72596740722656,-90.68572235107422
1.322418451309204,-6.37272310256958,-83.19369506835938,136.68296813964844,-95.05805969238281,-90.72596740722656,-90.68572235107422
1.3247215747833252,-6.37272310256958,-83.19369506835938,136.68296813964844,-95.05805969238281,-90.72596740722656,-90.68572235107422
1.326906681060791,-6.37272310256958,-83.19369506835938,136.68296813964844,-95.05805969238281,-90.72596740722656,-90.68572235107422
1.3290984630584717,-6.372940540313721,-83.19369506835938,136.68296813964844,-95.05828094482422,-90.72596740722656,-90.68550109863281
1.3313672542572021,-6.372940540313721,-83.19369506835938,136.68296813964844,-95.05828094482422,-90.72596740722656,-90.68550109863281
1.333683729171753,-6.372940540313721,-83.19369506835938,136.68296813964844,-95.05828094482422,-90.72596740722656,-90.68550109863281
1.335869550704956,-6.372940540313721,-83.19369506835938,136.68296813964844,-95.05828094482422,-90.72596740722656,-90.68550109863281
1.3382360935211182,-6.372940540313721,-83.19369506835938,136.68296813964844,-95.05805969238281,-90.72596740722656,-90.68572235107422
1.3404698371887207,-6.372940540313721,-83.19369506835938,136.68296813964844,-95.05805969238281,-90.72596740722656,-90.68572235107422
1.3425869941711426,-6.372940540313721,-83.19369506835938,136.68296813964844,-95.05805969238281,-90.72596740722656,-90.68572235107422
1.3446969985961914,-6.372940540313721,-83.19369506835938,136.68296813964844,-95.05805969238281,-90.72596740722656,-90.68572235107422
1.3473432064056396,-6.372940540313721,-83.19369506835938,136.68275451660156,-95.05805969238281,-90.72596740722656,-90.6859359741211
1.349614143371582,-6.372940540313721,-83.19369506835938,136.68275451660156,-95.05805969238281,-90.72596740722656,-90.6859359741211
1.3517611026763916,-6.372940540313721,-83.19369506835938,136.68275451660156,-95.05805969238281,-90.72596740722656,-90.6859359741211
1.3539214134216309,-6.372940540313721,-83.19369506835938,136.68275451660156,-95.05805969238281,-90.72596740722656,-90.6859359741211
1.3561110496520996,-6.372940540313721,-83.19369506835938,136.68275451660156,-95.05805969238281,-90.72596740722656,-90.6859359741211
1.3583927154541016,-6.372940540313721,-83.19369506835938,136.68275451660156,-95.05805969238281,-90.72596740722656,-90.68572235107422
1.3607170581817627,-6.372940540313721,-83.19369506835938,136.68275451660156,-95.05805969238281,-90.72596740722656,-90.68572235107422
1.3628997802734375,-6.372940540313721,-83.19369506835938,136.68275451660156,-95.05805969238281,-90.72596740722656,-90.68572235107422
1.365086317062378,-6.372940540313721,-83.19369506835938,136.68275451660156,-95.05805969238281,-90.72596740722656,-90.68572235107422
1.3680446147918701,-6.372940540313721,-83.19369506835938,136.68296813964844,-95.05805969238281,-90.72618865966797,-90.6859359741211
1.370309829711914,-6.372940540313721,-83.19369506835938,136.68296813964844,-95.05805969238281,-90.72618865966797,-90.6859359741211
1.3726005554199219,-6.372940540313721,-83.19369506835938,136.68296813964844,-95.05805969238281,-90.72618865966797,-90.6859359741211
1.374790906906128,-6.372940540313721,-83.19369506835938,136.68296813964844,-95.05805969238281,-90.72618865966797,-90.6859359741211
1.3778178691864014,-6.372940540313721,-83.19369506835938,136.68296813964844,-95.05805969238281,-90.72596740722656,-90.6859359741211
1.379990816116333,-6.372940540313721,-83.19369506835938,136.68296813964844,-95.05805969238281,-90.72596740722656,-90.6859359741211
1.3822662830352783,-6.372940540313721,-83.19369506835938,136.68296813964844,-95.05805969238281,-90.72596740722656,-90.6859359741211
1.384580373764038,-6.372940540313721,-83.19369506835938,136.68296813964844,-95.05805969238281,-90.72596740722656,-90.6859359741211
1.3867418766021729,-6.372940540313721,-83.19369506835938,136.68296813964844,-95.05805969238281,-90.72596740722656,-90.6859359741211
1.3888630867004395,-6.37272310256958,-83.19369506835938,136.68275451660156,-95.05805969238281,-90.72618865966797,-90.6859359741211
1.3910415172576904,-6.37272310256958,-83.19369506835938,136.68275451660156,-95.05805969238281,-90.72618865966797,-90.6859359741211
1.393326759338379,-6.37272310256958,-83.19369506835938,136.68275451660156,-95.05805969238281,-90.72618865966797,-90.6859359741211
1.3956379890441895,-6.37272310256958,-83.19369506835938,136.68275451660156,-95.05805969238281,-90.72618865966797,-90.6859359741211
1.3981356620788574,-6.372940540313721,-83.19369506835938,136.68275451660156,-95.05805969238281,-90.72596740722656,-90.68572235107422
1.4004032611846924,-6.372940540313721,-83.19369506835938,136.68275451660156,-95.05805969238281,-90.72596740722656,-90.68572235107422
1.4026923179626465,-6.372940540313721,-83.19369506835938,136.68275451660156,-95.05805969238281,-90.72596740722656,-90.68572235107422
1.4048542976379395,-6.372940540313721,-83.19369506835938,136.68275451660156,-95.05805969238281,-90.72596740722656,-90.68572235107422
1.407846450805664,-6.372940540313721,-83.19369506835938,136.68275451660156,-95.05784606933594,-90.72596740722656,-90.68572235107422
1.4100213050842285,-6.372940540313721,-83.19369506835938,136.68275451660156,-95.05784606933594,-90.72596740722656,-90.68572235107422
1.4122793674468994,-6.372940540313721,-83.19369506835938,136.68275451660156,-95.05784606933594,-90.72596740722656,-90.68572235107422
1.4145877361297607,-6.372940540313721,-83.19369506835938,136.68275451660156,-95.05784606933594,-90.72596740722656,-90.68572235107422
1.4167976379394531,-6.372940540313721,-83.19369506835938,136.68275451660156,-95.05784606933594,-90.72596740722656,-90.68572235107422
1.4189910888671875,-6.372940540313721,-83.19369506835938,136.68296813964844,-95.05805969238281,-90.72596740722656,-90.68572235107422
1.4212861061096191,-6.372940540313721,-83.19369506835938,136.68296813964844,-95.05805969238281,-90.72596740722656,-90.68572235107422
1.4236030578613281,-6.372940540313721,-83.19369506835938,136.68296813964844,-95.05805969238281,-90.72596740722656,-90.68572235107422
1.4257888793945312,-6.372940540313721,-83.19369506835938,136.68296813964844,-95.05805969238281,-90.72596740722656,-90.68572235107422
1.4279701709747314,-6.372940540313721,-83.19369506835938,136.68296813964844,-95.05805969238281,-90.72618865966797,-90.68572235107422
1.430241346359253,-6.372940540313721,-83.19369506835938,136.68296813964844,-95.05805969238281,-90.72618865966797,-90.68572235107422
1.4324729442596436,-6.372940540313721,-83.19369506835938,136.68296813964844,-95.05805969238281,-90.72618865966797,-90.68572235107422
1.4347259998321533,-6.372940540313721,-83.19369506835938,136.68296813964844,-95.05805969238281,-90.72618865966797,-90.68572235107422
1.4369211196899414,-6.372940540313721,-83.19369506835938,136.68296813964844,-95.05805969238281,-90.72618865966797,-90.68572235107422
1.4391634464263916,-6.372940540313721,-83.19369506835938,136.68275451660156,-95.05805969238281,-90.72596740722656,-90.68572235107422
1.4414258003234863,-6.372940540313721,-83.19369506835938,136.68275451660156,-95.05805969238281,-90.72596740722656,-90.68572235107422
1.4436919689178467,-6.372940540313721,-83.19369506835938,136.68275451660156,-95.05805969238281,-90.72596740722656,-90.68572235107422
1.445854663848877,-6.372940540313721,-83.19369506835938,136.68275451660156,-95.05805969238281,-90.72596740722656,-90.68572235107422
1.4480044841766357,-6.372940540313721,-83.19391632080078,136.68296813964844,-95.05805969238281,-90.72618865966797,-90.6859359741211
1.4502756595611572,-6.372940540313721,-83.19391632080078,136.68296813964844,-95.05805969238281,-90.72618865966797,-90.6859359741211
1.4525854587554932,-6.372940540313721,-83.19391632080078,136.68296813964844,-95.05805969238281,-90.72618865966797,-90.6859359741211
1.454728364944458,-6.372940540313721,-83.19391632080078,136.68296813964844,-95.05805969238281,-90.72618865966797,-90.6859359741211
1.4579033851623535,-6.372940540313721,-83.19369506835938,136.68296813964844,-95.05805969238281,-90.72618865966797,-90.68572235107422
1.4600739479064941,-6.372940540313721,-83.19369506835938,136.68296813964844,-95.05805969238281,-90.72618865966797,-90.68572235107422
1.4623234272003174,-6.372940540313721,-83.19369506835938,136.68296813964844,-95.05805969238281,-90.72618865966797,-90.68572235107422
1.4645051956176758,-6.372940540313721,-83.19369506835938,136.68296813964844,-95.05805969238281,-90.72618865966797,-90.68572235107422
1.4667634963989258,-6.372940540313721,-83.19369506835938,136.68296813964844,-95.05805969238281,-90.72618865966797,-90.68572235107422
1.4689304828643799,-6.37272310256958,-83.19369506835938,136.68296813964844,-95.05805969238281,-90.72618865966797,-90.68572235107422
1.471104621887207,-6.37272310256958,-83.19369506835938,136.68296813964844,-95.05805969238281,-90.72618865966797,-90.68572235107422
1.4733974933624268,-6.37272310256958,-83.19369506835938,136.68296813964844,-95.05805969238281,-90.72618865966797,-90.68572235107422
1.4757065773010254,-6.37272310256958,-83.19369506835938,136.68296813964844,-95.05805969238281,-90.72618865966797,-90.68572235107422
1.4779493808746338,-6.372940540313721,-83.19391632080078,136.68296813964844,-95.05805969238281,-90.72596740722656,-90.6859359741211
1.4801340103149414,-6.372940540313721,-83.19391632080078,136.68296813964844,-95.05805969238281,-90.72596740722656,-90.6859359741211
1.4824655055999756,-6.372940540313721,-83.19391632080078,136.68296813964844,-95.05805969238281,-90.72596740722656,-90.6859359741211
1.4846091270446777,-6.372940540313721,-83.19391632080078,136.68296813964844,-95.05805969238281,-90.72596740722656,-90.6859359741211
1.4868278503417969,-6.372940540313721,-83.19391632080078,136.68296813964844,-95.05805969238281,-90.72596740722656,-90.6859359741211
1.4889554977416992,-6.37272310256958,-83.19369506835938,136.68275451660156,-95.05784606933594,-90.72618865966797,-90.6859359741211
1.4911341667175293,-6.37272310256958,-83.19369506835938,136.68275451660156,-95.05784606933594,-90.72618865966797,-90.6859359741211
1.4934217929840088,-6.37272310256958,-83.19369506835938,136.68275451660156,-95.05784606933594,-90.72618865966797,-90.6859359741211
1.4957311153411865,-6.37272310256958,-83.19369506835938,136.68275451660156,-95.05784606933594,-90.72618865966797,-90.6859359741211
1.498046636581421,-6.372940540313721,-83.19369506835938,136.68275451660156,-95.05805969238281,-90.72596740722656,-90.6859359741211
1.5003187656402588,-6.372940540313721,-83.19369506835938,136.68275451660156,-95.05805969238281,-90.72596740722656,-90.6859359741211
1.502612829208374,-6.372940540313721,-83.19369506835938,136.68275451660156,-95.05805969238281,-90.72596740722656,-90.6859359741211
1.5047845840454102,-6.372940540313721,-83.19369506835938,136.68275451660156,-95.05805969238281,-90.72596740722656,-90.6859359741211
1.5078115463256836,-6.372940540313721,-83.19369506835938,136.68296813964844,-95.05784606933594,-90.72596740722656,-90.68572235107422
1.5099859237670898,-6.372940540313721,-83.19369506835938,136.68296813964844,-95.05784606933594,-90.72596740722656,-90.68572235107422
1.512274980545044,-6.372940540313721,-83.19369506835938,136.68296813964844,-95.05784606933594,-90.72596740722656,-90.68572235107422
1.5145976543426514,-6.372940540313721,-83.19369506835938,136.68296813964844,-95.05784606933594,-90.72596740722656,-90.68572235107422
1.5168111324310303,-6.372940540313721,-83.19369506835938,136.68296813964844,-95.05784606933594,-90.72596740722656,-90.68572235107422
1.519026517868042,-6.372940540313721,-83.19391632080078,136.68275451660156,-95.05784606933594,-90.72618865966797,-90.68572235107422
1.521317481994629,-6.372940540313721,-83.19391632080078,136.68275451660156,-95.05784606933594,-90.72618865966797,-90.68572235107422
1.52364182472229,-6.372940540313721,-83.19391632080078,136.68275451660156,-95.05784606933594,-90.72618865966797,-90.68572235107422
1.5258276462554932,-6.372940540313721,-83.19391632080078,136.68275451660156,-95.05784606933594,-90.72618865966797,-90.68572235107422
1.5279974937438965,-6.372940540313721,-83.19369506835938,136.68275451660156,-95.05805969238281,-90.72618865966797,-90.68572235107422
1.5302834510803223,-6.372940540313721,-83.19369506835938,136.68275451660156,-95.05805969238281,-90.72618865966797,-90.68572235107422
1.5326051712036133,-6.372940540313721,-83.19369506835938,136.68275451660156,-95.05805969238281,-90.72618865966797,-90.68572235107422
1.5347914695739746,-6.372940540313721,-83.19369506835938,136.68275451660156,-95.05805969238281,-90.72618865966797,-90.68572235107422
1.5379819869995117,-6.372940540313721,-83.19391632080078,136.68275451660156,-95.05828094482422,-90.72618865966797,-90.6859359741211
1.5402617454528809,-6.372940540313721,-83.19391632080078,136.68275451660156,-95.05828094482422,-90.72618865966797,-90.6859359741211
1.5425324440002441,-6.372940540313721,-83.19391632080078,136.68275451660156,-95.05828094482422,-90.72618865966797,-90.6859359741211
1.5446953773498535,-6.372940540313721,-83.19391632080078,136.68275451660156,-95.05828094482422,-90.72618865966797,-90.6859359741211
1.5468766689300537,-6.372940540313721,-83.19391632080078,136.68275451660156,-95.05828094482422,-90.72618865966797,-90.6859359741211
1.5490608215332031,-6.372940540313721,-83.19369506835938,136.68296813964844,-95.05828094482422,-90.72596740722656,-90.68572235107422
1.5513434410095215,-6.372940540313721,-83.19369506835938,136.68296813964844,-95.05828094482422,-90.72596740722656,-90.68572235107422
1.553645133972168,-6.372940540313721,-83.19369506835938,136.68296813964844,-95.05828094482422,-90.72596740722656,-90.68572235107422
1.5558295249938965,-6.372940540313721,-83.19369506835938,136.68296813964844,-95.05828094482422,-90.72596740722656,-90.68572235107422
1.5581459999084473,-6.372940540313721,-83.19369506835938,136.68296813964844,-95.05805969238281,-90.72596740722656,-90.68572235107422
1.5604193210601807,-6.372940540313721,-83.19369506835938,136.68296813964844,-95.05805969238281,-90.72596740722656,-90.68572235107422
1.5627086162567139,-6.372940540313721,-83.19369506835938,136.68296813964844,-95.05805969238281,-90.72596740722656,-90.68572235107422
1.5648987293243408,-6.372940540313721,-83.19369506835938,136.68296813964844,-95.05805969238281,-90.72596740722656,-90.68572235107422
1.5679442882537842,-6.372940540313721,-83.19391632080078,136.68275451660156,-95.05805969238281,-90.72596740722656,-90.68572235107422
1.5702176094055176,-6.372940540313721,-83.19391632080078,136.68275451660156,-95.05805969238281,-90.72596740722656,-90.68572235107422
1.5725183486938477,-6.372940540313721,-83.19391632080078,136.68275451660156,-95.05805969238281,-90.72596740722656,-90.68572235107422
1.5747244358062744,-6.372940540313721,-83.19391632080078,136.68275451660156,-95.05805969238281,-90.72596740722656,-90.68572235107422
1.5779812335968018,-6.373157978057861,-83.19369506835938,136.68296813964844,-95.05805969238281,-90.72596740722656,-90.6859359741211
1.5802772045135498,-6.373157978057861,-83.19369506835938,136.68296813964844,-95.05805969238281,-90.72596740722656,-90.6859359741211
1.582582712173462,-6.373157978057861,-83.19369506835938,136.68296813964844,-95.05805969238281,-90.72596740722656,-90.6859359741211
1.5847687721252441,-6.373157978057861,-83.19369506835938,136.68296813964844,-95.05805969238281,-90.72596740722656,-90.6859359741211
1.5880317687988281,-6.372940540313721,-83.19369506835938,136.68275451660156,-95.05805969238281,-90.72596740722656,-90.68572235107422
1.5902857780456543,-6.372940540313721,-83.19369506835938,136.68275451660156,-95.05805969238281,-90.72596740722656,-90.68572235107422
1.5925958156585693,-6.372940540313721,-83.19369506835938,136.68275451660156,-95.05805969238281,-90.72596740722656,-90.68572235107422
1.5947864055633545,-6.372940540313721,-83.19369506835938,136.68275451660156,-95.05805969238281,-90.72596740722656,-90.68572235107422
1.5978775024414062,-6.37272310256958,-83.1934814453125,136.68296813964844,-95.05805969238281,-90.72596740722656,-90.68572235107422
1.6000442504882812,-6.37272310256958,-83.1934814453125,136.68296813964844,-95.05805969238281,-90.72596740722656,-90.68572235107422
1.6022968292236328,-6.37272310256958,-83.1934814453125,136.68296813964844,-95.05805969238281,-90.72596740722656,-90.68572235107422
1.6045942306518555,-6.37272310256958,-83.1934814453125,136.68296813964844,-95.05805969238281,-90.72596740722656,-90.68572235107422
1.606804609298706,-6.37272310256958,-83.1934814453125,136.68296813964844,-95.05805969238281,-90.72596740722656,-90.68572235107422
1.608997106552124,-6.372940540313721,-83.19391632080078,136.68275451660156,-95.05805969238281,-90.72596740722656,-90.68572235107422
1.611257791519165,-6.372940540313721,-83.19391632080078,136.68275451660156,-95.05805969238281,-90.72596740722656,-90.68572235107422
1.6135666370391846,-6.372940540313721,-83.19391632080078,136.68275451660156,-95.05805969238281,-90.72596740722656,-90.68572235107422
1.6157426834106445,-6.372940540313721,-83.19391632080078,136.68275451660156,-95.05805969238281,-90.72596740722656,-90.68572235107422
1.6180815696716309,-6.372940540313721,-83.19369506835938,136.68296813964844,-95.05828094482422,-90.72618865966797,-90.6859359741211
1.6203374862670898,-6.372940540313721,-83.19369506835938,136.68296813964844,-95.05828094482422,-90.72618865966797,-90.6859359741211
1.6226372718811035,-6.372940540313721,-83.19369506835938,136.68296813964844,-95.05828094482422,-90.72618865966797,-90.6859359741211
1.6248095035552979,-6.372940540313721,-83.19369506835938,136.68296813964844,-95.05828094482422,-90.72618865966797,-90.6859359741211
1.6279728412628174,-6.372940540313721,-83.19369506835938,136.68275451660156,-95.05805969238281,-90.72596740722656,-90.68550109863281
1.6301641464233398,-6.372940540313721,-83.19369506835938,136.68275451660156,-95.05805969238281,-90.72596740722656,-90.68550109863281
1.632274866104126,-6.372940540313721,-83.19369506835938,136.68275451660156,-95.05805969238281,-90.72596740722656,-90.68550109863281
1.6343677043914795,-6.372940540313721,-83.19369506835938,136.68275451660156,-95.05805969238281,-90.72596740722656,-90.68550109863281
1.6364572048187256,-6.372940540313721,-83.19369506835938,136.68275451660156,-95.05805969238281,-90.72596740722656,-90.68550109863281
1.6386091709136963,-6.372940540313721,-83.19369506835938,136.6825408935547,-95.05805969238281,-90.72596740722656,-90.68572235107422
1.6407134532928467,-6.372940540313721,-83.19369506835938,136.6825408935547,-95.05805969238281,-90.72596740722656,-90.68572235107422
1.642805576324463,-6.372940540313721,-83.19369506835938,136.6825408935547,-95.05805969238281,-90.72596740722656,-90.68572235107422
1.6448957920074463,-6.372940540313721,-83.19369506835938,136.6825408935547,-95.05805969238281,-90.72596740722656,-90.68572235107422
1.6479711532592773,-6.372940540313721,-83.19369506835938,136.68296813964844,-95.05805969238281,-90.72618865966797,-90.6859359741211
1.6501481533050537,-6.372940540313721,-83.19369506835938,136.68296813964844,-95.05805969238281,-90.72618865966797,-90.6859359741211
1.6524662971496582,-6.372940540313721,-83.19369506835938,136.68296813964844,-95.05805969238281,-90.72618865966797,-90.6859359741211
1.6546905040740967,-6.372940540313721,-83.19369506835938,136.68296813964844,-95.05805969238281,-90.72618865966797,-90.6859359741211
1.6568691730499268,-6.372940540313721,-83.19369506835938,136.68296813964844,-95.05805969238281,-90.72618865966797,-90.6859359741211
1.6590538024902344,-6.372940540313721,-83.19391632080078,136.68296813964844,-95.05805969238281,-90.72596740722656,-90.68572235107422
1.6613478660583496,-6.372940540313721,-83.19391632080078,136.68296813964844,-95.05805969238281,-90.72596740722656,-90.68572235107422
1.6636693477630615,-6.372940540313721,-83.19391632080078,136.68296813964844,-95.05805969238281,-90.72596740722656,-90.68572235107422
1.6658551692962646,-6.372940540313721,-83.19391632080078,136.68296813964844,-95.05805969238281,-90.72596740722656,-90.68572235107422
1.668109655380249,-6.372940540313721,-83.19369506835938,136.68296813964844,-95.05805969238281,-90.72618865966797,-90.68572235107422
1.670362949371338,-6.372940540313721,-83.19369506835938,136.68296813964844,-95.05805969238281,-90.72618865966797,-90.68572235107422
1.672659158706665,-6.372940540313721,-83.19369506835938,136.68296813964844,-95.05805969238281,-90.72618865966797,-90.68572235107422
1.6748321056365967,-6.372940540313721,-83.19369506835938,136.68296813964844,-95.05805969238281,-90.72618865966797,-90.68572235107422
1.677931785583496,-6.372940540313721,-83.19369506835938,136.68296813964844,-95.05805969238281,-90.72596740722656,-90.68572235107422
1.6800968647003174,-6.372940540313721,-83.19369506835938,136.68296813964844,-95.05805969238281,-90.72596740722656,-90.68572235107422
1.6823413372039795,-6.372940540313721,-83.19369506835938,136.68296813964844,-95.05805969238281,-90.72596740722656,-90.68572235107422
1.684640884399414,-6.372940540313721,-83.19369506835938,136.68296813964844,-95.05805969238281,-90.72596740722656,-90.68572235107422
1.6868202686309814,-6.372940540313721,-83.19369506835938,136.68296813964844,-95.05805969238281,-90.72596740722656,-90.68572235107422
1.6890010833740234,-6.37272310256958,-83.19391632080078,136.68296813964844,-95.05805969238281,-90.72596740722656,-90.68572235107422
1.6912777423858643,-6.37272310256958,-83.19391632080078,136.68296813964844,-95.05805969238281,-90.72596740722656,-90.68572235107422
1.6936120986938477,-6.37272310256958,-83.19391632080078,136.68296813964844,-95.05805969238281,-90.72596740722656,-90.68572235107422
1.6957974433898926,-6.37272310256958,-83.19391632080078,136.68296813964844,-95.05805969238281,-90.72596740722656,-90.68572235107422
1.6979825496673584,-6.37272310256958,-83.19391632080078,136.68275451660156,-95.05805969238281,-90.72618865966797,-90.68572235107422
1.7002537250518799,-6.37272310256958,-83.19391632080078,136.68275451660156,-95.05805969238281,-90.72618865966797,-90.68572235107422
1.7025599479675293,-6.37272310256958,-83.19391632080078,136.68275451660156,-95.05805969238281,-90.72618865966797,-90.68572235107422
1.704728364944458,-6.37272310256958,-83.19391632080078,136.68275451660156,-95.05805969238281,-90.72618865966797,-90.68572235107422
1.706908941268921,-6.37272310256958,-83.19391632080078,136.68275451660156,-95.05805969238281,-90.72618865966797,-90.68572235107422
1.7090911865234375,-6.37272310256958,-83.19369506835938,136.68275451660156,-95.05828094482422,-90.72596740722656,-90.68572235107422
1.7113466262817383,-6.37272310256958,-83.19369506835938,136.68275451660156,-95.05828094482422,-90.72596740722656,-90.68572235107422
1.7136600017547607,-6.37272310256958,-83.19369506835938,136.68275451660156,-95.05828094482422,-90.72596740722656,-90.68572235107422
1.7158422470092773,-6.37272310256958,-83.19369506835938,136.68275451660156,-95.05828094482422,-90.72596740722656,-90.68572235107422
