Ultramotiv/Mauris-Progress-/All_other_stuff/q.csv
timestamp,joint1,joint2,joint3,joint4,joint5,joint6
9.179115295410156e-05,-4.208742618560791,-89.4774398803711,110.93472290039062,-122.52388000488281,-90.5910873413086,-90.1240005493164
0.002287149429321289,-4.208742618560791,-89.4774398803711,110.93472290039062,-122.52388000488281,-90.5910873413086,-90.1240005493164
0.004569530487060547,-4.208742618560791,-89.4774398803711,110.93472290039062,-122.52388000488281,-90.5910873413086,-90.1240005493164
0.006857156753540039,-4.208742618560791,-89.4774398803711,110.93472290039062,-122.52388000488281,-90.5910873413086,-90.1240005493164
0.009301185607910156,-4.208742618560791,-89.4776611328125,110.93472290039062,-122.52388000488281,-90.5910873413086,-90.1240005493164
0.011547565460205078,-4.208742618560791,-89.4776611328125,110.93472290039062,-122.52388000488281,-90.5910873413086,-90.1240005493164
0.01380610466003418,-4.208742618560791,-89.4776611328125,110.93472290039062,-122.52388000488281,-90.5910873413086,-90.1240005493164
0.015956878662109375,-4.208742618560791,-89.4776611328125,110.93472290039062,-122.52388000488281,-90.5910873413086,-90.1240005493164
0.018128633499145508,-4.208742618560791,-89.4776611328125,110.93472290039062,-122.52388000488281,-90.5910873413086,-90.1240005493164
0.020420551300048828,-4.208742618560791,-89.4774398803711,110.93450164794922,-122.52388000488281,-90.5910873413086,-90.12378692626953
0.022713422775268555,-4.208742618560791,-89.4774398803711,110.93450164794922,-122.52388000488281,-90.5910873413086,-90.12378692626953
0.02492690086364746,-4.208742618560791,-89.4774398803711,110.93450164794922,-122.52388000488281,-90.5910873413086,-90.12378692626953
0.027127742767333984,-4.208742618560791,-89.4774398803711,110.93450164794922,-122.52388000488281,-90.5910873413086,-90.12378692626953
0.02967047691345215,-4.208742618560791,-89.4774398803711,110.93450164794922,-122.52388000488281,-90.59086608886719,-90.1240005493164
0.031935691833496094,-4.208742618560791,-89.4774398803711,110.93450164794922,-122.52388000488281,-90.59086608886719,-90.1240005493164
0.034147024154663086,-4.208742618560791,-89.4774398803711,110.93450164794922,-122.52388000488281,-90.59086608886719,-90.1240005493164
0.03648853302001953,-4.208742618560791,-89.4774398803711,110.93450164794922,-122.52388000488281,-90.59086608886719,-90.1240005493164
0.03963661193847656,-4.208742618560791,-89.4776611328125,110.93450164794922,-122.52388000488281,-90.59086608886719,-90.12422180175781
0.04197573661804199,-4.208742618560791,-89.4776611328125,110.93450164794922,-122.52388000488281,-90.59086608886719,-90.12422180175781
0.04420042037963867,-4.208742618560791,-89.4776611328125,110.93450164794922,-122.52388000488281,-90.59086608886719,-90.12422180175781
0.04651522636413574,-4.208742618560791,-89.4776611328125,110.93450164794922,-122.52388000488281,-90.59086608886719,-90.12422180175781
0.04993081092834473,-4.208742618560791,-89.4776611328125,110.93428802490234,-122.52388000488281,-90.5910873413086,-90.1240005493164
0.05211663246154785,-4.208742618560791,-89.4776611328125,110.93428802490234,-122.52388000488281,-90.5910873413086,-90.1240005493164
0.05428266525268555,-4.208742618560791,-89.4776611328125,110.93428802490234,-122.52388000488281,-90.5910873413086,-90.1240005493164
0.0565185546875,-4.208742618560791,-89.4776611328125,110.93428802490234,-122.52388000488281,-90.5910873413086,-90.1240005493164
0.05948066711425781,-4.208742618560791,-89.4774398803711,110.93450164794922,-122.52388000488281,-90.5910873413086,-90.1240005493164
0.06172490119934082,-4.208742618560791,-89.4774398803711,110.93450164794922,-122.52388000488281,-90.5910873413086,-90.1240005493164
0.06382918357849121,-4.208742618560791,-89.4774398803711,110.93450164794922,-122.52388000488281,-90.5910873413086,-90.1240005493164
0.06595945358276367,-4.208742618560791,-89.4774398803711,110.93450164794922,-122.52388000488281,-90.5910873413086,-90.1240005493164
0.06809115409851074,-4.208742618560791,-89.4774398803711,110.93450164794922,-122.52388000488281,-90.5910873413086,-90.1240005493164
0.07021069526672363,-4.208742618560791,-89.4774398803711,110.93450164794922,-122.52410125732422,-90.5910873413086,-90.1240005493164
0.07239937782287598,-4.208742618560791,-89.4774398803711,110.93450164794922,-122.52410125732422,-90.5910873413086,-90.1240005493164
0.07451629638671875,-4.208742618560791,-89.4774398803711,110.93450164794922,-122.52410125732422,-90.5910873413086,-90.1240005493164
0.07671356201171875,-4.208742618560791,-89.4774398803711,110.93450164794922,-122.52410125732422,-90.5910873413086,-90.1240005493164
0.07911062240600586,-4.208742618560791,-89.4774398803711,110.93450164794922,-122.52388000488281,-90.59086608886719,-90.12378692626953
0.08124637603759766,-4.208742618560791,-89.4774398803711,110.93450164794922,-122.52388000488281,-90.59086608886719,-90.12378692626953
0.08343720436096191,-4.208742618560791,-89.4774398803711,110.93450164794922,-122.52388000488281,-90.59086608886719,-90.12378692626953
0.08565020561218262,-4.208742618560791,-89.4774398803711,110.93450164794922,-122.52388000488281,-90.59086608886719,-90.12378692626953
0.08774423599243164,-4.208742618560791,-89.4774398803711,110.93450164794922,-122.52388000488281,-90.59086608886719,-90.12378692626953
0.08987212181091309,-4.208742618560791,-89.4774398803711,110.93450164794922,-122.52366638183594,-90.5910873413086,-90.12422180175781
0.09201836585998535,-4.208742618560791,-89.4774398803711,110.93450164794922,-122.52366638183594,-90.5910873413086,-90.12422180175781
0.09418416023254395,-4.208742618560791,-89.4774398803711,110.93450164794922,-122.52366638183594,-90.5910873413086,-90.12422180175781
0.0964663028717041,-4.208742618560791,-89.4774398803711,110.93450164794922,-122.52366638183594,-90.5910873413086,-90.12422180175781
0.09992313385009766,-4.208742618560791,-89.4776611328125,110.93450164794922,-122.52388000488281,-90.5910873413086,-90.1240005493164
0.10210013389587402,-4.208742618560791,-89.4776611328125,110.93450164794922,-122.52388000488281,-90.5910873413086,-90.1240005493164
0.10430002212524414,-4.208742618560791,-89.4776611328125,110.93450164794922,-122.52388000488281,-90.5910873413086,-90.1240005493164
0.10653829574584961,-4.208742618560791,-89.4776611328125,110.93450164794922,-122.52388000488281,-90.5910873413086,-90.1240005493164
0.10972380638122559,-4.208742618560791,-89.4774398803711,110.93472290039062,-122.52410125732422,-90.5910873413086,-90.1240005493164
0.11190557479858398,-4.208742618560791,-89.4774398803711,110.93472290039062,-122.52410125732422,-90.5910873413086,-90.1240005493164
0.11411094665527344,-4.208742618560791,-89.4774398803711,110.93472290039062,-122.52410125732422,-90.5910873413086,-90.1240005493164
0.11629915237426758,-4.208742618560791,-89.4774398803711,110.93472290039062,-122.52410125732422,-90.5910873413086,-90.1240005493164
0.11855077743530273,-4.208742618560791,-89.4774398803711,110.93472290039062,-122.52410125732422,-90.5910873413086,-90.1240005493164
0.12086200714111328,-4.208960056304932,-89.4776611328125,110.93450164794922,-122.52388000488281,-90.59086608886719,-90.1240005493164
0.12303924560546875,-4.208960056304932,-89.4776611328125,110.93450164794922,-122.52388000488281,-90.59086608886719,-90.1240005493164
0.12522006034851074,-4.208960056304932,-89.4776611328125,110.93450164794922,-122.52388000488281,-90.59086608886719,-90.1240005493164
0.12749171257019043,-4.208960056304932,-89.4776611328125,110.93450164794922,-122.52388000488281,-90.59086608886719,-90.1240005493164
0.12988829612731934,-4.208742618560791,-89.4774398803711,110.93450164794922,-122.52388000488281,-90.5910873413086,-90.1240005493164
0.13205623626708984,-4.208742618560791,-89.4774398803711,110.93450164794922,-122.52388000488281,-90.5910873413086,-90.1240005493164
0.13423585891723633,-4.208742618560791,-89.4774398803711,110.93450164794922,-122.52388000488281,-90.5910873413086,-90.1240005493164
0.13651251792907715,-4.208742618560791,-89.4774398803711,110.93450164794922,-122.52388000488281,-90.5910873413086,-90.1240005493164
0.13978266716003418,-4.208742618560791,-89.4776611328125,110.93450164794922,-122.52388000488281,-90.5910873413086,-90.1240005493164
0.14194989204406738,-4.208742618560791,-89.4776611328125,110.93450164794922,-122.52388000488281,-90.5910873413086,-90.1240005493164
0.14412569999694824,-4.208742618560791,-89.4776611328125,110.93450164794922,-122.52388000488281,-90.5910873413086,-90.1240005493164
0.14632511138916016,-4.208742618560791,-89.4776611328125,110.93450164794922,-122.52388000488281,-90.5910873413086,-90.1240005493164
0.14849567413330078,-4.208742618560791,-89.4776611328125,110.93450164794922,-122.52388000488281,-90.5910873413086,-90.1240005493164
0.1507554054260254,-4.208742618560791,-89.4774398803711,110.93450164794922,-122.52388000488281,-90.5910873413086,-90.1240005493164
0.1528937816619873,-4.208742618560791,-89.4774398803711,110.93450164794922,-122.52388000488281,-90.5910873413086,-90.1240005493164
0.1550617218017578,-4.208742618560791,-89.4774398803711,110.93450164794922,-122.52388000488281,-90.5910873413086,-90.1240005493164
0.1572415828704834,-4.208742618560791,-89.4774398803711,110.93450164794922,-122.52388000488281,-90.5910873413086,-90.1240005493164
0.15964365005493164,-4.208742618560791,-89.4774398803711,110.93450164794922,-122.52388000488281,-90.5910873413086,-90.1240005493164
0.1619114875793457,-4.208742618560791,-89.4774398803711,110.93450164794922,-122.52388000488281,-90.5910873413086,-90.1240005493164
0.16408658027648926,-4.208742618560791,-89.4774398803711,110.93450164794922,-122.52388000488281,-90.5910873413086,-90.1240005493164
0.16626620292663574,-4.208742618560791,-89.4774398803711,110.93450164794922,-122.52388000488281,-90.5910873413086,-90.1240005493164
0.1685013771057129,-4.208742618560791,-89.4774398803711,110.93450164794922,-122.52388000488281,-90.5910873413086,-90.1240005493164
0.17078375816345215,-4.208742618560791,-89.4774398803711,110.93428802490234,-122.52410125732422,-90.59086608886719,-90.1240005493164
0.17294979095458984,-4.208742618560791,-89.4774398803711,110.93428802490234,-122.52410125732422,-90.59086608886719,-90.1240005493164
0.1751258373260498,-4.208742618560791,-89.4774398803711,110.93428802490234,-122.52410125732422,-90.59086608886719,-90.1240005493164
0.1773059368133545,-4.208742618560791,-89.4774398803711,110.93428802490234,-122.52410125732422,-90.59086608886719,-90.1240005493164
0.17952847480773926,-4.208742618560791,-89.4774398803711,110.93450164794922,-122.52410125732422,-90.5910873413086,-90.1240005493164
0.18174195289611816,-4.208742618560791,-89.4774398803711,110.93450164794922,-122.52410125732422,-90.5910873413086,-90.1240005493164
0.18389368057250977,-4.208742618560791,-89.4774398803711,110.93450164794922,-122.52410125732422,-90.5910873413086,-90.1240005493164
0.18603134155273438,-4.208742618560791,-89.4774398803711,110.93450164794922,-122.52410125732422,-90.5910873413086,-90.1240005493164
0.18818354606628418,-4.208742618560791,-89.4774398803711,110.93450164794922,-122.52410125732422,-90.5910873413086,-90.1240005493164
0.19046449661254883,-4.208960056304932,-89.4774398803711,110.93450164794922,-122.52410125732422,-90.5910873413086,-90.1240005493164
0.1927473545074463,-4.208960056304932,-89.4774398803711,110.93450164794922,-122.52410125732422,-90.5910873413086,-90.1240005493164
0.19492197036743164,-4.208960056304932,-89.4774398803711,110.93450164794922,-122.52410125732422,-90.5910873413086,-90.1240005493164
0.19710159301757812,-4.208960056304932,-89.4774398803711,110.93450164794922,-122.52410125732422,-90.5910873413086,-90.1240005493164
0.1997697353363037,-4.208742618560791,-89.4774398803711,110.93450164794922,-122.52410125732422,-90.5910873413086,-90.1240005493164
0.2020251750946045,-4.208742618560791,-89.4774398803711,110.93450164794922,-122.52410125732422,-90.5910873413086,-90.1240005493164
0.20419931411743164,-4.208742618560791,-89.4774398803711,110.93450164794922,-122.52410125732422,-90.5910873413086,-90.1240005493164
0.2063753604888916,-4.208742618560791,-89.4774398803711,110.93450164794922,-122.52410125732422,-90.5910873413086,-90.1240005493164
0.2096250057220459,-4.208742618560791,-89.4774398803711,110.93450164794922,-122.52410125732422,-90.59086608886719,-90.1240005493164
0.21189546585083008,-4.208742618560791,-89.4774398803711,110.93450164794922,-122.52410125732422,-90.59086608886719,-90.1240005493164
0.21406793594360352,-4.208742618560791,-89.4774398803711,110.93450164794922,-122.52410125732422,-90.59086608886719,-90.1240005493164
0.21624469757080078,-4.208742618560791,-89.4774398803711,110.93450164794922,-122.52410125732422,-90.59086608886719,-90.1240005493164
0.21850204467773438,-4.208742618560791,-89.4774398803711,110.93450164794922,-122.52410125732422,-90.59086608886719,-90.1240005493164
0.22076773643493652,-4.208742618560791,-89.4774398803711,110.93472290039062,-122.52388000488281,-90.5910873413086,-90.1240005493164
0.22291064262390137,-4.208742618560791,-89.4774398803711,110.93472290039062,-122.52388000488281,-90.5910873413086,-90.1240005493164
0.225083589553833,-4.208742618560791,-89.4774398803711,110.93472290039062,-122.52388000488281,-90.5910873413086,-90.1240005493164
0.227278470993042,-4.208742618560791,-89.4774398803711,110.93472290039062,-122.52388000488281,-90.5910873413086,-90.1240005493164
0.22966718673706055,-4.208742618560791,-89.4774398803711,110.93472290039062,-122.52388000488281,-90.59130096435547,-90.12422180175781
0.23186779022216797,-4.208742618560791,-89.4774398803711,110.93472290039062,-122.52388000488281,-90.59130096435547,-90.12422180175781
0.2340397834777832,-4.208742618560791,-89.4774398803711,110.93472290039062,-122.52388000488281,-90.59130096435547,-90.12422180175781
0.23621630668640137,-4.208742618560791,-89.4774398803711,110.93472290039062,-122.52388000488281,-90.59130096435547,-90.12422180175781
0.23849940299987793,-4.208742618560791,-89.4774398803711,110.93472290039062,-122.52388000488281,-90.59130096435547,-90.12422180175781
0.24076128005981445,-4.20852518081665,-89.4776611328125,110.93450164794922,-122.52388000488281,-90.59086608886719,-90.1240005493164
0.24291372299194336,-4.20852518081665,-89.4776611328125,110.93450164794922,-122.52388000488281,-90.59086608886719,-90.1240005493164
0.2450859546661377,-4.20852518081665,-89.4776611328125,110.93450164794922,-122.52388000488281,-90.59086608886719,-90.1240005493164
0.24726176261901855,-4.20852518081665,-89.4776611328125,110.93450164794922,-122.52388000488281,-90.59086608886719,-90.1240005493164
0.24950671195983887,-4.208742618560791,-89.4776611328125,110.93450164794922,-122.52410125732422,-90.59130096435547,-90.1240005493164
0.2517681121826172,-4.208742618560791,-89.4776611328125,110.93450164794922,-122.52410125732422,-90.59130096435547,-90.1240005493164
0.25391483306884766,-4.208742618560791,-89.4776611328125,110.93450164794922,-122.52410125732422,-90.59130096435547,-90.1240005493164
0.2560875415802002,-4.208742618560791,-89.4776611328125,110.93450164794922,-122.52410125732422,-90.59130096435547,-90.1240005493164
0.2582826614379883,-4.208742618560791,-89.4776611328125,110.93450164794922,-122.52410125732422,-90.59130096435547,-90.1240005493164
0.2605419158935547,-4.208742618560791,-89.4774398803711,110.93450164794922,-122.52388000488281,-90.59086608886719,-90.12422180175781
0.2628340721130371,-4.208742618560791,-89.4774398803711,110.93450164794922,-122.52388000488281,-90.59086608886719,-90.12422180175781
0.26500630378723145,-4.208742618560791,-89.4774398803711,110.93450164794922,-122.52388000488281,-90.59086608886719,-90.12422180175781
0.2671999931335449,-4.208742618560791,-89.4774398803711,110.93450164794922,-122.52388000488281,-90.59086608886719,-90.12422180175781
0.2696716785430908,-4.208742618560791,-89.4776611328125,110.93450164794922,-122.52410125732422,-90.5910873413086,-90.1240005493164
0.27191662788391113,-4.208742618560791,-89.4776611328125,110.93450164794922,-122.52410125732422,-90.5910873413086,-90.1240005493164
0.2740597724914551,-4.208742618560791,-89.4776611328125,110.93450164794922,-122.52410125732422,-90.5910873413086,-90.1240005493164
0.2762110233306885,-4.208742618560791,-89.4776611328125,110.93450164794922,-122.52410125732422,-90.5910873413086,-90.1240005493164
0.2784097194671631,-4.208742618560791,-89.4776611328125,110.93450164794922,-122.52410125732422,-90.5910873413086,-90.1240005493164
0.28067445755004883,-4.20852518081665,-89.4774398803711,110.93450164794922,-122.52410125732422,-90.5910873413086,-90.1240005493164
0.2829132080078125,-4.20852518081665,-89.4774398803711,110.93450164794922,-122.52410125732422,-90.5910873413086,-90.1240005493164
0.28507494926452637,-4.20852518081665,-89.4774398803711,110.93450164794922,-122.52410125732422,-90.5910873413086,-90.1240005493164
0.2872505187988281,-4.20852518081665,-89.4774398803711,110.93450164794922,-122.52410125732422,-90.5910873413086,-90.1240005493164
0.28979015350341797,-4.208742618560791,-89.4776611328125,110.93450164794922,-122.52410125732422,-90.59086608886719,-90.1240005493164
0.2919650077819824,-4.208742618560791,-89.4776611328125,110.93450164794922,-122.52410125732422,-90.59086608886719,-90.1240005493164
0.2941579818725586,-4.208742618560791,-89.4776611328125,110.93450164794922,-122.52410125732422,-90.59086608886719,-90.1240005493164
0.29645848274230957,-4.208742618560791,-89.4776611328125,110.93450164794922,-122.52410125732422,-90.59086608886719,-90.1240005493164
0.29988932609558105,-4.208742618560791,-89.4774398803711,110.93450164794922,-122.52388000488281,-90.5910873413086,-90.1240005493164
0.30205249786376953,-4.208742618560791,-89.4774398803711,110.93450164794922,-122.52388000488281,-90.5910873413086,-90.1240005493164
0.3042299747467041,-4.208742618560791,-89.4774398803711,110.93450164794922,-122.52388000488281,-90.5910873413086,-90.1240005493164
0.3065023422241211,-4.208742618560791,-89.4774398803711,110.93450164794922,-122.52388000488281,-90.5910873413086,-90.1240005493164
0.3096585273742676,-4.208960056304932,-89.4774398803711,110.93428802490234,-122.52410125732422,-90.5910873413086,-90.1240005493164
0.3119218349456787,-4.208960056304932,-89.4774398803711,110.93428802490234,-122.52410125732422,-90.5910873413086,-90.1240005493164
0.31409406661987305,-4.208960056304932,-89.4774398803711,110.93428802490234,-122.52410125732422,-90.5910873413086,-90.1240005493164
0.3162715435028076,-4.208960056304932,-89.4774398803711,110.93428802490234,-122.52410125732422,-90.5910873413086,-90.1240005493164
0.3185441493988037,-4.208960056304932,-89.4774398803711,110.93428802490234,-122.52410125732422,-90.5910873413086,-90.1240005493164
0.3208339214324951,-4.208742618560791,-89.4774398803711,110.93450164794922,-122.52410125732422,-90.5910873413086,-90.12422180175781
0.322998046875,-4.208742618560791,-89.4774398803711,110.93450164794922,-122.52410125732422,-90.5910873413086,-90.12422180175781
0.3251616954803467,-4.208742618560791,-89.4774398803711,110.93450164794922,-122.52410125732422,-90.5910873413086,-90.12422180175781
0.3274505138397217,-4.208742618560791,-89.4774398803711,110.93450164794922,-122.52410125732422,-90.5910873413086,-90.12422180175781
0.32973623275756836,-4.208742618560791,-89.4774398803711,110.93450164794922,-122.52388000488281,-90.5910873413086,-90.12422180175781
0.3319125175476074,-4.208742618560791,-89.4774398803711,110.93450164794922,-122.52388000488281,-90.5910873413086,-90.12422180175781
0.3340754508972168,-4.208742618560791,-89.4774398803711,110.93450164794922,-122.52388000488281,-90.5910873413086,-90.12422180175781
0.33625173568725586,-4.208742618560791,-89.4774398803711,110.93450164794922,-122.52388000488281,-90.5910873413086,-90.12422180175781
0.3384883403778076,-4.208742618560791,-89.4774398803711,110.93450164794922,-122.52388000488281,-90.5910873413086,-90.12422180175781
0.34078121185302734,-4.208742618560791,-89.4774398803711,110.93450164794922,-122.52388000488281,-90.5910873413086,-90.1240005493164
0.34296607971191406,-4.208742618560791,-89.4774398803711,110.93450164794922,-122.52388000488281,-90.5910873413086,-90.1240005493164
0.3451519012451172,-4.208742618560791,-89.4774398803711,110.93450164794922,-122.52388000488281,-90.5910873413086,-90.1240005493164
0.34742188453674316,-4.208742618560791,-89.4774398803711,110.93450164794922,-122.52388000488281,-90.5910873413086,-90.1240005493164
0.34966325759887695,-4.208742618560791,-89.4774398803711,110.93428802490234,-122.52410125732422,-90.5910873413086,-90.1240005493164
0.3518705368041992,-4.208742618560791,-89.4774398803711,110.93428802490234,-122.52410125732422,-90.5910873413086,-90.1240005493164
0.35404348373413086,-4.208742618560791,-89.4774398803711,110.93428802490234,-122.52410125732422,-90.5910873413086,-90.1240005493164
0.3562202453613281,-4.208742618560791,-89.4774398803711,110.93428802490234,-122.52410125732422,-90.5910873413086,-90.1240005493164
0.35848450660705566,-4.208742618560791,-89.4774398803711,110.93428802490234,-122.52410125732422,-90.5910873413086,-90.1240005493164
0.3607668876647949,-4.208742618560791,-89.4774398803711,110.93450164794922,-122.52410125732422,-90.5910873413086,-90.1240005493164
0.3629274368286133,-4.208742618560791,-89.4774398803711,110.93450164794922,-122.52410125732422,-90.5910873413086,-90.1240005493164
0.3651115894317627,-4.208742618560791,-89.4774398803711,110.93450164794922,-122.52410125732422,-90.5910873413086,-90.1240005493164
0.3672962188720703,-4.208742618560791,-89.4774398803711,110.93450164794922,-122.52410125732422,-90.5910873413086,-90.1240005493164
0.3697364330291748,-4.20852518081665,-89.4774398803711,110.93450164794922,-122.52366638183594,-90.5910873413086,-90.12422180175781
0.3719003200531006,-4.20852518081665,-89.4774398803711,110.93450164794922,-122.52366638183594,-90.5910873413086,-90.12422180175781
0.374072790145874,-4.20852518081665,-89.4774398803711,110.93450164794922,-122.52366638183594,-90.5910873413086,-90.12422180175781
0.3762495517730713,-4.20852518081665,-89.4774398803711,110.93450164794922,-122.52366638183594,-90.5910873413086,-90.12422180175781
0.3784828186035156,-4.20852518081665,-89.4774398803711,110.93450164794922,-122.52366638183594,-90.5910873413086,-90.12422180175781
0.3807551860809326,-4.208742618560791,-89.4774398803711,110.93450164794922,-122.52410125732422,-90.59086608886719,-90.1240005493164
0.38292765617370605,-4.208742618560791,-89.4774398803711,110.93450164794922,-122.52410125732422,-90.59086608886719,-90.1240005493164
0.3850991725921631,-4.208742618560791,-89.4774398803711,110.93450164794922,-122.52410125732422,-90.59086608886719,-90.1240005493164
0.38727426528930664,-4.208742618560791,-89.4774398803711,110.93450164794922,-122.52410125732422,-90.59086608886719,-90.1240005493164
0.38967108726501465,-4.208960056304932,-89.4774398803711,110.93450164794922,-122.52410125732422,-90.5910873413086,-90.1240005493164
0.3919179439544678,-4.208960056304932,-89.4774398803711,110.93450164794922,-122.52410125732422,-90.5910873413086,-90.1240005493164
0.3940906524658203,-4.208960056304932,-89.4774398803711,110.93450164794922,-122.52410125732422,-90.5910873413086,-90.1240005493164
0.3962674140930176,-4.208960056304932,-89.4774398803711,110.93450164794922,-122.52410125732422,-90.5910873413086,-90.1240005493164
0.3985006809234619,-4.208960056304932,-89.4774398803711,110.93450164794922,-122.52410125732422,-90.5910873413086,-90.1240005493164
0.4007852077484131,-4.208742618560791,-89.4776611328125,110.93450164794922,-122.52388000488281,-90.5910873413086,-90.1240005493164
0.40296363830566406,-4.208742618560791,-89.4776611328125,110.93450164794922,-122.52388000488281,-90.5910873413086,-90.1240005493164
0.40512728691101074,-4.208742618560791,-89.4776611328125,110.93450164794922,-122.52388000488281,-90.5910873413086,-90.1240005493164
0.40731096267700195,-4.208742618560791,-89.4776611328125,110.93450164794922,-122.52388000488281,-90.5910873413086,-90.1240005493164
0.40955090522766113,-4.208960056304932,-89.4774398803711,110.93450164794922,-122.52388000488281,-90.5910873413086,-90.1240005493164
0.4118320941925049,-4.208960056304932,-89.4774398803711,110.93450164794922,-122.52388000488281,-90.5910873413086,-90.1240005493164
0.4140052795410156,-4.208960056304932,-89.4774398803711,110.93450164794922,-122.52388000488281,-90.5910873413086,-90.1240005493164
0.4161806106567383,-4.208960056304932,-89.4774398803711,110.93450164794922,-122.52388000488281,-90.5910873413086,-90.1240005493164
0.4184725284576416,-4.208960056304932,-89.4774398803711,110.93450164794922,-122.52388000488281,-90.5910873413086,-90.1240005493164
0.42075133323669434,-4.208960056304932,-89.4774398803711,110.93450164794922,-122.52410125732422,-90.5910873413086,-90.1240005493164
0.42290782928466797,-4.208960056304932,-89.4774398803711,110.93450164794922,-122.52410125732422,-90.5910873413086,-90.1240005493164
0.4250800609588623,-4.208960056304932,-89.4774398803711,110.93450164794922,-122.52410125732422,-90.5910873413086,-90.1240005493164
0.42725586891174316,-4.208960056304932,-89.4774398803711,110.93450164794922,-122.52410125732422,-90.5910873413086,-90.1240005493164
0.429490327835083,-4.208742618560791,-89.4774398803711,110.93450164794922,-122.52410125732422,-90.5910873413086,-90.1240005493164
0.4317469596862793,-4.208742618560791,-89.4774398803711,110.93450164794922,-122.52410125732422,-90.5910873413086,-90.1240005493164
0.43393850326538086,-4.208742618560791,-89.4774398803711,110.93450164794922,-122.52410125732422,-90.5910873413086,-90.1240005493164
0.436110258102417,-4.208742618560791,-89.4774398803711,110.93450164794922,-122.52410125732422,-90.5910873413086,-90.1240005493164
0.43828749656677246,-4.208742618560791,-89.4774398803711,110.93450164794922,-122.52410125732422,-90.5910873413086,-90.1240005493164
0.4405524730682373,-4.208742618560791,-89.4776611328125,110.93450164794922,-122.52410125732422,-90.5910873413086,-90.1240005493164
0.44295597076416016,-4.208742618560791,-89.4776611328125,110.93450164794922,-122.52410125732422,-90.5910873413086,-90.1240005493164
0.4451305866241455,-4.208742618560791,-89.4776611328125,110.93450164794922,-122.52410125732422,-90.5910873413086,-90.1240005493164
0.44730591773986816,-4.208742618560791,-89.4776611328125,110.93450164794922,-122.52410125732422,-90.5910873413086,-90.1240005493164
0.4495816230773926,-4.208742618560791,-89.47722625732422,110.93450164794922,-122.52410125732422,-90.5910873413086,-90.12422180175781
0.4518735408782959,-4.208742618560791,-89.47722625732422,110.93450164794922,-122.52410125732422,-90.5910873413086,-90.12422180175781
0.4540390968322754,-4.208742618560791,-89.47722625732422,110.93450164794922,-122.52410125732422,-90.5910873413086,-90.12422180175781
0.45621633529663086,-4.208742618560791,-89.47722625732422,110.93450164794922,-122.52410125732422,-90.5910873413086,-90.12422180175781
0.45850038528442383,-4.208742618560791,-89.47722625732422,110.93450164794922,-122.52410125732422,-90.5910873413086,-90.12422180175781
0.4607701301574707,-4.208742618560791,-89.4774398803711,110.93450164794922,-122.52388000488281,-90.59130096435547,-90.1240005493164
0.46291136741638184,-4.208742618560791,-89.4774398803711,110.93450164794922,-122.52388000488281,-90.59130096435547,-90.1240005493164
0.46508336067199707,-4.208742618560791,-89.4774398803711,110.93450164794922,-122.52388000488281,-90.59130096435547,-90.1240005493164
0.46725964546203613,-4.208742618560791,-89.4774398803711,110.93450164794922,-122.52388000488281,-90.59130096435547,-90.1240005493164
0.4696924686431885,-4.208742618560791,-89.4774398803711,110.93450164794922,-122.52410125732422,-90.5910873413086,-90.1240005493164
0.4718515872955322,-4.208742618560791,-89.4774398803711,110.93450164794922,-122.52410125732422,-90.5910873413086,-90.1240005493164
0.47400403022766113,-4.208742618560791,-89.4774398803711,110.93450164794922,-122.52410125732422,-90.5910873413086,-90.1240005493164
0.47615551948547363,-4.208742618560791,-89.4774398803711,110.93450164794922,-122.52410125732422,-90.5910873413086,-90.1240005493164
0.4783165454864502,-4.208742618560791,-89.4774398803711,110.93450164794922,-122.52410125732422,-90.5910873413086,-90.1240005493164
0.4805910587310791,-4.208742618560791,-89.4774398803711,110.93450164794922,-122.52388000488281,-90.5910873413086,-90.1240005493164
0.4828817844390869,-4.208742618560791,-89.4774398803711,110.93450164794922,-122.52388000488281,-90.5910873413086,-90.1240005493164
0.48505496978759766,-4.208742618560791,-89.4774398803711,110.93450164794922,-122.52388000488281,-90.5910873413086,-90.1240005493164
0.4872395992279053,-4.208742618560791,-89.4774398803711,110.93450164794922,-122.52388000488281,-90.5910873413086,-90.1240005493164
0.48966550827026367,-4.208742618560791,-89.4776611328125,110.93450164794922,-122.52388000488281,-90.5910873413086,-90.1240005493164
0.49187469482421875,-4.208742618560791,-89.4776611328125,110.93450164794922,-122.52388000488281,-90.5910873413086,-90.1240005493164
0.4940493106842041,-4.208742618560791,-89.4776611328125,110.93450164794922,-122.52388000488281,-90.5910873413086,-90.1240005493164
0.4962272644042969,-4.208742618560791,-89.4776611328125,110.93450164794922,-122.52388000488281,-90.5910873413086,-90.1240005493164
0.4984622001647949,-4.208742618560791,-89.4776611328125,110.93450164794922,-122.52388000488281,-90.5910873413086,-90.1240005493164
0.5007359981536865,-4.208742618560791,-89.4776611328125,110.93450164794922,-122.52410125732422,-90.59086608886719,-90.1240005493164
0.5029006004333496,-4.208742618560791,-89.4776611328125,110.93450164794922,-122.52410125732422,-90.59086608886719,-90.1240005493164
0.5050725936889648,-4.208742618560791,-89.4776611328125,110.93450164794922,-122.52410125732422,-90.59086608886719,-90.1240005493164
0.5072495937347412,-4.208742618560791,-89.4776611328125,110.93450164794922,-122.52410125732422,-90.59086608886719,-90.1240005493164
0.5095553398132324,-4.208742618560791,-89.4774398803711,110.93472290039062,-122.52410125732422,-90.59086608886719,-90.1240005493164
0.5118424892425537,-4.208742618560791,-89.4774398803711,110.93472290039062,-122.52410125732422,-90.59086608886719,-90.1240005493164
0.5140223503112793,-4.208742618560791,-89.4774398803711,110.93472290039062,-122.52410125732422,-90.59086608886719,-90.1240005493164
0.516197681427002,-4.208742618560791,-89.4774398803711,110.93472290039062,-122.52410125732422,-90.59086608886719,-90.1240005493164
0.5184347629547119,-4.208742618560791,-89.4774398803711,110.93472290039062,-122.52410125732422,-90.59086608886719,-90.1240005493164
0.5207111835479736,-4.208742618560791,-89.4776611328125,110.93450164794922,-122.52410125732422,-90.5910873413086,-90.1240005493164
0.5228972434997559,-4.208742618560791,-89.4776611328125,110.93450164794922,-122.52410125732422,-90.5910873413086,-90.1240005493164
0.5250694751739502,-4.208742618560791,-89.4776611328125,110.93450164794922,-122.52410125732422,-90.5910873413086,-90.1240005493164
0.5272481441497803,-4.208742618560791,-89.4776611328125,110.93450164794922,-122.52410125732422,-90.5910873413086,-90.1240005493164
0.529613733291626,-4.208960056304932,-89.4774398803711,110.93450164794922,-122.52410125732422,-90.5910873413086,-90.1240005493164
0.5319085121154785,-4.208960056304932,-89.4774398803711,110.93450164794922,-122.52410125732422,-90.5910873413086,-90.1240005493164
0.5340690612792969,-4.208960056304932,-89.4774398803711,110.93450164794922,-122.52410125732422,-90.5910873413086,-90.1240005493164
0.5362350940704346,-4.208960056304932,-89.4774398803711,110.93450164794922,-122.52410125732422,-90.5910873413086,-90.1240005493164
0.5384697914123535,-4.208960056304932,-89.4774398803711,110.93450164794922,-122.52410125732422,-90.5910873413086,-90.1240005493164
0.5407426357269287,-4.2091779708862305,-89.4776611328125,110.93472290039062,-122.52410125732422,-90.5910873413086,-90.1240005493164
0.5429120063781738,-4.2091779708862305,-89.4776611328125,110.93472290039062,-122.52410125732422,-90.5910873413086,-90.1240005493164
0.5450863838195801,-4.2091779708862305,-89.4776611328125,110.93472290039062,-122.52410125732422,-90.5910873413086,-90.1240005493164
0.547264814376831,-4.2091779708862305,-89.4776611328125,110.93472290039062,-122.52410125732422,-90.5910873413086,-90.1240005493164
0.5495450496673584,-4.209612846374512,-89.4774398803711,110.93450164794922,-122.52410125732422,-90.59086608886719,-90.1240005493164
0.5518219470977783,-4.209612846374512,-89.4774398803711,110.93450164794922,-122.52410125732422,-90.59086608886719,-90.1240005493164
0.5540122985839844,-4.209612846374512,-89.4774398803711,110.93450164794922,-122.52410125732422,-90.59086608886719,-90.1240005493164
0.556187629699707,-4.209612846374512,-89.4774398803711,110.93450164794922,-122.52410125732422,-90.59086608886719,-90.1240005493164
0.5584793090820312,-4.209612846374512,-89.4774398803711,110.93450164794922,-122.52410125732422,-90.59086608886719,-90.1240005493164
0.5607626438140869,-4.209830284118652,-89.4774398803711,110.93472290039062,-122.52410125732422,-90.59130096435547,-90.1240005493164
0.5629086494445801,-4.209830284118652,-89.4774398803711,110.93472290039062,-122.52410125732422,-90.59130096435547,-90.1240005493164
0.5650815963745117,-4.209830284118652,-89.4774398803711,110.93472290039062,-122.52410125732422,-90.59130096435547,-90.1240005493164
0.5672605037689209,-4.209830284118652,-89.4774398803711,110.93472290039062,-122.52410125732422,-90.59130096435547,-90.1240005493164
0.5695052146911621,-4.209830284118652,-89.4776611328125,110.93450164794922,-122.52410125732422,-90.5910873413086,-90.1240005493164
0.5717666149139404,-4.209830284118652,-89.4776611328125,110.93450164794922,-122.52410125732422,-90.5910873413086,-90.1240005493164
0.5739381313323975,-4.209830284118652,-89.4776611328125,110.93450164794922,-122.52410125732422,-90.5910873413086,-90.1240005493164
0.5761125087738037,-4.209830284118652,-89.4776611328125,110.93450164794922,-122.52410125732422,-90.5910873413086,-90.1240005493164
0.5783324241638184,-4.209830284118652,-89.4776611328125,110.93450164794922,-122.52410125732422,-90.5910873413086,-90.1240005493164
0.580470085144043,-4.210047721862793,-89.4774398803711,110.93450164794922,-122.5243148803711,-90.59086608886719,-90.1240005493164
0.5827155113220215,-4.210047721862793,-89.4774398803711,110.93450164794922,-122.5243148803711,-90.59086608886719,-90.1240005493164
0.5848884582519531,-4.210047721862793,-89.4774398803711,110.93450164794922,-122.5243148803711,-90.59086608886719,-90.1240005493164
0.5870351791381836,-4.210047721862793,-89.4774398803711,110.93450164794922,-122.5243148803711,-90.59086608886719,-90.1240005493164
0.58953857421875,-4.210047721862793,-89.4774398803711,110.93450164794922,-122.52388000488281,-90.5910873413086,-90.12422180175781
0.5918118953704834,-4.210047721862793,-89.4774398803711,110.93450164794922,-122.52388000488281,-90.5910873413086,-90.12422180175781
0.594003438949585,-4.210047721862793,-89.4774398803711,110.93450164794922,-122.52388000488281,-90.5910873413086,-90.12422180175781
0.5961775779724121,-4.210047721862793,-89.4774398803711,110.93450164794922,-122.52388000488281,-90.5910873413086,-90.12422180175781
0.5983538627624512,-4.210047721862793,-89.4774398803711,110.93450164794922,-122.52388000488281,-90.5910873413086,-90.12422180175781
0.6006350517272949,-4.210047721862793,-89.4776611328125,110.93450164794922,-122.52410125732422,-90.59086608886719,-90.1240005493164
0.6029386520385742,-4.210047721862793,-89.4776611328125,110.93450164794922,-122.52410125732422,-90.59086608886719,-90.1240005493164
0.6051242351531982,-4.210047721862793,-89.4776611328125,110.93450164794922,-122.52410125732422,-90.59086608886719,-90.1240005493164
0.6073124408721924,-4.210047721862793,-89.4776611328125,110.93450164794922,-122.52410125732422,-90.59086608886719,-90.1240005493164
0.609553337097168,-4.210047721862793,-89.4776611328125,110.93450164794922,-122.52410125732422,-90.5910873413086,-90.1240005493164
0.6118366718292236,-4.210047721862793,-89.4776611328125,110.93450164794922,-122.52410125732422,-90.5910873413086,-90.1240005493164
0.614006519317627,-4.210047721862793,-89.4776611328125,110.93450164794922,-122.52410125732422,-90.5910873413086,-90.1240005493164
0.6161775588989258,-4.210047721862793,-89.4776611328125,110.93450164794922,-122.52410125732422,-90.5910873413086,-90.1240005493164
0.618471622467041,-4.210047721862793,-89.4776611328125,110.93450164794922,-122.52410125732422,-90.5910873413086,-90.1240005493164
0.6207563877105713,-4.210047721862793,-89.4774398803711,110.93450164794922,-122.52410125732422,-90.59086608886719,-90.1240005493164
0.6228926181793213,-4.210047721862793,-89.4774398803711,110.93450164794922,-122.52410125732422,-90.59086608886719,-90.1240005493164
0.6250653266906738,-4.210047721862793,-89.4774398803711,110.93450164794922,-122.52410125732422,-90.59086608886719,-90.1240005493164
0.6272432804107666,-4.210047721862793,-89.4774398803711,110.93450164794922,-122.52410125732422,-90.59086608886719,-90.1240005493164
0.6295428276062012,-4.210265636444092,-89.4774398803711,110.93450164794922,-122.52388000488281,-90.5910873413086,-90.1240005493164
0.6317975521087646,-4.210265636444092,-89.4774398803711,110.93450164794922,-122.52388000488281,-90.5910873413086,-90.1240005493164
0.6339788436889648,-4.210265636444092,-89.4774398803711,110.93450164794922,-122.52388000488281,-90.5910873413086,-90.1240005493164
0.6361520290374756,-4.210265636444092,-89.4774398803711,110.93450164794922,-122.52388000488281,-90.5910873413086,-90.1240005493164
0.6383287906646729,-4.210265636444092,-89.4774398803711,110.93450164794922,-122.52388000488281,-90.5910873413086,-90.1240005493164
0.6405768394470215,-4.210265636444092,-89.4774398803711,110.93450164794922,-122.52410125732422,-90.5910873413086,-90.12422180175781
0.6429307460784912,-4.210265636444092,-89.4774398803711,110.93450164794922,-122.52410125732422,-90.5910873413086,-90.12422180175781
0.6451058387756348,-4.210265636444092,-89.4774398803711,110.93450164794922,-122.52410125732422,-90.5910873413086,-90.12422180175781
0.6472821235656738,-4.210265636444092,-89.4774398803711,110.93450164794922,-122.52410125732422,-90.5910873413086,-90.12422180175781
0.6495676040649414,-4.210483074188232,-89.4774398803711,110.93450164794922,-122.52388000488281,-90.59086608886719,-90.1240005493164
0.6518080234527588,-4.210483074188232,-89.4774398803711,110.93450164794922,-122.52388000488281,-90.59086608886719,-90.1240005493164
0.6539504528045654,-4.210483074188232,-89.4774398803711,110.93450164794922,-122.52388000488281,-90.59086608886719,-90.1240005493164
0.6560912132263184,-4.210483074188232,-89.4774398803711,110.93450164794922,-122.52388000488281,-90.59086608886719,-90.1240005493164
0.6582615375518799,-4.210483074188232,-89.4774398803711,110.93450164794922,-122.52388000488281,-90.59086608886719,-90.1240005493164
0.6605210304260254,-4.210265636444092,-89.4776611328125,110.93472290039062,-122.52410125732422,-90.5910873413086,-90.1240005493164
0.6627962589263916,-4.210265636444092,-89.4776611328125,110.93472290039062,-122.52410125732422,-90.5910873413086,-90.1240005493164
0.6649823188781738,-4.210265636444092,-89.4776611328125,110.93472290039062,-122.52410125732422,-90.5910873413086,-90.1240005493164
0.6671700477600098,-4.210265636444092,-89.4776611328125,110.93472290039062,-122.52410125732422,-90.5910873413086,-90.1240005493164
0.669736385345459,-4.210265636444092,-89.4776611328125,110.93450164794922,-122.52388000488281,-90.5910873413086,-90.1240005493164
0.6719062328338623,-4.210265636444092,-89.4776611328125,110.93450164794922,-122.52388000488281,-90.5910873413086,-90.1240005493164
0.6740901470184326,-4.210265636444092,-89.4776611328125,110.93450164794922,-122.52388000488281,-90.5910873413086,-90.1240005493164
0.6762683391571045,-4.210265636444092,-89.4776611328125,110.93450164794922,-122.52388000488281,-90.5910873413086,-90.1240005493164
0.6793117523193359,-4.210265636444092,-89.4774398803711,110.93450164794922,-122.52410125732422,-90.5910873413086,-90.1240005493164
0.681565523147583,-4.210265636444092,-89.4774398803711,110.93450164794922,-122.52410125732422,-90.5910873413086,-90.1240005493164
0.6838083267211914,-4.210265636444092,-89.4774398803711,110.93450164794922,-122.52410125732422,-90.5910873413086,-90.1240005493164
0.6859769821166992,-4.210265636444092,-89.4774398803711,110.93450164794922,-122.52410125732422,-90.5910873413086,-90.1240005493164
0.6881520748138428,-4.210265636444092,-89.4774398803711,110.93450164794922,-122.52410125732422,-90.5910873413086,-90.1240005493164
0.6903207302093506,-4.210265636444092,-89.4774398803711,110.93428802490234,-122.52410125732422,-90.5910873413086,-90.1240005493164
0.6925959587097168,-4.210265636444092,-89.4774398803711,110.93428802490234,-122.52410125732422,-90.5910873413086,-90.1240005493164
0.6948838233947754,-4.210265636444092,-89.4774398803711,110.93428802490234,-122.52410125732422,-90.5910873413086,-90.1240005493164
0.6970572471618652,-4.210265636444092,-89.4774398803711,110.93428802490234,-122.52410125732422,-90.5910873413086,-90.1240005493164
0.699634313583374,-4.210265636444092,-89.4776611328125,110.93428802490234,-122.52388000488281,-90.59086608886719,-90.12422180175781
0.7018945217132568,-4.210265636444092,-89.4776611328125,110.93428802490234,-122.52388000488281,-90.59086608886719,-90.12422180175781
0.7040607929229736,-4.210265636444092,-89.4776611328125,110.93428802490234,-122.52388000488281,-90.59086608886719,-90.12422180175781
0.7062375545501709,-4.210265636444092,-89.4776611328125,110.93428802490234,-122.52388000488281,-90.59086608886719,-90.12422180175781
0.7084922790527344,-4.210265636444092,-89.4776611328125,110.93428802490234,-122.52388000488281,-90.59086608886719,-90.12422180175781
0.7107698917388916,-4.210265636444092,-89.4774398803711,110.93450164794922,-122.52388000488281,-90.59086608886719,-90.1240005493164
0.7129082679748535,-4.210265636444092,-89.4774398803711,110.93450164794922,-122.52388000488281,-90.59086608886719,-90.1240005493164
0.715080976486206,-4.210265636444092,-89.4774398803711,110.93450164794922,-122.52388000488281,-90.59086608886719,-90.1240005493164
0.7172760963439941,-4.210265636444092,-89.4774398803711,110.93450164794922,-122.52388000488281,-90.59086608886719,-90.1240005493164
0.7195448875427246,-4.210265636444092,-89.4774398803711,110.93450164794922,-122.52388000488281,-90.59086608886719,-90.1240005493164
0.7218339443206787,-4.210265636444092,-89.4774398803711,110.93450164794922,-122.52388000488281,-90.59086608886719,-90.1240005493164
0.7239956855773926,-4.210265636444092,-89.4774398803711,110.93450164794922,-122.52388000488281,-90.59086608886719,-90.1240005493164
0.726168155670166,-4.210265636444092,-89.4774398803711,110.93450164794922,-122.52388000488281,-90.59086608886719,-90.1240005493164
0.7283449172973633,-4.210265636444092,-89.4774398803711,110.93450164794922,-122.52388000488281,-90.59086608886719,-90.1240005493164
0.7305991649627686,-4.210483074188232,-89.4774398803711,110.93450164794922,-122.52410125732422,-90.5910873413086,-90.1240005493164
0.7328882217407227,-4.210483074188232,-89.4774398803711,110.93450164794922,-122.52410125732422,-90.5910873413086,-90.1240005493164
0.735060453414917,-4.210483074188232,-89.4774398803711,110.93450164794922,-122.52410125732422,-90.5910873413086,-90.1240005493164
0.7372369766235352,-4.210483074188232,-89.4774398803711,110.93450164794922,-122.52410125732422,-90.5910873413086,-90.1240005493164
0.7396275997161865,-4.210483074188232,-89.4774398803711,110.93450164794922,-122.52388000488281,-90.59086608886719,-90.1240005493164
0.7419078350067139,-4.210483074188232,-89.4774398803711,110.93450164794922,-122.52388000488281,-90.59086608886719,-90.1240005493164
0.7440774440765381,-4.210483074188232,-89.4774398803711,110.93450164794922,-122.52388000488281,-90.59086608886719,-90.1240005493164
0.7462539672851562,-4.210483074188232,-89.4774398803711,110.93450164794922,-122.52388000488281,-90.59086608886719,-90.1240005493164
0.7484970092773438,-4.210483074188232,-89.4774398803711,110.93450164794922,-122.52388000488281,-90.59086608886719,-90.1240005493164
0.7507717609405518,-4.210483074188232,-89.4774398803711,110.93450164794922,-122.52388000488281,-90.5910873413086,-90.1240005493164
0.752934455871582,-4.210483074188232,-89.4774398803711,110.93450164794922,-122.52388000488281,-90.5910873413086,-90.1240005493164
0.75510573387146,-4.210483074188232,-89.4774398803711,110.93450164794922,-122.52388000488281,-90.5910873413086,-90.1240005493164
0.7573060989379883,-4.210483074188232,-89.4774398803711,110.93450164794922,-122.52388000488281,-90.5910873413086,-90.1240005493164
0.7596099376678467,-4.210483074188232,-89.4774398803711,110.93450164794922,-122.52388000488281,-90.5910873413086,-90.1240005493164
0.7618899345397949,-4.210483074188232,-89.4774398803711,110.93450164794922,-122.52388000488281,-90.5910873413086,-90.1240005493164
0.7640619277954102,-4.210483074188232,-89.4774398803711,110.93450164794922,-122.52388000488281,-90.5910873413086,-90.1240005493164
0.7662389278411865,-4.210483074188232,-89.4774398803711,110.93450164794922,-122.52388000488281,-90.5910873413086,-90.1240005493164
0.7684733867645264,-4.210483074188232,-89.4774398803711,110.93450164794922,-122.52388000488281,-90.5910873413086,-90.1240005493164
0.7707505226135254,-4.210265636444092,-89.4774398803711,110.93450164794922,-122.52388000488281,-90.5910873413086,-90.12422180175781
0.7729136943817139,-4.210265636444092,-89.4774398803711,110.93450164794922,-122.52388000488281,-90.5910873413086,-90.12422180175781
0.7750852108001709,-4.210265636444092,-89.4774398803711,110.93450164794922,-122.52388000488281,-90.5910873413086,-90.12422180175781
0.7772619724273682,-4.210265636444092,-89.4774398803711,110.93450164794922,-122.52388000488281,-90.5910873413086,-90.12422180175781
0.7796428203582764,-4.210265636444092,-89.4776611328125,110.93450164794922,-122.52388000488281,-90.59086608886719,-90.12422180175781
0.7819085121154785,-4.210265636444092,-89.4776611328125,110.93450164794922,-122.52388000488281,-90.59086608886719,-90.12422180175781
0.7840795516967773,-4.210265636444092,-89.4776611328125,110.93450164794922,-122.52388000488281,-90.59086608886719,-90.12422180175781
0.7862563133239746,-4.210265636444092,-89.4776611328125,110.93450164794922,-122.52388000488281,-90.59086608886719,-90.12422180175781
0.7884907722473145,-4.210265636444092,-89.4776611328125,110.93450164794922,-122.52388000488281,-90.59086608886719,-90.12422180175781
0.7907631397247314,-4.210483074188232,-89.4776611328125,110.93450164794922,-122.52410125732422,-90.5910873413086,-90.1240005493164
0.79290771484375,-4.210483074188232,-89.4776611328125,110.93450164794922,-122.52410125732422,-90.5910873413086,-90.1240005493164
0.7950809001922607,-4.210483074188232,-89.4776611328125,110.93450164794922,-122.52410125732422,-90.5910873413086,-90.1240005493164
0.797276496887207,-4.210483074188232,-89.4776611328125,110.93450164794922,-122.52410125732422,-90.5910873413086,-90.1240005493164
0.79952073097229,-4.210483074188232,-89.4774398803711,110.93450164794922,-122.52388000488281,-90.5910873413086,-90.1240005493164
0.8017792701721191,-4.210483074188232,-89.4774398803711,110.93450164794922,-122.52388000488281,-90.5910873413086,-90.1240005493164
0.8039495944976807,-4.210483074188232,-89.4774398803711,110.93450164794922,-122.52388000488281,-90.5910873413086,-90.1240005493164
0.8061227798461914,-4.210483074188232,-89.4774398803711,110.93450164794922,-122.52388000488281,-90.5910873413086,-90.1240005493164
0.8082990646362305,-4.210483074188232,-89.4774398803711,110.93450164794922,-122.52388000488281,-90.5910873413086,-90.1240005493164
0.8106012344360352,-4.210700511932373,-89.4774398803711,110.93450164794922,-122.52388000488281,-90.5910873413086,-90.1240005493164
0.8129110336303711,-4.210700511932373,-89.4774398803711,110.93450164794922,-122.52388000488281,-90.5910873413086,-90.1240005493164
0.8150961399078369,-4.210700511932373,-89.4774398803711,110.93450164794922,-122.52388000488281,-90.5910873413086,-90.1240005493164
0.8172824382781982,-4.210700511932373,-89.4774398803711,110.93450164794922,-122.52388000488281,-90.5910873413086,-90.1240005493164
0.819770336151123,-4.210700511932373,-89.4776611328125,110.93450164794922,-122.52388000488281,-90.5910873413086,-90.1240005493164
0.8219342231750488,-4.210700511932373,-89.4776611328125,110.93450164794922,-122.52388000488281,-90.5910873413086,-90.1240005493164
0.824105978012085,-4.210700511932373,-89.4776611328125,110.93450164794922,-122.52388000488281,-90.5910873413086,-90.1240005493164
0.8262827396392822,-4.210700511932373,-89.4776611328125,110.93450164794922,-122.52388000488281,-90.5910873413086,-90.1240005493164
0.8285436630249023,-4.210700511932373,-89.4776611328125,110.93450164794922,-122.52388000488281,-90.5910873413086,-90.1240005493164
0.8308377265930176,-4.210265636444092,-89.47722625732422,110.93450164794922,-122.52410125732422,-90.59086608886719,-90.1240005493164
0.8330001831054688,-4.210265636444092,-89.47722625732422,110.93450164794922,-122.52410125732422,-90.59086608886719,-90.1240005493164
0.8351724147796631,-4.210265636444092,-89.47722625732422,110.93450164794922,-122.52410125732422,-90.59086608886719,-90.1240005493164
0.837477445602417,-4.210265636444092,-89.47722625732422,110.93450164794922,-122.52410125732422,-90.59086608886719,-90.1240005493164
0.8397319316864014,-4.210483074188232,-89.4774398803711,110.93428802490234,-122.52410125732422,-90.5910873413086,-90.1240005493164
0.8418850898742676,-4.210483074188232,-89.4774398803711,110.93428802490234,-122.52410125732422,-90.5910873413086,-90.1240005493164
0.8440465927124023,-4.210483074188232,-89.4774398803711,110.93428802490234,-122.52410125732422,-90.5910873413086,-90.1240005493164
0.8462212085723877,-4.210483074188232,-89.4774398803711,110.93428802490234,-122.52410125732422,-90.5910873413086,-90.1240005493164
0.8484916687011719,-4.210483074188232,-89.4774398803711,110.93428802490234,-122.52410125732422,-90.5910873413086,-90.1240005493164
0.8507616519927979,-4.210483074188232,-89.4774398803711,110.93450164794922,-122.52410125732422,-90.59130096435547,-90.12422180175781
0.8528897762298584,-4.210483074188232,-89.4774398803711,110.93450164794922,-122.52410125732422,-90.59130096435547,-90.12422180175781
0.8550379276275635,-4.210483074188232,-89.4774398803711,110.93450164794922,-122.52410125732422,-90.59130096435547,-90.12422180175781
0.8572125434875488,-4.210483074188232,-89.4774398803711,110.93450164794922,-122.52410125732422,-90.59130096435547,-90.12422180175781
0.8595046997070312,-4.210483074188232,-89.4774398803711,110.93428802490234,-122.52388000488281,-90.5910873413086,-90.1240005493164
0.8617584705352783,-4.210483074188232,-89.4774398803711,110.93428802490234,-122.52388000488281,-90.5910873413086,-90.1240005493164
0.8639087677001953,-4.210483074188232,-89.4774398803711,110.93428802490234,-122.52388000488281,-90.5910873413086,-90.1240005493164
0.8660812377929688,-4.210483074188232,-89.4774398803711,110.93428802490234,-122.52388000488281,-90.5910873413086,-90.1240005493164
0.8682575225830078,-4.210483074188232,-89.4774398803711,110.93428802490234,-122.52388000488281,-90.5910873413086,-90.1240005493164
0.8705184459686279,-4.210483074188232,-89.4776611328125,110.93428802490234,-122.52388000488281,-90.5910873413086,-90.1240005493164
0.8727498054504395,-4.210483074188232,-89.4776611328125,110.93428802490234,-122.52388000488281,-90.5910873413086,-90.1240005493164
0.8748838901519775,-4.210483074188232,-89.4776611328125,110.93428802490234,-122.52388000488281,-90.5910873413086,-90.1240005493164
0.8770275115966797,-4.210483074188232,-89.4776611328125,110.93428802490234,-122.52388000488281,-90.5910873413086,-90.1240005493164
0.8794703483581543,-4.210483074188232,-89.4774398803711,110.93450164794922,-122.52388000488281,-90.5910873413086,-90.12378692626953
0.8817381858825684,-4.210483074188232,-89.4774398803711,110.93450164794922,-122.52388000488281,-90.5910873413086,-90.12378692626953
0.8839101791381836,-4.210483074188232,-89.4774398803711,110.93450164794922,-122.52388000488281,-90.5910873413086,-90.12378692626953
0.886082649230957,-4.210483074188232,-89.4774398803711,110.93450164794922,-122.52388000488281,-90.5910873413086,-90.12378692626953
0.8882625102996826,-4.210483074188232,-89.4774398803711,110.93450164794922,-122.52388000488281,-90.5910873413086,-90.12378692626953
0.8905315399169922,-4.210483074188232,-89.4774398803711,110.93450164794922,-122.52388000488281,-90.5910873413086,-90.1240005493164
0.8928375244140625,-4.210483074188232,-89.4774398803711,110.93450164794922,-122.52388000488281,-90.5910873413086,-90.1240005493164
0.8950221538543701,-4.210483074188232,-89.4774398803711,110.93450164794922,-122.52388000488281,-90.5910873413086,-90.1240005493164
0.8972077369689941,-4.210483074188232,-89.4774398803711,110.93450164794922,-122.52388000488281,-90.5910873413086,-90.1240005493164
0.8997502326965332,-4.210700511932373,-89.4774398803711,110.93450164794922,-122.52366638183594,-90.5910873413086,-90.1240005493164
0.9019010066986084,-4.210700511932373,-89.4774398803711,110.93450164794922,-122.52366638183594,-90.5910873413086,-90.1240005493164
0.9040725231170654,-4.210700511932373,-89.4774398803711,110.93450164794922,-122.52366638183594,-90.5910873413086,-90.1240005493164
0.9062492847442627,-4.210700511932373,-89.4774398803711,110.93450164794922,-122.52366638183594,-90.5910873413086,-90.1240005493164
0.9084875583648682,-4.210700511932373,-89.4774398803711,110.93450164794922,-122.52366638183594,-90.5910873413086,-90.1240005493164
0.9107656478881836,-4.210483074188232,-89.4774398803711,110.93450164794922,-122.52388000488281,-90.5910873413086,-90.1240005493164
0.9129376411437988,-4.210483074188232,-89.4774398803711,110.93450164794922,-122.52388000488281,-90.5910873413086,-90.1240005493164
0.9151105880737305,-4.210483074188232,-89.4774398803711,110.93450164794922,-122.52388000488281,-90.5910873413086,-90.1240005493164
0.9172873497009277,-4.210483074188232,-89.4774398803711,110.93450164794922,-122.52388000488281,-90.5910873413086,-90.1240005493164
0.9196996688842773,-4.210483074188232,-89.4774398803711,110.93450164794922,-122.52388000488281,-90.59086608886719,-90.1240005493164
0.9219105243682861,-4.210483074188232,-89.4774398803711,110.93450164794922,-122.52388000488281,-90.59086608886719,-90.1240005493164
0.9240827560424805,-4.210483074188232,-89.4774398803711,110.93450164794922,-122.52388000488281,-90.59086608886719,-90.1240005493164
0.9262585639953613,-4.210483074188232,-89.4774398803711,110.93450164794922,-122.52388000488281,-90.59086608886719,-90.1240005493164
0.928492546081543,-4.210483074188232,-89.4774398803711,110.93450164794922,-122.52388000488281,-90.59086608886719,-90.1240005493164
0.930734395980835,-4.210483074188232,-89.4774398803711,110.93450164794922,-122.52410125732422,-90.5910873413086,-90.1240005493164
0.9328665733337402,-4.210483074188232,-89.4774398803711,110.93450164794922,-122.52410125732422,-90.5910873413086,-90.1240005493164
0.9350290298461914,-4.210483074188232,-89.4774398803711,110.93450164794922,-122.52410125732422,-90.5910873413086,-90.1240005493164
0.9371829032897949,-4.210483074188232,-89.4774398803711,110.93450164794922,-122.52410125732422,-90.5910873413086,-90.1240005493164
0.9394030570983887,-4.210483074188232,-89.4774398803711,110.93450164794922,-122.52410125732422,-90.59086608886719,-90.1240005493164
0.941619873046875,-4.210483074188232,-89.4774398803711,110.93450164794922,-122.52410125732422,-90.59086608886719,-90.1240005493164
0.9439005851745605,-4.210483074188232,-89.4774398803711,110.93450164794922,-122.52410125732422,-90.59086608886719,-90.1240005493164
0.9460704326629639,-4.210483074188232,-89.4774398803711,110.93450164794922,-122.52410125732422,-90.59086608886719,-90.1240005493164
0.9482345581054688,-4.210483074188232,-89.4774398803711,110.93450164794922,-122.52410125732422,-90.59086608886719,-90.1240005493164
0.9504508972167969,-4.210483074188232,-89.4774398803711,110.93450164794922,-122.52388000488281,-90.5910873413086,-90.12422180175781
0.9526629447937012,-4.210483074188232,-89.4774398803711,110.93450164794922,-122.52388000488281,-90.5910873413086,-90.12422180175781
0.954833984375,-4.210483074188232,-89.4774398803711,110.93450164794922,-122.52388000488281,-90.5910873413086,-90.12422180175781
0.9569873809814453,-4.210483074188232,-89.4774398803711,110.93450164794922,-122.52388000488281,-90.5910873413086,-90.12422180175781
0.9591543674468994,-4.210483074188232,-89.4774398803711,110.93450164794922,-122.52388000488281,-90.59086608886719,-90.1240005493164
0.9613540172576904,-4.210483074188232,-89.4774398803711,110.93450164794922,-122.52388000488281,-90.59086608886719,-90.1240005493164
0.9635646343231201,-4.210483074188232,-89.4774398803711,110.93450164794922,-122.52388000488281,-90.59086608886719,-90.1240005493164
0.9657766819000244,-4.210483074188232,-89.4774398803711,110.93450164794922,-122.52388000488281,-90.59086608886719,-90.1240005493164
0.9679093360900879,-4.210483074188232,-89.4774398803711,110.93450164794922,-122.52388000488281,-90.59086608886719,-90.1240005493164
0.9700713157653809,-4.210483074188232,-89.4774398803711,110.93472290039062,-122.52388000488281,-90.5910873413086,-90.1240005493164
0.9722273349761963,-4.210483074188232,-89.4774398803711,110.93472290039062,-122.52388000488281,-90.5910873413086,-90.1240005493164
0.9744381904602051,-4.210483074188232,-89.4774398803711,110.93472290039062,-122.52388000488281,-90.5910873413086,-90.1240005493164
0.976637601852417,-4.210483074188232,-89.4774398803711,110.93472290039062,-122.52388000488281,-90.5910873413086,-90.1240005493164
0.9790792465209961,-4.210483074188232,-89.4774398803711,110.93450164794922,-122.52388000488281,-90.59130096435547,-90.1240005493164
0.9812979698181152,-4.210483074188232,-89.4774398803711,110.93450164794922,-122.52388000488281,-90.59130096435547,-90.1240005493164
0.9834859371185303,-4.210483074188232,-89.4774398803711,110.93450164794922,-122.52388000488281,-90.59130096435547,-90.1240005493164
0.9857020378112793,-4.210483074188232,-89.4774398803711,110.93450164794922,-122.52388000488281,-90.59130096435547,-90.1240005493164
0.9878413677215576,-4.210483074188232,-89.4774398803711,110.93450164794922,-122.52388000488281,-90.59130096435547,-90.1240005493164
0.9899799823760986,-4.210700511932373,-89.4774398803711,110.93450164794922,-122.52410125732422,-90.5910873413086,-90.12422180175781
0.9921445846557617,-4.210700511932373,-89.4774398803711,110.93450164794922,-122.52410125732422,-90.5910873413086,-90.12422180175781
0.9943206310272217,-4.210700511932373,-89.4774398803711,110.93450164794922,-122.52410125732422,-90.5910873413086,-90.12422180175781
0.996577262878418,-4.210700511932373,-89.4774398803711,110.93450164794922,-122.52410125732422,-90.5910873413086,-90.12422180175781
0.9997086524963379,-4.210483074188232,-89.4774398803711,110.93450164794922,-122.52388000488281,-90.59130096435547,-90.12422180175781
1.001861810684204,-4.210483074188232,-89.4774398803711,110.93450164794922,-122.52388000488281,-90.59130096435547,-90.12422180175781
1.0040051937103271,-4.210483074188232,-89.4774398803711,110.93450164794922,-122.52388000488281,-90.59130096435547,-90.12422180175781
1.006148099899292,-4.210483074188232,-89.4774398803711,110.93450164794922,-122.52388000488281,-90.59130096435547,-90.12422180175781
1.0083904266357422,-4.210483074188232,-89.4774398803711,110.93450164794922,-122.52388000488281,-90.59130096435547,-90.12422180175781
1.010582447052002,-4.210483074188232,-89.4774398803711,110.93428802490234,-122.52410125732422,-90.5910873413086,-90.1240005493164
1.0127928256988525,-4.210483074188232,-89.4774398803711,110.93428802490234,-122.52410125732422,-90.5910873413086,-90.1240005493164
1.0149102210998535,-4.210483074188232,-89.4774398803711,110.93428802490234,-122.52410125732422,-90.5910873413086,-90.1240005493164
1.0170280933380127,-4.210483074188232,-89.4774398803711,110.93428802490234,-122.52410125732422,-90.5910873413086,-90.1240005493164
1.019146203994751,-4.210483074188232,-89.4774398803711,110.93450164794922,-122.52388000488281,-90.59086608886719,-90.1240005493164
1.0212807655334473,-4.210483074188232,-89.4774398803711,110.93450164794922,-122.52388000488281,-90.59086608886719,-90.1240005493164
1.0234687328338623,-4.210483074188232,-89.4774398803711,110.93450164794922,-122.52388000488281,-90.59086608886719,-90.1240005493164
1.0256588459014893,-4.210483074188232,-89.4774398803711,110.93450164794922,-122.52388000488281,-90.59086608886719,-90.1240005493164
1.0277795791625977,-4.210483074188232,-89.4774398803711,110.93450164794922,-122.52388000488281,-90.59086608886719,-90.1240005493164
1.0298900604248047,-4.210483074188232,-89.47722625732422,110.93450164794922,-122.52388000488281,-90.59086608886719,-90.1240005493164
1.0319905281066895,-4.210483074188232,-89.47722625732422,110.93450164794922,-122.52388000488281,-90.59086608886719,-90.1240005493164
1.034088373184204,-4.210483074188232,-89.47722625732422,110.93450164794922,-122.52388000488281,-90.59086608886719,-90.1240005493164
1.0362181663513184,-4.210483074188232,-89.47722625732422,110.93450164794922,-122.52388000488281,-90.59086608886719,-90.1240005493164
1.0389556884765625,-4.210265636444092,-89.4774398803711,110.93450164794922,-122.52388000488281,-90.59130096435547,-90.1240005493164
1.0410895347595215,-4.210265636444092,-89.4774398803711,110.93450164794922,-122.52388000488281,-90.59130096435547,-90.1240005493164
1.0432407855987549,-4.210265636444092,-89.4774398803711,110.93450164794922,-122.52388000488281,-90.59130096435547,-90.1240005493164
1.0454967021942139,-4.210265636444092,-89.4774398803711,110.93450164794922,-122.52388000488281,-90.59130096435547,-90.1240005493164
1.0477631092071533,-4.210265636444092,-89.4774398803711,110.93450164794922,-122.52388000488281,-90.59130096435547,-90.1240005493164
1.0499186515808105,-4.209612846374512,-89.4774398803711,110.93450164794922,-122.52388000488281,-90.59086608886719,-90.1240005493164
1.0520906448364258,-4.209612846374512,-89.4774398803711,110.93450164794922,-122.52388000488281,-90.59086608886719,-90.1240005493164
1.0542747974395752,-4.209612846374512,-89.4774398803711,110.93450164794922,-122.52388000488281,-90.59086608886719,-90.1240005493164
1.0565810203552246,-4.209612846374512,-89.4774398803711,110.93450164794922,-122.52388000488281,-90.59086608886719,-90.1240005493164
1.059910535812378,-4.209395408630371,-89.4776611328125,110.93428802490234,-122.52388000488281,-90.5910873413086,-90.12422180175781
1.0622689723968506,-4.209395408630371,-89.4776611328125,110.93428802490234,-122.52388000488281,-90.5910873413086,-90.12422180175781
1.0645647048950195,-4.209395408630371,-89.4776611328125,110.93428802490234,-122.52388000488281,-90.5910873413086,-90.12422180175781
1.0668723583221436,-4.209395408630371,-89.4776611328125,110.93428802490234,-122.52388000488281,-90.5910873413086,-90.12422180175781
1.0699217319488525,-4.209395408630371,-89.4774398803711,110.93450164794922,-122.52388000488281,-90.5910873413086,-90.1240005493164
1.072096824645996,-4.209395408630371,-89.4774398803711,110.93450164794922,-122.52388000488281,-90.5910873413086,-90.1240005493164
1.0742743015289307,-4.209395408630371,-89.4774398803711,110.93450164794922,-122.52388000488281,-90.5910873413086,-90.1240005493164
1.0765736103057861,-4.209395408630371,-89.4774398803711,110.93450164794922,-122.52388000488281,-90.5910873413086,-90.1240005493164
1.0797746181488037,-4.2091779708862305,-89.4776611328125,110.93450164794922,-122.52410125732422,-90.5910873413086,-90.12422180175781
1.0819318294525146,-4.2091779708862305,-89.4776611328125,110.93450164794922,-122.52410125732422,-90.5910873413086,-90.12422180175781
1.0840959548950195,-4.2091779708862305,-89.4776611328125,110.93450164794922,-122.52410125732422,-90.5910873413086,-90.12422180175781
1.0862665176391602,-4.2091779708862305,-89.4776611328125,110.93450164794922,-122.52410125732422,-90.5910873413086,-90.12422180175781
1.0885071754455566,-4.2091779708862305,-89.4776611328125,110.93450164794922,-122.52410125732422,-90.5910873413086,-90.12422180175781
1.090770959854126,-4.2091779708862305,-89.4776611328125,110.93450164794922,-122.52388000488281,-90.5910873413086,-90.1240005493164
1.0929460525512695,-4.2091779708862305,-89.4776611328125,110.93450164794922,-122.52388000488281,-90.5910873413086,-90.1240005493164
1.0951025485992432,-4.2091779708862305,-89.4776611328125,110.93450164794922,-122.52388000488281,-90.5910873413086,-90.1240005493164
1.0972797870635986,-4.2091779708862305,-89.4776611328125,110.93450164794922,-122.52388000488281,-90.5910873413086,-90.1240005493164
1.0995213985443115,-4.209395408630371,-89.4774398803711,110.93428802490234,-122.52410125732422,-90.5910873413086,-90.12422180175781
1.1017940044403076,-4.209395408630371,-89.4774398803711,110.93428802490234,-122.52410125732422,-90.5910873413086,-90.12422180175781
1.103966236114502,-4.209395408630371,-89.4774398803711,110.93428802490234,-122.52410125732422,-90.5910873413086,-90.12422180175781
1.106139898300171,-4.209395408630371,-89.4774398803711,110.93428802490234,-122.52410125732422,-90.5910873413086,-90.12422180175781
1.1084396839141846,-4.209395408630371,-89.4774398803711,110.93428802490234,-122.52410125732422,-90.5910873413086,-90.12422180175781
1.110722303390503,-4.2091779708862305,-89.4774398803711,110.93450164794922,-122.52388000488281,-90.5910873413086,-90.1240005493164
1.1128966808319092,-4.2091779708862305,-89.4774398803711,110.93450164794922,-122.52388000488281,-90.5910873413086,-90.1240005493164
1.115072250366211,-4.2091779708862305,-89.4774398803711,110.93450164794922,-122.52388000488281,-90.5910873413086,-90.1240005493164
1.1172499656677246,-4.2091779708862305,-89.4774398803711,110.93450164794922,-122.52388000488281,-90.5910873413086,-90.1240005493164
1.1194920539855957,-4.209395408630371,-89.4774398803711,110.93450164794922,-122.52388000488281,-90.59086608886719,-90.1240005493164
1.121779203414917,-4.209395408630371,-89.4774398803711,110.93450164794922,-122.52388000488281,-90.59086608886719,-90.1240005493164
1.1239607334136963,-4.209395408630371,-89.4774398803711,110.93450164794922,-122.52388000488281,-90.59086608886719,-90.1240005493164
1.1261324882507324,-4.209395408630371,-89.4774398803711,110.93450164794922,-122.52388000488281,-90.59086608886719,-90.1240005493164
1.1283090114593506,-4.209395408630371,-89.4774398803711,110.93450164794922,-122.52388000488281,-90.59086608886719,-90.1240005493164
1.1305735111236572,-4.2091779708862305,-89.4774398803711,110.93450164794922,-122.52388000488281,-90.5910873413086,-90.1240005493164
1.1329536437988281,-4.2091779708862305,-89.4774398803711,110.93450164794922,-122.52388000488281,-90.5910873413086,-90.1240005493164
1.135131597518921,-4.2091779708862305,-89.4774398803711,110.93450164794922,-122.52388000488281,-90.5910873413086,-90.1240005493164
1.1373074054718018,-4.2091779708862305,-89.4774398803711,110.93450164794922,-122.52388000488281,-90.5910873413086,-90.1240005493164
1.1395530700683594,-4.2091779708862305,-89.4774398803711,110.93428802490234,-122.52388000488281,-90.59086608886719,-90.12378692626953
1.141833782196045,-4.2091779708862305,-89.4774398803711,110.93428802490234,-122.52388000488281,-90.59086608886719,-90.12378692626953
1.1440067291259766,-4.2091779708862305,-89.4774398803711,110.93428802490234,-122.52388000488281,-90.59086608886719,-90.12378692626953
1.146183729171753,-4.2091779708862305,-89.4774398803711,110.93428802490234,-122.52388000488281,-90.59086608886719,-90.12378692626953
1.1484172344207764,-4.2091779708862305,-89.4774398803711,110.93428802490234,-122.52388000488281,-90.59086608886719,-90.12378692626953
1.1506686210632324,-4.2091779708862305,-89.4774398803711,110.93472290039062,-122.52410125732422,-90.5910873413086,-90.12422180175781
1.152911901473999,-4.2091779708862305,-89.4774398803711,110.93472290039062,-122.52410125732422,-90.5910873413086,-90.12422180175781
1.1550867557525635,-4.2091779708862305,-89.4774398803711,110.93472290039062,-122.52410125732422,-90.5910873413086,-90.12422180175781
1.1572656631469727,-4.2091779708862305,-89.4774398803711,110.93472290039062,-122.52410125732422,-90.5910873413086,-90.12422180175781
1.1596486568450928,-4.208960056304932,-89.4774398803711,110.93450164794922,-122.52410125732422,-90.5910873413086,-90.1240005493164
1.1619045734405518,-4.208960056304932,-89.4774398803711,110.93450164794922,-122.52410125732422,-90.5910873413086,-90.1240005493164
1.1640939712524414,-4.208960056304932,-89.4774398803711,110.93450164794922,-122.52410125732422,-90.5910873413086,-90.1240005493164
1.1662719249725342,-4.208960056304932,-89.4774398803711,110.93450164794922,-122.52410125732422,-90.5910873413086,-90.1240005493164
1.1685090065002441,-4.208960056304932,-89.4774398803711,110.93450164794922,-122.52410125732422,-90.5910873413086,-90.1240005493164
1.1707863807678223,-4.208960056304932,-89.4776611328125,110.93450164794922,-122.52410125732422,-90.5910873413086,-90.1240005493164
1.173065185546875,-4.208960056304932,-89.4776611328125,110.93450164794922,-122.52410125732422,-90.5910873413086,-90.1240005493164
1.1752490997314453,-4.208960056304932,-89.4776611328125,110.93450164794922,-122.52410125732422,-90.5910873413086,-90.1240005493164
1.1775331497192383,-4.208960056304932,-89.4776611328125,110.93450164794922,-122.52410125732422,-90.5910873413086,-90.1240005493164
1.1797959804534912,-4.2091779708862305,-89.4776611328125,110.93428802490234,-122.52410125732422,-90.59086608886719,-90.12422180175781
1.1819617748260498,-4.2091779708862305,-89.4776611328125,110.93428802490234,-122.52410125732422,-90.59086608886719,-90.12422180175781
1.184154748916626,-4.2091779708862305,-89.4776611328125,110.93428802490234,-122.52410125732422,-90.59086608886719,-90.12422180175781
1.1863336563110352,-4.2091779708862305,-89.4776611328125,110.93428802490234,-122.52410125732422,-90.59086608886719,-90.12422180175781
1.188568115234375,-4.2091779708862305,-89.4776611328125,110.93428802490234,-122.52410125732422,-90.59086608886719,-90.12422180175781
1.1908574104309082,-4.2091779708862305,-89.4774398803711,110.93450164794922,-122.52388000488281,-90.5910873413086,-90.1240005493164
1.1930174827575684,-4.2091779708862305,-89.4774398803711,110.93450164794922,-122.52388000488281,-90.5910873413086,-90.1240005493164
1.1951918601989746,-4.2091779708862305,-89.4774398803711,110.93450164794922,-122.52388000488281,-90.5910873413086,-90.1240005493164
1.1974804401397705,-4.2091779708862305,-89.4774398803711,110.93450164794922,-122.52388000488281,-90.5910873413086,-90.1240005493164
1.1997339725494385,-4.2091779708862305,-89.4774398803711,110.93450164794922,-122.52388000488281,-90.59130096435547,-90.1240005493164
1.2018866539001465,-4.2091779708862305,-89.4774398803711,110.93450164794922,-122.52388000488281,-90.59130096435547,-90.1240005493164
1.2040765285491943,-4.2091779708862305,-89.4774398803711,110.93450164794922,-122.52388000488281,-90.59130096435547,-90.1240005493164
1.2062547206878662,-4.2091779708862305,-89.4774398803711,110.93450164794922,-122.52388000488281,-90.59130096435547,-90.1240005493164
1.2084875106811523,-4.2091779708862305,-89.4774398803711,110.93450164794922,-122.52388000488281,-90.59130096435547,-90.1240005493164
1.2107670307159424,-4.208960056304932,-89.4774398803711,110.93450164794922,-122.52388000488281,-90.59086608886719,-90.1240005493164
1.2129125595092773,-4.208960056304932,-89.4774398803711,110.93450164794922,-122.52388000488281,-90.59086608886719,-90.1240005493164
1.2150845527648926,-4.208960056304932,-89.4774398803711,110.93450164794922,-122.52388000488281,-90.59086608886719,-90.1240005493164
1.2172603607177734,-4.208960056304932,-89.4774398803711,110.93450164794922,-122.52388000488281,-90.59086608886719,-90.1240005493164
1.2195448875427246,-4.2091779708862305,-89.4774398803711,110.93450164794922,-122.52410125732422,-90.5910873413086,-90.12422180175781
1.2218248844146729,-4.2091779708862305,-89.4774398803711,110.93450164794922,-122.52410125732422,-90.5910873413086,-90.12422180175781
1.2239980697631836,-4.2091779708862305,-89.4774398803711,110.93450164794922,-122.52410125732422,-90.5910873413086,-90.12422180175781
1.226175308227539,-4.2091779708862305,-89.4774398803711,110.93450164794922,-122.52410125732422,-90.5910873413086,-90.12422180175781
1.2284555435180664,-4.2091779708862305,-89.4774398803711,110.93450164794922,-122.52410125732422,-90.5910873413086,-90.12422180175781
1.230755090713501,-4.2091779708862305,-89.4774398803711,110.93450164794922,-122.52388000488281,-90.59086608886719,-90.1240005493164
1.23293137550354,-4.2091779708862305,-89.4774398803711,110.93450164794922,-122.52388000488281,-90.59086608886719,-90.1240005493164
1.2351171970367432,-4.2091779708862305,-89.4774398803711,110.93450164794922,-122.52388000488281,-90.59086608886719,-90.1240005493164
1.237302303314209,-4.2091779708862305,-89.4774398803711,110.93450164794922,-122.52388000488281,-90.59086608886719,-90.1240005493164
1.2397217750549316,-4.208960056304932,-89.4776611328125,110.93450164794922,-122.52410125732422,-90.5910873413086,-90.1240005493164
1.2419028282165527,-4.208960056304932,-89.4776611328125,110.93450164794922,-122.52410125732422,-90.5910873413086,-90.1240005493164
1.2440752983093262,-4.208960056304932,-89.4776611328125,110.93450164794922,-122.52410125732422,-90.5910873413086,-90.1240005493164
1.2462689876556396,-4.208960056304932,-89.4776611328125,110.93450164794922,-122.52410125732422,-90.5910873413086,-90.1240005493164
1.2485036849975586,-4.208960056304932,-89.4776611328125,110.93450164794922,-122.52410125732422,-90.5910873413086,-90.1240005493164
1.2507636547088623,-4.2091779708862305,-89.4774398803711,110.93472290039062,-122.52388000488281,-90.5910873413086,-90.12422180175781
1.2529139518737793,-4.2091779708862305,-89.4774398803711,110.93472290039062,-122.52388000488281,-90.5910873413086,-90.12422180175781
1.255082607269287,-4.2091779708862305,-89.4774398803711,110.93472290039062,-122.52388000488281,-90.5910873413086,-90.12422180175781
1.2572546005249023,-4.2091779708862305,-89.4774398803711,110.93472290039062,-122.52388000488281,-90.5910873413086,-90.12422180175781
1.2594964504241943,-4.2091779708862305,-89.4774398803711,110.93450164794922,-122.52388000488281,-90.59086608886719,-90.12422180175781
1.2617607116699219,-4.2091779708862305,-89.4774398803711,110.93450164794922,-122.52388000488281,-90.59086608886719,-90.12422180175781
1.2639052867889404,-4.2091779708862305,-89.4774398803711,110.93450164794922,-122.52388000488281,-90.59086608886719,-90.12422180175781
1.2660787105560303,-4.2091779708862305,-89.4774398803711,110.93450164794922,-122.52388000488281,-90.59086608886719,-90.12422180175781
1.2682561874389648,-4.2091779708862305,-89.4774398803711,110.93450164794922,-122.52388000488281,-90.59086608886719,-90.12422180175781
1.2704143524169922,-4.2091779708862305,-89.4774398803711,110.93450164794922,-122.52388000488281,-90.59086608886719,-90.1240005493164
1.2726249694824219,-4.2091779708862305,-89.4774398803711,110.93450164794922,-122.52388000488281,-90.59086608886719,-90.1240005493164
1.2748899459838867,-4.2091779708862305,-89.4774398803711,110.93450164794922,-122.52388000488281,-90.59086608886719,-90.1240005493164
1.277022361755371,-4.2091779708862305,-89.4774398803711,110.93450164794922,-122.52388000488281,-90.59086608886719,-90.1240005493164
1.2791848182678223,-4.2091779708862305,-89.4774398803711,110.93450164794922,-122.52410125732422,-90.5910873413086,-90.1240005493164
1.2814610004425049,-4.2091779708862305,-89.4774398803711,110.93450164794922,-122.52410125732422,-90.5910873413086,-90.1240005493164
1.2837469577789307,-4.2091779708862305,-89.4774398803711,110.93450164794922,-122.52410125732422,-90.5910873413086,-90.1240005493164
1.2859220504760742,-4.2091779708862305,-89.4774398803711,110.93450164794922,-122.52410125732422,-90.5910873413086,-90.1240005493164
1.2881066799163818,-4.2091779708862305,-89.4774398803711,110.93450164794922,-122.52410125732422,-90.5910873413086,-90.1240005493164
1.2902848720550537,-4.209395408630371,-89.4774398803711,110.93450164794922,-122.52388000488281,-90.5910873413086,-90.1240005493164
1.292546033859253,-4.209395408630371,-89.4774398803711,110.93450164794922,-122.52388000488281,-90.5910873413086,-90.1240005493164
1.2948451042175293,-4.209395408630371,-89.4774398803711,110.93450164794922,-122.52388000488281,-90.5910873413086,-90.1240005493164
1.2970173358917236,-4.209395408630371,-89.4774398803711,110.93450164794922,-122.52388000488281,-90.5910873413086,-90.1240005493164
1.299631118774414,-4.2091779708862305,-89.4774398803711,110.93450164794922,-122.52388000488281,-90.5910873413086,-90.1240005493164
1.3019046783447266,-4.2091779708862305,-89.4774398803711,110.93450164794922,-122.52388000488281,-90.5910873413086,-90.1240005493164
1.3040764331817627,-4.2091779708862305,-89.4774398803711,110.93450164794922,-122.52388000488281,-90.5910873413086,-90.1240005493164
1.3062543869018555,-4.2091779708862305,-89.4774398803711,110.93450164794922,-122.52388000488281,-90.5910873413086,-90.1240005493164
1.3084897994995117,-4.2091779708862305,-89.4774398803711,110.93450164794922,-122.52388000488281,-90.5910873413086,-90.1240005493164
1.3107712268829346,-4.2091779708862305,-89.4774398803711,110.93450164794922,-122.52388000488281,-90.5910873413086,-90.1240005493164
1.3129334449768066,-4.2091779708862305,-89.4774398803711,110.93450164794922,-122.52388000488281,-90.5910873413086,-90.1240005493164
1.3151063919067383,-4.2091779708862305,-89.4774398803711,110.93450164794922,-122.52388000488281,-90.5910873413086,-90.1240005493164
1.3172821998596191,-4.2091779708862305,-89.4774398803711,110.93450164794922,-122.52388000488281,-90.5910873413086,-90.1240005493164
1.3195264339447021,-4.208960056304932,-89.4776611328125,110.93450164794922,-122.52410125732422,-90.5910873413086,-90.1240005493164
1.3217904567718506,-4.208960056304932,-89.4776611328125,110.93450164794922,-122.52410125732422,-90.5910873413086,-90.1240005493164
1.323941946029663,-4.208960056304932,-89.4776611328125,110.93450164794922,-122.52410125732422,-90.5910873413086,-90.1240005493164
1.3261396884918213,-4.208960056304932,-89.4776611328125,110.93450164794922,-122.52410125732422,-90.5910873413086,-90.1240005493164
1.3283188343048096,-4.208960056304932,-89.4776611328125,110.93450164794922,-122.52410125732422,-90.5910873413086,-90.1240005493164
1.3305950164794922,-4.208960056304932,-89.4776611328125,110.93450164794922,-122.52410125732422,-90.5910873413086,-90.12378692626953
1.3328871726989746,-4.208960056304932,-89.4776611328125,110.93450164794922,-122.52410125732422,-90.5910873413086,-90.12378692626953
1.3350603580474854,-4.208960056304932,-89.4776611328125,110.93450164794922,-122.52410125732422,-90.5910873413086,-90.12378692626953
1.3372366428375244,-4.208960056304932,-89.4776611328125,110.93450164794922,-122.52410125732422,-90.5910873413086,-90.12378692626953
1.3394768238067627,-4.2091779708862305,-89.4774398803711,110.93450164794922,-122.52388000488281,-90.5910873413086,-90.12422180175781
1.3417448997497559,-4.2091779708862305,-89.4774398803711,110.93450164794922,-122.52388000488281,-90.5910873413086,-90.12422180175781
1.3439109325408936,-4.2091779708862305,-89.4774398803711,110.93450164794922,-122.52388000488281,-90.5910873413086,-90.12422180175781
1.3460848331451416,-4.2091779708862305,-89.4774398803711,110.93450164794922,-122.52388000488281,-90.5910873413086,-90.12422180175781
1.3482649326324463,-4.2091779708862305,-89.4774398803711,110.93450164794922,-122.52388000488281,-90.5910873413086,-90.12422180175781
1.3505139350891113,-4.2091779708862305,-89.4774398803711,110.93450164794922,-122.52388000488281,-90.5910873413086,-90.1240005493164
1.352799892425537,-4.2091779708862305,-89.4774398803711,110.93450164794922,-122.52388000488281,-90.5910873413086,-90.1240005493164
1.3549716472625732,-4.2091779708862305,-89.4774398803711,110.93450164794922,-122.52388000488281,-90.5910873413086,-90.1240005493164
1.3571455478668213,-4.2091779708862305,-89.4774398803711,110.93450164794922,-122.52388000488281,-90.5910873413086,-90.1240005493164
1.359614610671997,-4.2091779708862305,-89.4774398803711,110.93450164794922,-122.52410125732422,-90.5910873413086,-90.1240005493164
1.3618659973144531,-4.2091779708862305,-89.4774398803711,110.93450164794922,-122.52410125732422,-90.5910873413086,-90.1240005493164
1.3640244007110596,-4.2091779708862305,-89.4774398803711,110.93450164794922,-122.52410125732422,-90.5910873413086,-90.1240005493164
1.3662168979644775,-4.2091779708862305,-89.4774398803711,110.93450164794922,-122.52410125732422,-90.5910873413086,-90.1240005493164
1.3684494495391846,-4.2091779708862305,-89.4774398803711,110.93450164794922,-122.52410125732422,-90.5910873413086,-90.1240005493164
1.3707365989685059,-4.2091779708862305,-89.4776611328125,110.93450164794922,-122.52388000488281,-90.5910873413086,-90.12422180175781
1.3729066848754883,-4.2091779708862305,-89.4776611328125,110.93450164794922,-122.52388000488281,-90.5910873413086,-90.12422180175781
1.3750805854797363,-4.2091779708862305,-89.4776611328125,110.93450164794922,-122.52388000488281,-90.5910873413086,-90.12422180175781
1.3772590160369873,-4.2091779708862305,-89.4776611328125,110.93450164794922,-122.52388000488281,-90.5910873413086,-90.12422180175781
1.37978196144104,-4.2091779708862305,-89.4774398803711,110.93450164794922,-122.52388000488281,-90.5910873413086,-90.1240005493164
1.3819301128387451,-4.2091779708862305,-89.4774398803711,110.93450164794922,-122.52388000488281,-90.5910873413086,-90.1240005493164
1.384070634841919,-4.2091779708862305,-89.4774398803711,110.93450164794922,-122.52388000488281,-90.5910873413086,-90.1240005493164
1.38623046875,-4.2091779708862305,-89.4774398803711,110.93450164794922,-122.52388000488281,-90.5910873413086,-90.1240005493164
1.3884685039520264,-4.2091779708862305,-89.4774398803711,110.93450164794922,-122.52388000488281,-90.5910873413086,-90.1240005493164
1.3907475471496582,-4.2091779708862305,-89.4776611328125,110.93450164794922,-122.52388000488281,-90.5910873413086,-90.12378692626953
1.3928959369659424,-4.2091779708862305,-89.4776611328125,110.93450164794922,-122.52388000488281,-90.5910873413086,-90.12378692626953
1.395059585571289,-4.2091779708862305,-89.4776611328125,110.93450164794922,-122.52388000488281,-90.5910873413086,-90.12378692626953
1.3972563743591309,-4.2091779708862305,-89.4776611328125,110.93450164794922,-122.52388000488281,-90.5910873413086,-90.12378692626953
1.399500846862793,-4.2091779708862305,-89.4774398803711,110.93450164794922,-122.52388000488281,-90.5910873413086,-90.1240005493164
1.4017653465270996,-4.2091779708862305,-89.4774398803711,110.93450164794922,-122.52388000488281,-90.5910873413086,-90.1240005493164
1.4039170742034912,-4.2091779708862305,-89.4774398803711,110.93450164794922,-122.52388000488281,-90.5910873413086,-90.1240005493164
1.4061155319213867,-4.2091779708862305,-89.4774398803711,110.93450164794922,-122.52388000488281,-90.5910873413086,-90.1240005493164
1.4082939624786377,-4.2091779708862305,-89.4774398803711,110.93450164794922,-122.52388000488281,-90.5910873413086,-90.1240005493164
1.4105863571166992,-4.208960056304932,-89.4776611328125,110.93450164794922,-122.52388000488281,-90.5910873413086,-90.1240005493164
1.4129092693328857,-4.208960056304932,-89.4776611328125,110.93450164794922,-122.52388000488281,-90.5910873413086,-90.1240005493164
1.415095567703247,-4.208960056304932,-89.4776611328125,110.93450164794922,-122.52388000488281,-90.5910873413086,-90.1240005493164
1.4172823429107666,-4.208960056304932,-89.4776611328125,110.93450164794922,-122.52388000488281,-90.5910873413086,-90.1240005493164
1.4197320938110352,-4.208960056304932,-89.4774398803711,110.93428802490234,-122.52388000488281,-90.5910873413086,-90.1240005493164
1.4218885898590088,-4.208960056304932,-89.4774398803711,110.93428802490234,-122.52388000488281,-90.5910873413086,-90.1240005493164
1.4240291118621826,-4.208960056304932,-89.4774398803711,110.93428802490234,-122.52388000488281,-90.5910873413086,-90.1240005493164
1.426180362701416,-4.208960056304932,-89.4774398803711,110.93428802490234,-122.52388000488281,-90.5910873413086,-90.1240005493164
1.4284160137176514,-4.208960056304932,-89.4774398803711,110.93428802490234,-122.52388000488281,-90.5910873413086,-90.1240005493164
1.4306910037994385,-4.208960056304932,-89.4776611328125,110.93450164794922,-122.52410125732422,-90.5910873413086,-90.1240005493164
1.4329142570495605,-4.208960056304932,-89.4776611328125,110.93450164794922,-122.52410125732422,-90.5910873413086,-90.1240005493164
1.4350860118865967,-4.208960056304932,-89.4776611328125,110.93450164794922,-122.52410125732422,-90.5910873413086,-90.1240005493164
1.4372622966766357,-4.208960056304932,-89.4776611328125,110.93450164794922,-122.52410125732422,-90.5910873413086,-90.1240005493164
1.4396560192108154,-4.208960056304932,-89.4774398803711,110.93472290039062,-122.52388000488281,-90.5910873413086,-90.1240005493164
1.4419174194335938,-4.208960056304932,-89.4774398803711,110.93472290039062,-122.52388000488281,-90.5910873413086,-90.1240005493164
1.4440910816192627,-4.208960056304932,-89.4774398803711,110.93472290039062,-122.52388000488281,-90.5910873413086,-90.1240005493164
1.4462666511535645,-4.208960056304932,-89.4774398803711,110.93472290039062,-122.52388000488281,-90.5910873413086,-90.1240005493164
1.4485201835632324,-4.208960056304932,-89.4774398803711,110.93472290039062,-122.52388000488281,-90.5910873413086,-90.1240005493164
1.4507958889007568,-4.2091779708862305,-89.4774398803711,110.93428802490234,-122.52410125732422,-90.59086608886719,-90.1240005493164
1.4529521465301514,-4.2091779708862305,-89.4774398803711,110.93428802490234,-122.52410125732422,-90.59086608886719,-90.1240005493164
1.4551241397857666,-4.2091779708862305,-89.4774398803711,110.93428802490234,-122.52410125732422,-90.59086608886719,-90.1240005493164
1.4573025703430176,-4.2091779708862305,-89.4774398803711,110.93428802490234,-122.52410125732422,-90.59086608886719,-90.1240005493164
1.4595448970794678,-4.2091779708862305,-89.4774398803711,110.93450164794922,-122.52366638183594,-90.5910873413086,-90.1240005493164
1.4618396759033203,-4.2091779708862305,-89.4774398803711,110.93450164794922,-122.52366638183594,-90.5910873413086,-90.1240005493164
1.4640095233917236,-4.2091779708862305,-89.4774398803711,110.93450164794922,-122.52366638183594,-90.5910873413086,-90.1240005493164
1.466184139251709,-4.2091779708862305,-89.4774398803711,110.93450164794922,-122.52366638183594,-90.5910873413086,-90.1240005493164
1.4684979915618896,-4.2091779708862305,-89.4774398803711,110.93450164794922,-122.52366638183594,-90.5910873413086,-90.1240005493164
1.4707694053649902,-4.208960056304932,-89.4774398803711,110.93450164794922,-122.52388000488281,-90.59086608886719,-90.1240005493164
1.4729351997375488,-4.208960056304932,-89.4774398803711,110.93450164794922,-122.52388000488281,-90.59086608886719,-90.1240005493164
1.4751083850860596,-4.208960056304932,-89.4774398803711,110.93450164794922,-122.52388000488281,-90.59086608886719,-90.1240005493164
1.4773433208465576,-4.208960056304932,-89.4774398803711,110.93450164794922,-122.52388000488281,-90.59086608886719,-90.1240005493164
1.479569911956787,-4.2091779708862305,-89.4774398803711,110.93428802490234,-122.52388000488281,-90.5910873413086,-90.1240005493164
1.481792688369751,-4.2091779708862305,-89.4774398803711,110.93428802490234,-122.52388000488281,-90.5910873413086,-90.1240005493164
1.4839260578155518,-4.2091779708862305,-89.4774398803711,110.93428802490234,-122.52388000488281,-90.5910873413086,-90.1240005493164
1.48606538772583,-4.2091779708862305,-89.4774398803711,110.93428802490234,-122.52388000488281,-90.5910873413086,-90.1240005493164
1.4882433414459229,-4.2091779708862305,-89.4774398803711,110.93428802490234,-122.52388000488281,-90.5910873413086,-90.1240005493164
1.4905242919921875,-4.2091779708862305,-89.4776611328125,110.93450164794922,-122.52410125732422,-90.5910873413086,-90.1240005493164
1.492814302444458,-4.2091779708862305,-89.4776611328125,110.93450164794922,-122.52410125732422,-90.5910873413086,-90.1240005493164
1.494988203048706,-4.2091779708862305,-89.4776611328125,110.93450164794922,-122.52410125732422,-90.5910873413086,-90.1240005493164
1.4971611499786377,-4.2091779708862305,-89.4776611328125,110.93450164794922,-122.52410125732422,-90.5910873413086,-90.1240005493164
1.4998219013214111,-4.208960056304932,-89.4774398803711,110.93450164794922,-122.52388000488281,-90.5910873413086,-90.1240005493164
1.5019865036010742,-4.208960056304932,-89.4774398803711,110.93450164794922,-122.52388000488281,-90.5910873413086,-90.1240005493164
1.504150152206421,-4.208960056304932,-89.4774398803711,110.93450164794922,-122.52388000488281,-90.5910873413086,-90.1240005493164
1.50632643699646,-4.208960056304932,-89.4774398803711,110.93450164794922,-122.52388000488281,-90.5910873413086,-90.1240005493164
1.5085604190826416,-4.208960056304932,-89.4774398803711,110.93450164794922,-122.52388000488281,-90.5910873413086,-90.1240005493164
1.510854959487915,-4.2091779708862305,-89.4774398803711,110.93472290039062,-122.52410125732422,-90.5910873413086,-90.12422180175781
1.5130181312561035,-4.2091779708862305,-89.4774398803711,110.93472290039062,-122.52410125732422,-90.5910873413086,-90.12422180175781
1.5151944160461426,-4.2091779708862305,-89.4774398803711,110.93472290039062,-122.52410125732422,-90.5910873413086,-90.12422180175781
1.5174689292907715,-4.2091779708862305,-89.4774398803711,110.93472290039062,-122.52410125732422,-90.5910873413086,-90.12422180175781
1.5197174549102783,-4.2091779708862305,-89.4774398803711,110.93450164794922,-122.52388000488281,-90.59086608886719,-90.1240005493164
1.5219030380249023,-4.2091779708862305,-89.4774398803711,110.93450164794922,-122.52388000488281,-90.59086608886719,-90.1240005493164
1.5240662097930908,-4.2091779708862305,-89.4774398803711,110.93450164794922,-122.52388000488281,-90.59086608886719,-90.1240005493164
1.526242733001709,-4.2091779708862305,-89.4774398803711,110.93450164794922,-122.52388000488281,-90.59086608886719,-90.1240005493164
1.528493881225586,-4.2091779708862305,-89.4774398803711,110.93450164794922,-122.52388000488281,-90.59086608886719,-90.1240005493164
1.530773639678955,-4.2091779708862305,-89.4774398803711,110.93450164794922,-122.52388000488281,-90.5910873413086,-90.1240005493164
1.5329184532165527,-4.2091779708862305,-89.4774398803711,110.93450164794922,-122.52388000488281,-90.5910873413086,-90.1240005493164
1.5350914001464844,-4.2091779708862305,-89.4774398803711,110.93450164794922,-122.52388000488281,-90.5910873413086,-90.1240005493164
1.5372669696807861,-4.2091779708862305,-89.4774398803711,110.93450164794922,-122.52388000488281,-90.5910873413086,-90.1240005493164
1.5395748615264893,-4.208960056304932,-89.4774398803711,110.93428802490234,-122.52388000488281,-90.5910873413086,-90.1240005493164
1.5418689250946045,-4.208960056304932,-89.4774398803711,110.93428802490234,-122.52388000488281,-90.5910873413086,-90.1240005493164
1.5440311431884766,-4.208960056304932,-89.4774398803711,110.93428802490234,-122.52388000488281,-90.5910873413086,-90.1240005493164
1.5462076663970947,-4.208960056304932,-89.4774398803711,110.93428802490234,-122.52388000488281,-90.5910873413086,-90.1240005493164
1.5484421253204346,-4.208960056304932,-89.4774398803711,110.93428802490234,-122.52388000488281,-90.5910873413086,-90.1240005493164
1.550727367401123,-4.2091779708862305,-89.4774398803711,110.93472290039062,-122.52388000488281,-90.5910873413086,-90.1240005493164
1.552929401397705,-4.2091779708862305,-89.4774398803711,110.93472290039062,-122.52388000488281,-90.5910873413086,-90.1240005493164
1.5551023483276367,-4.2091779708862305,-89.4774398803711,110.93472290039062,-122.52388000488281,-90.5910873413086,-90.1240005493164
1.5572786331176758,-4.2091779708862305,-89.4774398803711,110.93472290039062,-122.52388000488281,-90.5910873413086,-90.1240005493164
1.5595197677612305,-4.2091779708862305,-89.4776611328125,110.93450164794922,-122.52388000488281,-90.5910873413086,-90.1240005493164
1.5617964267730713,-4.2091779708862305,-89.4776611328125,110.93450164794922,-122.52388000488281,-90.5910873413086,-90.1240005493164
1.563969612121582,-4.2091779708862305,-89.4776611328125,110.93450164794922,-122.52388000488281,-90.5910873413086,-90.1240005493164
1.5661427974700928,-4.2091779708862305,-89.4776611328125,110.93450164794922,-122.52388000488281,-90.5910873413086,-90.1240005493164
1.5683393478393555,-4.2091779708862305,-89.4776611328125,110.93450164794922,-122.52388000488281,-90.5910873413086,-90.1240005493164
1.570570468902588,-4.2091779708862305,-89.4774398803711,110.93428802490234,-122.52410125732422,-90.5910873413086,-90.1240005493164
1.572866439819336,-4.2091779708862305,-89.4774398803711,110.93428802490234,-122.52410125732422,-90.5910873413086,-90.1240005493164
1.5750393867492676,-4.2091779708862305,-89.4774398803711,110.93428802490234,-122.52410125732422,-90.5910873413086,-90.1240005493164
1.5772171020507812,-4.2091779708862305,-89.4774398803711,110.93428802490234,-122.52410125732422,-90.5910873413086,-90.1240005493164
1.5795261859893799,-4.2091779708862305,-89.4776611328125,110.93428802490234,-122.52410125732422,-90.5910873413086,-90.1240005493164
1.5817859172821045,-4.2091779708862305,-89.4776611328125,110.93428802490234,-122.52410125732422,-90.5910873413086,-90.1240005493164
1.583958387374878,-4.2091779708862305,-89.4776611328125,110.93428802490234,-122.52410125732422,-90.5910873413086,-90.1240005493164
1.5861320495605469,-4.2091779708862305,-89.4776611328125,110.93428802490234,-122.52410125732422,-90.5910873413086,-90.1240005493164
1.5883095264434814,-4.2091779708862305,-89.4776611328125,110.93428802490234,-122.52410125732422,-90.5910873413086,-90.1240005493164
1.590578556060791,-4.2091779708862305,-89.4774398803711,110.93450164794922,-122.52388000488281,-90.5910873413086,-90.1240005493164
1.5928955078125,-4.2091779708862305,-89.4774398803711,110.93450164794922,-122.52388000488281,-90.5910873413086,-90.1240005493164
1.5950791835784912,-4.2091779708862305,-89.4774398803711,110.93450164794922,-122.52388000488281,-90.5910873413086,-90.1240005493164
1.5972659587860107,-4.2091779708862305,-89.4774398803711,110.93450164794922,-122.52388000488281,-90.5910873413086,-90.1240005493164
1.5996737480163574,-4.2091779708862305,-89.4774398803711,110.93450164794922,-122.52366638183594,-90.5910873413086,-90.12378692626953
1.6019108295440674,-4.2091779708862305,-89.4774398803711,110.93450164794922,-122.52366638183594,-90.5910873413086,-90.12378692626953
1.6040840148925781,-4.2091779708862305,-89.4774398803711,110.93450164794922,-122.52366638183594,-90.5910873413086,-90.12378692626953
1.6062607765197754,-4.2091779708862305,-89.4774398803711,110.93450164794922,-122.52366638183594,-90.5910873413086,-90.12378692626953
1.6084918975830078,-4.2091779708862305,-89.4774398803711,110.93450164794922,-122.52366638183594,-90.5910873413086,-90.12378692626953
1.610788345336914,-4.2091779708862305,-89.47722625732422,110.93428802490234,-122.52388000488281,-90.5910873413086,-90.1240005493164
1.612952470779419,-4.2091779708862305,-89.47722625732422,110.93428802490234,-122.52388000488281,-90.5910873413086,-90.1240005493164
1.6151163578033447,-4.2091779708862305,-89.47722625732422,110.93428802490234,-122.52388000488281,-90.5910873413086,-90.1240005493164
1.617292881011963,-4.2091779708862305,-89.47722625732422,110.93428802490234,-122.52388000488281,-90.5910873413086,-90.1240005493164
1.6195409297943115,-4.2091779708862305,-89.4774398803711,110.93450164794922,-122.52388000488281,-90.5910873413086,-90.12378692626953
1.6218366622924805,-4.2091779708862305,-89.4774398803711,110.93450164794922,-122.52388000488281,-90.5910873413086,-90.12378692626953
1.624021291732788,-4.2091779708862305,-89.4774398803711,110.93450164794922,-122.52388000488281,-90.5910873413086,-90.12378692626953
1.6262083053588867,-4.2091779708862305,-89.4774398803711,110.93450164794922,-122.52388000488281,-90.5910873413086,-90.12378692626953
1.6284568309783936,-4.2091779708862305,-89.4774398803711,110.93450164794922,-122.52388000488281,-90.5910873413086,-90.12378692626953
1.6307487487792969,-4.2091779708862305,-89.4776611328125,110.93450164794922,-122.52388000488281,-90.59130096435547,-90.12422180175781
1.6329128742218018,-4.2091779708862305,-89.4776611328125,110.93450164794922,-122.52388000488281,-90.59130096435547,-90.12422180175781
1.6350858211517334,-4.2091779708862305,-89.4776611328125,110.93450164794922,-122.52388000488281,-90.59130096435547,-90.12422180175781
1.637263298034668,-4.2091779708862305,-89.4776611328125,110.93450164794922,-122.52388000488281,-90.59130096435547,-90.12422180175781
1.6395378112792969,-4.2091779708862305,-89.4774398803711,110.93450164794922,-122.52388000488281,-90.5910873413086,-90.12422180175781
1.641822099685669,-4.2091779708862305,-89.4774398803711,110.93450164794922,-122.52388000488281,-90.5910873413086,-90.12422180175781
1.6439929008483887,-4.2091779708862305,-89.4774398803711,110.93450164794922,-122.52388000488281,-90.5910873413086,-90.12422180175781
1.6461689472198486,-4.2091779708862305,-89.4774398803711,110.93450164794922,-122.52388000488281,-90.5910873413086,-90.12422180175781
1.648468255996704,-4.2091779708862305,-89.4774398803711,110.93450164794922,-122.52388000488281,-90.5910873413086,-90.12422180175781
1.6507437229156494,-4.2091779708862305,-89.4776611328125,110.93450164794922,-122.52388000488281,-90.5910873413086,-90.12422180175781
1.6528923511505127,-4.2091779708862305,-89.4776611328125,110.93450164794922,-122.52388000488281,-90.5910873413086,-90.12422180175781
1.6550559997558594,-4.2091779708862305,-89.4776611328125,110.93450164794922,-122.52388000488281,-90.5910873413086,-90.12422180175781
1.6572339534759521,-4.2091779708862305,-89.4776611328125,110.93450164794922,-122.52388000488281,-90.5910873413086,-90.12422180175781
1.6596295833587646,-4.2091779708862305,-89.4774398803711,110.93450164794922,-122.52388000488281,-90.59086608886719,-90.1240005493164
1.661900281906128,-4.2091779708862305,-89.4774398803711,110.93450164794922,-122.52388000488281,-90.59086608886719,-90.1240005493164
1.6640629768371582,-4.2091779708862305,-89.4774398803711,110.93450164794922,-122.52388000488281,-90.59086608886719,-90.1240005493164
1.6662414073944092,-4.2091779708862305,-89.4774398803711,110.93450164794922,-122.52388000488281,-90.59086608886719,-90.1240005493164
1.6684770584106445,-4.2091779708862305,-89.4774398803711,110.93450164794922,-122.52388000488281,-90.59086608886719,-90.1240005493164
1.6707217693328857,-4.2091779708862305,-89.4774398803711,110.93428802490234,-122.52410125732422,-90.5910873413086,-90.1240005493164
1.6729462146759033,-4.2091779708862305,-89.4774398803711,110.93428802490234,-122.52410125732422,-90.5910873413086,-90.1240005493164
1.6750805377960205,-4.2091779708862305,-89.4774398803711,110.93428802490234,-122.52410125732422,-90.5910873413086,-90.1240005493164
1.677232265472412,-4.2091779708862305,-89.4774398803711,110.93428802490234,-122.52410125732422,-90.5910873413086,-90.1240005493164
1.6793737411499023,-4.208960056304932,-89.4774398803711,110.93472290039062,-122.52388000488281,-90.5910873413086,-90.1240005493164
1.6816258430480957,-4.208960056304932,-89.4774398803711,110.93472290039062,-122.52388000488281,-90.5910873413086,-90.1240005493164
