Ultramotiv/Mauris-Progress-/All_other_stuff/reaching_overhead.csv
timestamp,joint1,joint2,joint3,joint4,joint5,joint6
9.751319885253906e-05,11.363126754760742,-70.90141296386719,101.41773223876953,-118.38497161865234,-94.25312042236328,-90.693115234375
0.0023288726806640625,11.363126754760742,-70.90141296386719,101.41773223876953,-118.38497161865234,-94.25312042236328,-90.693115234375
0.00452113151550293,11.363126754760742,-70.90141296386719,101.41773223876953,-118.38497161865234,-94.25312042236328,-90.693115234375
0.006722450256347656,11.363126754760742,-70.90141296386719,101.41773223876953,-118.38497161865234,-94.25312042236328,-90.693115234375
0.008996963500976562,11.363126754760742,-70.90141296386719,101.41773223876953,-118.38497161865234,-94.25312042236328,-90.693115234375
0.01125025749206543,11.363126754760742,-70.90141296386719,101.41773223876953,-118.38497161865234,-94.2529067993164,-90.693115234375
0.013402700424194336,11.363126754760742,-70.90141296386719,101.41773223876953,-118.38497161865234,-94.2529067993164,-90.693115234375
0.015558004379272461,11.363126754760742,-70.90141296386719,101.41773223876953,-118.38497161865234,-94.2529067993164,-90.693115234375
0.017807483673095703,11.363126754760742,-70.90141296386719,101.41773223876953,-118.38497161865234,-94.2529067993164,-90.693115234375
0.020041227340698242,11.362909317016602,-70.90141296386719,101.41773223876953,-118.38475799560547,-94.25312042236328,-90.693115234375
0.0223236083984375,11.362909317016602,-70.90141296386719,101.41773223876953,-118.38475799560547,-94.25312042236328,-90.693115234375
0.024480819702148438,11.362909317016602,-70.90141296386719,101.41773223876953,-118.38475799560547,-94.25312042236328,-90.693115234375
0.026642322540283203,11.362909317016602,-70.90141296386719,101.41773223876953,-118.38475799560547,-94.25312042236328,-90.693115234375
0.02888798713684082,11.362909317016602,-70.90141296386719,101.41773223876953,-118.38475799560547,-94.25312042236328,-90.693115234375
0.031044960021972656,11.363126754760742,-70.90119171142578,101.4179458618164,-118.38453674316406,-94.25312042236328,-90.693115234375
0.03318595886230469,11.363126754760742,-70.90119171142578,101.4179458618164,-118.38453674316406,-94.25312042236328,-90.693115234375
0.03534817695617676,11.363126754760742,-70.90119171142578,101.4179458618164,-118.38453674316406,-94.25312042236328,-90.693115234375
0.03752422332763672,11.363126754760742,-70.90119171142578,101.4179458618164,-118.38453674316406,-94.25312042236328,-90.693115234375
0.04029655456542969,11.362909317016602,-70.90119171142578,101.41773223876953,-118.38497161865234,-94.25312042236328,-90.693115234375
0.04246783256530762,11.362909317016602,-70.90119171142578,101.41773223876953,-118.38497161865234,-94.25312042236328,-90.693115234375
0.044643402099609375,11.362909317016602,-70.90119171142578,101.41773223876953,-118.38497161865234,-94.25312042236328,-90.693115234375
0.04692840576171875,11.362909317016602,-70.90119171142578,101.41773223876953,-118.38497161865234,-94.25312042236328,-90.693115234375
0.049234867095947266,11.362909317016602,-70.90119171142578,101.41773223876953,-118.38497161865234,-94.25312042236328,-90.693115234375
0.05141282081604004,11.363126754760742,-70.90141296386719,101.41751098632812,-118.38475799560547,-94.25312042236328,-90.693115234375
0.053588151931762695,11.363126754760742,-70.90141296386719,101.41751098632812,-118.38475799560547,-94.25312042236328,-90.693115234375
0.05582785606384277,11.363126754760742,-70.90141296386719,101.41751098632812,-118.38475799560547,-94.25312042236328,-90.693115234375
0.05814099311828613,11.363126754760742,-70.90141296386719,101.41751098632812,-118.38475799560547,-94.25312042236328,-90.693115234375
0.060286760330200195,11.363126754760742,-70.90141296386719,101.41773223876953,-118.38475799560547,-94.2529067993164,-90.69355010986328
0.062459468841552734,11.363126754760742,-70.90141296386719,101.41773223876953,-118.38475799560547,-94.2529067993164,-90.69355010986328
0.06463623046875,11.363126754760742,-70.90141296386719,101.41773223876953,-118.38475799560547,-94.2529067993164,-90.69355010986328
0.06695818901062012,11.363126754760742,-70.90141296386719,101.41773223876953,-118.38475799560547,-94.2529067993164,-90.69355010986328
0.06923317909240723,11.363126754760742,-70.90141296386719,101.41773223876953,-118.38475799560547,-94.2529067993164,-90.69355010986328
0.0714111328125,11.362909317016602,-70.90141296386719,101.41751098632812,-118.38475799560547,-94.2529067993164,-90.693115234375
0.07358765602111816,11.362909317016602,-70.90141296386719,101.41751098632812,-118.38475799560547,-94.2529067993164,-90.693115234375
0.0758662223815918,11.362909317016602,-70.90141296386719,101.41751098632812,-118.38475799560547,-94.2529067993164,-90.693115234375
0.07815194129943848,11.362909317016602,-70.90141296386719,101.41751098632812,-118.38475799560547,-94.2529067993164,-90.693115234375
0.0803370475769043,11.362909317016602,-70.90141296386719,101.41751098632812,-118.38475799560547,-94.25312042236328,-90.693115234375
0.08250093460083008,11.362909317016602,-70.90141296386719,101.41751098632812,-118.38475799560547,-94.25312042236328,-90.693115234375
0.08467698097229004,11.362909317016602,-70.90141296386719,101.41751098632812,-118.38475799560547,-94.25312042236328,-90.693115234375
0.08697295188903809,11.362909317016602,-70.90141296386719,101.41751098632812,-118.38475799560547,-94.25312042236328,-90.693115234375
0.08922481536865234,11.362909317016602,-70.90141296386719,101.41751098632812,-118.38475799560547,-94.25312042236328,-90.693115234375
0.09139227867126465,11.363126754760742,-70.90141296386719,101.41773223876953,-118.38475799560547,-94.2529067993164,-90.693115234375
0.09356093406677246,11.363126754760742,-70.90141296386719,101.41773223876953,-118.38475799560547,-94.2529067993164,-90.693115234375
0.09584259986877441,11.363126754760742,-70.90141296386719,101.41773223876953,-118.38475799560547,-94.2529067993164,-90.693115234375
0.09801578521728516,11.363126754760742,-70.90141296386719,101.41773223876953,-118.38475799560547,-94.2529067993164,-90.693115234375
0.10025811195373535,11.363126754760742,-70.90162658691406,101.41751098632812,-118.38475799560547,-94.25312042236328,-90.693115234375
0.10239887237548828,11.363126754760742,-70.90162658691406,101.41751098632812,-118.38475799560547,-94.25312042236328,-90.693115234375
0.10455751419067383,11.363126754760742,-70.90162658691406,101.41751098632812,-118.38475799560547,-94.25312042236328,-90.693115234375
0.10683894157409668,11.363126754760742,-70.90162658691406,101.41751098632812,-118.38475799560547,-94.25312042236328,-90.693115234375
0.1091299057006836,11.363126754760742,-70.90162658691406,101.41751098632812,-118.38475799560547,-94.25312042236328,-90.693115234375
0.11128830909729004,11.363126754760742,-70.90162658691406,101.41751098632812,-118.38475799560547,-94.2529067993164,-90.693115234375
0.1134481430053711,11.363126754760742,-70.90162658691406,101.41751098632812,-118.38475799560547,-94.2529067993164,-90.693115234375
0.1156165599822998,11.363126754760742,-70.90162658691406,101.41751098632812,-118.38475799560547,-94.2529067993164,-90.693115234375
0.11789822578430176,11.363126754760742,-70.90162658691406,101.41751098632812,-118.38475799560547,-94.2529067993164,-90.693115234375
0.1201634407043457,11.363126754760742,-70.90162658691406,101.41751098632812,-118.38475799560547,-94.2529067993164,-90.69290161132812
0.12234807014465332,11.363126754760742,-70.90162658691406,101.41751098632812,-118.38475799560547,-94.2529067993164,-90.69290161132812
0.12453389167785645,11.363126754760742,-70.90162658691406,101.41751098632812,-118.38475799560547,-94.2529067993164,-90.69290161132812
0.12682294845581055,11.363126754760742,-70.90162658691406,101.41751098632812,-118.38475799560547,-94.2529067993164,-90.69290161132812
0.12912678718566895,11.363126754760742,-70.90162658691406,101.41751098632812,-118.38475799560547,-94.2529067993164,-90.69290161132812
0.13129472732543945,11.362909317016602,-70.90162658691406,101.41751098632812,-118.38475799560547,-94.25312042236328,-90.693115234375
0.13345861434936523,11.362909317016602,-70.90162658691406,101.41751098632812,-118.38475799560547,-94.25312042236328,-90.693115234375
0.1356334686279297,11.362909317016602,-70.90162658691406,101.41751098632812,-118.38475799560547,-94.25312042236328,-90.693115234375
0.13789987564086914,11.362909317016602,-70.90162658691406,101.41751098632812,-118.38475799560547,-94.25312042236328,-90.693115234375
0.14014124870300293,11.362909317016602,-70.90162658691406,101.41729736328125,-118.38475799560547,-94.2529067993164,-90.69290161132812
0.14228415489196777,11.362909317016602,-70.90162658691406,101.41729736328125,-118.38475799560547,-94.2529067993164,-90.69290161132812
0.14441561698913574,11.362909317016602,-70.90162658691406,101.41729736328125,-118.38475799560547,-94.2529067993164,-90.69290161132812
0.14655256271362305,11.362909317016602,-70.90162658691406,101.41729736328125,-118.38475799560547,-94.2529067993164,-90.69290161132812
0.14874672889709473,11.362909317016602,-70.90162658691406,101.41729736328125,-118.38475799560547,-94.2529067993164,-90.69290161132812
0.15093326568603516,11.363126754760742,-70.90162658691406,101.41729736328125,-118.38497161865234,-94.2529067993164,-90.693115234375
0.15321016311645508,11.363126754760742,-70.90162658691406,101.41729736328125,-118.38497161865234,-94.2529067993164,-90.693115234375
0.15532827377319336,11.363126754760742,-70.90162658691406,101.41729736328125,-118.38497161865234,-94.2529067993164,-90.693115234375
0.1574552059173584,11.363126754760742,-70.90162658691406,101.41729736328125,-118.38497161865234,-94.2529067993164,-90.693115234375
0.15995478630065918,11.362909317016602,-70.90184783935547,101.41707611083984,-118.38475799560547,-94.252685546875,-90.693115234375
0.16222882270812988,11.362909317016602,-70.90184783935547,101.41707611083984,-118.38475799560547,-94.252685546875,-90.693115234375
0.16440081596374512,11.362909317016602,-70.90184783935547,101.41707611083984,-118.38475799560547,-94.252685546875,-90.693115234375
0.16658592224121094,11.362909317016602,-70.90184783935547,101.41707611083984,-118.38475799560547,-94.252685546875,-90.693115234375
0.16887474060058594,11.362909317016602,-70.90184783935547,101.41707611083984,-118.38475799560547,-94.252685546875,-90.693115234375
0.17117547988891602,11.363344192504883,-70.90184783935547,101.41729736328125,-118.38475799560547,-94.252685546875,-90.69290161132812
0.1733412742614746,11.363344192504883,-70.90184783935547,101.41729736328125,-118.38475799560547,-94.252685546875,-90.69290161132812
0.1755073070526123,11.363344192504883,-70.90184783935547,101.41729736328125,-118.38475799560547,-94.252685546875,-90.69290161132812
0.17768406867980957,11.363344192504883,-70.90184783935547,101.41729736328125,-118.38475799560547,-94.252685546875,-90.69290161132812
0.1803112030029297,11.363126754760742,-70.90162658691406,101.41729736328125,-118.38497161865234,-94.2529067993164,-90.69290161132812
0.18246817588806152,11.363126754760742,-70.90162658691406,101.41729736328125,-118.38497161865234,-94.2529067993164,-90.69290161132812
0.1846468448638916,11.363126754760742,-70.90162658691406,101.41729736328125,-118.38497161865234,-94.2529067993164,-90.69290161132812
0.18692255020141602,11.363126754760742,-70.90162658691406,101.41729736328125,-118.38497161865234,-94.2529067993164,-90.69290161132812
0.18935585021972656,11.363126754760742,-70.90162658691406,101.41729736328125,-118.38497161865234,-94.2529067993164,-90.69290161132812
0.1915295124053955,11.362909317016602,-70.90184783935547,101.41729736328125,-118.38497161865234,-94.2529067993164,-90.69290161132812
0.19369935989379883,11.362909317016602,-70.90184783935547,101.41729736328125,-118.38497161865234,-94.2529067993164,-90.69290161132812
0.19599533081054688,11.362909317016602,-70.90184783935547,101.41729736328125,-118.38497161865234,-94.2529067993164,-90.69290161132812
0.19826960563659668,11.362909317016602,-70.90184783935547,101.41729736328125,-118.38497161865234,-94.2529067993164,-90.69290161132812
0.20043587684631348,11.362909317016602,-70.90162658691406,101.41707611083984,-118.38475799560547,-94.25312042236328,-90.69290161132812
0.2026069164276123,11.362909317016602,-70.90162658691406,101.41707611083984,-118.38475799560547,-94.25312042236328,-90.69290161132812
0.2048816680908203,11.362909317016602,-70.90162658691406,101.41707611083984,-118.38475799560547,-94.25312042236328,-90.69290161132812
0.20717620849609375,11.362909317016602,-70.90162658691406,101.41707611083984,-118.38475799560547,-94.25312042236328,-90.69290161132812
0.2102346420288086,11.362909317016602,-70.90162658691406,101.41729736328125,-118.38497161865234,-94.25312042236328,-90.693115234375
0.21239018440246582,11.362909317016602,-70.90162658691406,101.41729736328125,-118.38497161865234,-94.25312042236328,-90.693115234375
0.21456646919250488,11.362909317016602,-70.90162658691406,101.41729736328125,-118.38497161865234,-94.25312042236328,-90.693115234375
0.21685075759887695,11.362909317016602,-70.90162658691406,101.41729736328125,-118.38497161865234,-94.25312042236328,-90.693115234375
0.21917438507080078,11.362909317016602,-70.90162658691406,101.41729736328125,-118.38497161865234,-94.25312042236328,-90.693115234375
0.2213578224182129,11.362473487854004,-70.90184783935547,101.41707611083984,-118.38497161865234,-94.25334167480469,-90.693115234375
0.2235126495361328,11.362473487854004,-70.90184783935547,101.41707611083984,-118.38497161865234,-94.25334167480469,-90.693115234375
0.2256793975830078,11.362473487854004,-70.90184783935547,101.41707611083984,-118.38497161865234,-94.25334167480469,-90.693115234375
0.22797632217407227,11.362473487854004,-70.90184783935547,101.41707611083984,-118.38497161865234,-94.25334167480469,-90.693115234375
0.2303001880645752,11.362473487854004,-70.90162658691406,101.41707611083984,-118.38519287109375,-94.25312042236328,-90.69290161132812
0.23245596885681152,11.362473487854004,-70.90162658691406,101.41707611083984,-118.38519287109375,-94.25312042236328,-90.69290161132812
0.23462605476379395,11.362473487854004,-70.90162658691406,101.41707611083984,-118.38519287109375,-94.25312042236328,-90.69290161132812
0.23688340187072754,11.362473487854004,-70.90162658691406,101.41707611083984,-118.38519287109375,-94.25312042236328,-90.69290161132812
0.2392101287841797,11.362473487854004,-70.90162658691406,101.41707611083984,-118.38519287109375,-94.25312042236328,-90.69290161132812
0.24137616157531738,11.362473487854004,-70.90162658691406,101.41686248779297,-118.38519287109375,-94.25312042236328,-90.693115234375
0.24353861808776855,11.362473487854004,-70.90162658691406,101.41686248779297,-118.38519287109375,-94.25312042236328,-90.693115234375
0.2458338737487793,11.362473487854004,-70.90162658691406,101.41686248779297,-118.38519287109375,-94.25312042236328,-90.693115234375
0.2480933666229248,11.362473487854004,-70.90162658691406,101.41686248779297,-118.38519287109375,-94.25312042236328,-90.693115234375
0.2502131462097168,11.362473487854004,-70.90162658691406,101.41707611083984,-118.38519287109375,-94.25312042236328,-90.69290161132812
0.2522928714752197,11.362473487854004,-70.90162658691406,101.41707611083984,-118.38519287109375,-94.25312042236328,-90.69290161132812
0.2543618679046631,11.362473487854004,-70.90162658691406,101.41707611083984,-118.38519287109375,-94.25312042236328,-90.69290161132812
0.25644516944885254,11.362473487854004,-70.90162658691406,101.41707611083984,-118.38519287109375,-94.25312042236328,-90.69290161132812
0.25858473777770996,11.362473487854004,-70.90162658691406,101.41707611083984,-118.38519287109375,-94.25312042236328,-90.69290161132812
0.2608306407928467,11.362691879272461,-70.90162658691406,101.41707611083984,-118.38540649414062,-94.2529067993164,-90.693115234375
0.2631077766418457,11.362691879272461,-70.90162658691406,101.41707611083984,-118.38540649414062,-94.2529067993164,-90.693115234375
0.265261173248291,11.362691879272461,-70.90162658691406,101.41707611083984,-118.38540649414062,-94.2529067993164,-90.693115234375
0.2674093246459961,11.362691879272461,-70.90162658691406,101.41707611083984,-118.38540649414062,-94.2529067993164,-90.693115234375
0.27010011672973633,11.362909317016602,-70.90184783935547,101.41686248779297,-118.38519287109375,-94.2529067993164,-90.693115234375
0.27228641510009766,11.362909317016602,-70.90184783935547,101.41686248779297,-118.38519287109375,-94.2529067993164,-90.693115234375
0.2744483947753906,11.362909317016602,-70.90184783935547,101.41686248779297,-118.38519287109375,-94.2529067993164,-90.693115234375
0.27662014961242676,11.362909317016602,-70.90184783935547,101.41686248779297,-118.38519287109375,-94.2529067993164,-90.693115234375
0.2789180278778076,11.362909317016602,-70.90184783935547,101.41686248779297,-118.38519287109375,-94.2529067993164,-90.693115234375
0.28119802474975586,11.362909317016602,-70.90184783935547,101.41707611083984,-118.38540649414062,-94.252685546875,-90.69290161132812
0.2833528518676758,11.362909317016602,-70.90184783935547,101.41707611083984,-118.38540649414062,-94.252685546875,-90.69290161132812
0.2855243682861328,11.362909317016602,-70.90184783935547,101.41707611083984,-118.38540649414062,-94.252685546875,-90.69290161132812
0.28782033920288086,11.362909317016602,-70.90184783935547,101.41707611083984,-118.38540649414062,-94.252685546875,-90.69290161132812
0.2902650833129883,11.362909317016602,-70.90184783935547,101.41686248779297,-118.38562774658203,-94.252685546875,-90.693115234375
0.29241943359375,11.362909317016602,-70.90184783935547,101.41686248779297,-118.38562774658203,-94.252685546875,-90.693115234375
0.2945713996887207,11.362909317016602,-70.90184783935547,101.41686248779297,-118.38562774658203,-94.252685546875,-90.693115234375
0.2967641353607178,11.362909317016602,-70.90184783935547,101.41686248779297,-118.38562774658203,-94.252685546875,-90.693115234375
0.29895710945129395,11.362909317016602,-70.90184783935547,101.41686248779297,-118.38562774658203,-94.252685546875,-90.693115234375
0.301145076751709,11.362909317016602,-70.90184783935547,101.41686248779297,-118.38562774658203,-94.252685546875,-90.69290161132812
0.3032646179199219,11.362909317016602,-70.90184783935547,101.41686248779297,-118.38562774658203,-94.252685546875,-90.69290161132812
0.30538153648376465,11.362909317016602,-70.90184783935547,101.41686248779297,-118.38562774658203,-94.252685546875,-90.69290161132812
0.3075234889984131,11.362909317016602,-70.90184783935547,101.41686248779297,-118.38562774658203,-94.252685546875,-90.69290161132812
0.30980777740478516,11.362691879272461,-70.90184783935547,101.41664123535156,-118.38540649414062,-94.252685546875,-90.693115234375
0.31208157539367676,11.362691879272461,-70.90184783935547,101.41664123535156,-118.38540649414062,-94.252685546875,-90.693115234375
0.31426477432250977,11.362691879272461,-70.90184783935547,101.41664123535156,-118.38540649414062,-94.252685546875,-90.693115234375
0.3164482116699219,11.362691879272461,-70.90184783935547,101.41664123535156,-118.38540649414062,-94.252685546875,-90.693115234375
0.31862640380859375,11.362691879272461,-70.90184783935547,101.41664123535156,-118.38540649414062,-94.252685546875,-90.693115234375
0.3209106922149658,11.362691879272461,-70.90184783935547,101.41686248779297,-118.38562774658203,-94.252685546875,-90.693115234375
0.32319164276123047,11.362691879272461,-70.90184783935547,101.41686248779297,-118.38562774658203,-94.252685546875,-90.693115234375
0.3253624439239502,11.362691879272461,-70.90184783935547,101.41686248779297,-118.38562774658203,-94.252685546875,-90.693115234375
0.32753467559814453,11.362691879272461,-70.90184783935547,101.41686248779297,-118.38562774658203,-94.252685546875,-90.693115234375
0.3304004669189453,11.362691879272461,-70.90162658691406,101.41664123535156,-118.3858413696289,-94.252685546875,-90.69290161132812
0.33258676528930664,11.362691879272461,-70.90162658691406,101.41664123535156,-118.3858413696289,-94.252685546875,-90.69290161132812
0.3349311351776123,11.362691879272461,-70.90162658691406,101.41664123535156,-118.3858413696289,-94.252685546875,-90.69290161132812
0.3372611999511719,11.362691879272461,-70.90162658691406,101.41664123535156,-118.3858413696289,-94.252685546875,-90.69290161132812
0.340411901473999,11.362691879272461,-70.90162658691406,101.41686248779297,-118.38540649414062,-94.252685546875,-90.693115234375
0.3426032066345215,11.362691879272461,-70.90162658691406,101.41686248779297,-118.38540649414062,-94.252685546875,-90.693115234375
0.34496426582336426,11.362691879272461,-70.90162658691406,101.41686248779297,-118.38540649414062,-94.252685546875,-90.693115234375
0.34739160537719727,11.362691879272461,-70.90162658691406,101.41686248779297,-118.38540649414062,-94.252685546875,-90.693115234375
0.35010194778442383,11.362691879272461,-70.90184783935547,101.41686248779297,-118.3858413696289,-94.252685546875,-90.693115234375
0.3522310256958008,11.362691879272461,-70.90184783935547,101.41686248779297,-118.3858413696289,-94.252685546875,-90.693115234375
0.3543589115142822,11.362691879272461,-70.90184783935547,101.41686248779297,-118.3858413696289,-94.252685546875,-90.693115234375
0.35648608207702637,11.362691879272461,-70.90184783935547,101.41686248779297,-118.3858413696289,-94.252685546875,-90.693115234375
0.35863351821899414,11.362691879272461,-70.90184783935547,101.41686248779297,-118.3858413696289,-94.252685546875,-90.693115234375
0.36087632179260254,11.362691879272461,-70.90162658691406,101.41686248779297,-118.3858413696289,-94.25247192382812,-90.693115234375
0.36313343048095703,11.362691879272461,-70.90162658691406,101.41686248779297,-118.3858413696289,-94.25247192382812,-90.693115234375
0.36525821685791016,11.362691879272461,-70.90162658691406,101.41686248779297,-118.3858413696289,-94.25247192382812,-90.693115234375
0.3674132823944092,11.362691879272461,-70.90162658691406,101.41686248779297,-118.3858413696289,-94.25247192382812,-90.693115234375
0.37020421028137207,11.362909317016602,-70.90184783935547,101.41664123535156,-118.3858413696289,-94.25247192382812,-90.69290161132812
0.37236738204956055,11.362909317016602,-70.90184783935547,101.41664123535156,-118.3858413696289,-94.25247192382812,-90.69290161132812
0.3745400905609131,11.362909317016602,-70.90184783935547,101.41664123535156,-118.3858413696289,-94.25247192382812,-90.69290161132812
0.37679553031921387,11.362909317016602,-70.90184783935547,101.41664123535156,-118.3858413696289,-94.25247192382812,-90.69290161132812
0.37911057472229004,11.362909317016602,-70.90184783935547,101.41664123535156,-118.3858413696289,-94.25247192382812,-90.69290161132812
0.381267786026001,11.362691879272461,-70.90184783935547,101.41664123535156,-118.3858413696289,-94.252685546875,-90.69290161132812
0.38343238830566406,11.362691879272461,-70.90184783935547,101.41664123535156,-118.3858413696289,-94.252685546875,-90.69290161132812
0.38562679290771484,11.362691879272461,-70.90184783935547,101.41664123535156,-118.3858413696289,-94.252685546875,-90.69290161132812
0.38790369033813477,11.362691879272461,-70.90184783935547,101.41664123535156,-118.3858413696289,-94.252685546875,-90.69290161132812
0.39017629623413086,11.362909317016602,-70.90162658691406,101.41642761230469,-118.38562774658203,-94.25247192382812,-90.693115234375
0.3923344612121582,11.362909317016602,-70.90162658691406,101.41642761230469,-118.38562774658203,-94.25247192382812,-90.693115234375
0.3944973945617676,11.362909317016602,-70.90162658691406,101.41642761230469,-118.38562774658203,-94.25247192382812,-90.693115234375
0.39673948287963867,11.362909317016602,-70.90162658691406,101.41642761230469,-118.38562774658203,-94.25247192382812,-90.693115234375
0.3989713191986084,11.362909317016602,-70.90162658691406,101.41642761230469,-118.38562774658203,-94.25247192382812,-90.693115234375
0.4012007713317871,11.362691879272461,-70.90162658691406,101.41664123535156,-118.3858413696289,-94.25247192382812,-90.693115234375
0.4033493995666504,11.362691879272461,-70.90162658691406,101.41664123535156,-118.3858413696289,-94.25247192382812,-90.693115234375
0.40551280975341797,11.362691879272461,-70.90162658691406,101.41664123535156,-118.3858413696289,-94.25247192382812,-90.693115234375
0.40769052505493164,11.362691879272461,-70.90162658691406,101.41664123535156,-118.3858413696289,-94.25247192382812,-90.693115234375
0.41028642654418945,11.362691879272461,-70.90184783935547,101.41642761230469,-118.38606262207031,-94.25247192382812,-90.69290161132812
0.4124424457550049,11.362691879272461,-70.90184783935547,101.41642761230469,-118.38606262207031,-94.25247192382812,-90.69290161132812
0.41461944580078125,11.362691879272461,-70.90184783935547,101.41642761230469,-118.38606262207031,-94.25247192382812,-90.69290161132812
0.41690516471862793,11.362691879272461,-70.90184783935547,101.41642761230469,-118.38606262207031,-94.25247192382812,-90.69290161132812
0.4191863536834717,11.362691879272461,-70.90184783935547,101.41642761230469,-118.38606262207031,-94.25247192382812,-90.69290161132812
0.42136478424072266,11.362909317016602,-70.90162658691406,101.41642761230469,-118.3858413696289,-94.25247192382812,-90.69290161132812
0.42354488372802734,11.362909317016602,-70.90162658691406,101.41642761230469,-118.3858413696289,-94.25247192382812,-90.69290161132812
0.425844669342041,11.362909317016602,-70.90162658691406,101.41642761230469,-118.3858413696289,-94.25247192382812,-90.69290161132812
0.4281351566314697,11.362909317016602,-70.90162658691406,101.41642761230469,-118.3858413696289,-94.25247192382812,-90.69290161132812
0.4303104877471924,11.362909317016602,-70.90184783935547,101.41686248779297,-118.38606262207031,-94.25225067138672,-90.69290161132812
0.43247437477111816,11.362909317016602,-70.90184783935547,101.41686248779297,-118.38606262207031,-94.25225067138672,-90.69290161132812
0.43465256690979004,11.362909317016602,-70.90184783935547,101.41686248779297,-118.38606262207031,-94.25225067138672,-90.69290161132812
0.436908483505249,11.362909317016602,-70.90184783935547,101.41686248779297,-118.38606262207031,-94.25225067138672,-90.69290161132812
0.4391825199127197,11.362909317016602,-70.90184783935547,101.41686248779297,-118.38606262207031,-94.25225067138672,-90.69290161132812
0.4413628578186035,11.363126754760742,-70.90184783935547,101.41642761230469,-118.3858413696289,-94.25225067138672,-90.693115234375
0.44354724884033203,11.363126754760742,-70.90184783935547,101.41642761230469,-118.3858413696289,-94.25225067138672,-90.693115234375
0.44584155082702637,11.363126754760742,-70.90184783935547,101.41642761230469,-118.3858413696289,-94.25225067138672,-90.693115234375
0.44812655448913574,11.363126754760742,-70.90184783935547,101.41642761230469,-118.3858413696289,-94.25225067138672,-90.693115234375
0.4503135681152344,11.363126754760742,-70.90184783935547,101.41686248779297,-118.38606262207031,-94.25181579589844,-90.69290161132812
0.45247936248779297,11.363126754760742,-70.90184783935547,101.41686248779297,-118.38606262207031,-94.25181579589844,-90.69290161132812
0.4546475410461426,11.363126754760742,-70.90184783935547,101.41686248779297,-118.38606262207031,-94.25181579589844,-90.69290161132812
0.45693230628967285,11.363126754760742,-70.90184783935547,101.41686248779297,-118.38606262207031,-94.25181579589844,-90.69290161132812
0.45926427841186523,11.363126754760742,-70.90184783935547,101.41686248779297,-118.38606262207031,-94.25181579589844,-90.69290161132812
0.46143412590026855,11.362909317016602,-70.90184783935547,101.41664123535156,-118.38606262207031,-94.25203704833984,-90.693115234375
0.46360325813293457,11.362909317016602,-70.90184783935547,101.41664123535156,-118.38606262207031,-94.25203704833984,-90.693115234375
0.4658806324005127,11.362909317016602,-70.90184783935547,101.41664123535156,-118.38606262207031,-94.25203704833984,-90.693115234375
0.4681992530822754,11.362909317016602,-70.90184783935547,101.41664123535156,-118.38606262207031,-94.25203704833984,-90.693115234375
0.4703555107116699,11.362909317016602,-70.90162658691406,101.41664123535156,-118.38606262207031,-94.25181579589844,-90.69290161132812
0.47251057624816895,11.362909317016602,-70.90162658691406,101.41664123535156,-118.38606262207031,-94.25181579589844,-90.69290161132812
0.47468018531799316,11.362909317016602,-70.90162658691406,101.41664123535156,-118.38606262207031,-94.25181579589844,-90.69290161132812
0.476970911026001,11.362909317016602,-70.90162658691406,101.41664123535156,-118.38606262207031,-94.25181579589844,-90.69290161132812
0.4792466163635254,11.362909317016602,-70.90162658691406,101.41664123535156,-118.38606262207031,-94.25181579589844,-90.69290161132812
0.4814157485961914,11.363126754760742,-70.90184783935547,101.41642761230469,-118.38606262207031,-94.25160217285156,-90.69290161132812
0.4835808277130127,11.363126754760742,-70.90184783935547,101.41642761230469,-118.38606262207031,-94.25160217285156,-90.69290161132812
0.48585939407348633,11.363126754760742,-70.90184783935547,101.41642761230469,-118.38606262207031,-94.25160217285156,-90.69290161132812
0.4881558418273926,11.363126754760742,-70.90184783935547,101.41642761230469,-118.38606262207031,-94.25160217285156,-90.69290161132812
0.4903132915496826,11.363126754760742,-70.90162658691406,101.41642761230469,-118.38606262207031,-94.25160217285156,-90.693115234375
0.49246788024902344,11.363126754760742,-70.90162658691406,101.41642761230469,-118.38606262207031,-94.25160217285156,-90.693115234375
0.49465346336364746,11.363126754760742,-70.90162658691406,101.41642761230469,-118.38606262207031,-94.25160217285156,-90.693115234375
0.4969058036804199,11.363126754760742,-70.90162658691406,101.41642761230469,-118.38606262207031,-94.25160217285156,-90.693115234375
0.49921321868896484,11.363126754760742,-70.90162658691406,101.41642761230469,-118.38606262207031,-94.25160217285156,-90.693115234375
0.5013799667358398,11.363126754760742,-70.90162658691406,101.41664123535156,-118.3864974975586,-94.25160217285156,-90.693115234375
0.5035481452941895,11.363126754760742,-70.90162658691406,101.41664123535156,-118.3864974975586,-94.25160217285156,-90.693115234375
0.5057101249694824,11.363126754760742,-70.90162658691406,101.41664123535156,-118.3864974975586,-94.25160217285156,-90.693115234375
0.5079679489135742,11.363126754760742,-70.90162658691406,101.41664123535156,-118.3864974975586,-94.25160217285156,-90.693115234375
0.510209321975708,11.363126754760742,-70.90141296386719,101.41642761230469,-118.38627624511719,-94.25181579589844,-90.69290161132812
0.5123631954193115,11.363126754760742,-70.90141296386719,101.41642761230469,-118.38627624511719,-94.25181579589844,-90.69290161132812
0.5145251750946045,11.363126754760742,-70.90141296386719,101.41642761230469,-118.38627624511719,-94.25181579589844,-90.69290161132812
0.5167062282562256,11.363126754760742,-70.90141296386719,101.41642761230469,-118.38627624511719,-94.25181579589844,-90.69290161132812
0.5190298557281494,11.363126754760742,-70.90141296386719,101.41642761230469,-118.38627624511719,-94.25181579589844,-90.69290161132812
0.5212764739990234,11.363344192504883,-70.90162658691406,101.41664123535156,-118.38627624511719,-94.25160217285156,-90.69290161132812
0.5234498977661133,11.363344192504883,-70.90162658691406,101.41664123535156,-118.38627624511719,-94.25160217285156,-90.69290161132812
0.5256340503692627,11.363344192504883,-70.90162658691406,101.41664123535156,-118.38627624511719,-94.25160217285156,-90.69290161132812
0.5279185771942139,11.363344192504883,-70.90162658691406,101.41664123535156,-118.38627624511719,-94.25160217285156,-90.69290161132812
0.5303487777709961,11.363561630249023,-70.90141296386719,101.41664123535156,-118.3864974975586,-94.25138092041016,-90.69290161132812
0.5325131416320801,11.363561630249023,-70.90141296386719,101.41664123535156,-118.3864974975586,-94.25138092041016,-90.69290161132812
0.53468918800354,11.363561630249023,-70.90141296386719,101.41664123535156,-118.3864974975586,-94.25138092041016,-90.69290161132812
0.5369842052459717,11.363561630249023,-70.90141296386719,101.41664123535156,-118.3864974975586,-94.25138092041016,-90.69290161132812
0.5392165184020996,11.363561630249023,-70.90141296386719,101.41664123535156,-118.3864974975586,-94.25138092041016,-90.69290161132812
0.5413985252380371,11.363344192504883,-70.90184783935547,101.41664123535156,-118.38627624511719,-94.25160217285156,-90.69290161132812
0.5435760021209717,11.363344192504883,-70.90184783935547,101.41664123535156,-118.38627624511719,-94.25160217285156,-90.69290161132812
0.5457966327667236,11.363344192504883,-70.90184783935547,101.41664123535156,-118.38627624511719,-94.25160217285156,-90.69290161132812
0.5480067729949951,11.363344192504883,-70.90184783935547,101.41664123535156,-118.38627624511719,-94.25160217285156,-90.69290161132812
0.5501847267150879,11.363126754760742,-70.90184783935547,101.41664123535156,-118.38627624511719,-94.25181579589844,-90.693115234375
0.5522990226745605,11.363126754760742,-70.90184783935547,101.41664123535156,-118.38627624511719,-94.25181579589844,-90.693115234375
0.554419994354248,11.363126754760742,-70.90184783935547,101.41664123535156,-118.38627624511719,-94.25181579589844,-90.693115234375
0.5565757751464844,11.363126754760742,-70.90184783935547,101.41664123535156,-118.38627624511719,-94.25181579589844,-90.693115234375
0.5588188171386719,11.363126754760742,-70.90184783935547,101.41664123535156,-118.38627624511719,-94.25181579589844,-90.693115234375
0.5611135959625244,11.363126754760742,-70.90162658691406,101.41664123535156,-118.38627624511719,-94.25203704833984,-90.693115234375
0.5632822513580322,11.363126754760742,-70.90162658691406,101.41664123535156,-118.38627624511719,-94.25203704833984,-90.693115234375
0.5654723644256592,11.363126754760742,-70.90162658691406,101.41664123535156,-118.38627624511719,-94.25203704833984,-90.693115234375
0.5676584243774414,11.363126754760742,-70.90162658691406,101.41664123535156,-118.38627624511719,-94.25203704833984,-90.693115234375
0.5703957080841064,11.363126754760742,-70.90184783935547,101.41664123535156,-118.38627624511719,-94.25181579589844,-90.693115234375
0.5725655555725098,11.363126754760742,-70.90184783935547,101.41664123535156,-118.38627624511719,-94.25181579589844,-90.693115234375
0.5748469829559326,11.363126754760742,-70.90184783935547,101.41664123535156,-118.38627624511719,-94.25181579589844,-90.693115234375
0.5771603584289551,11.363126754760742,-70.90184783935547,101.41664123535156,-118.38627624511719,-94.25181579589844,-90.693115234375
0.5801999568939209,11.362909317016602,-70.90184783935547,101.41664123535156,-118.3864974975586,-94.25203704833984,-90.693115234375
0.5823619365692139,11.362909317016602,-70.90184783935547,101.41664123535156,-118.3864974975586,-94.25203704833984,-90.693115234375
0.5845353603363037,11.362909317016602,-70.90184783935547,101.41664123535156,-118.3864974975586,-94.25203704833984,-90.693115234375
0.5867786407470703,11.362909317016602,-70.90184783935547,101.41664123535156,-118.3864974975586,-94.25203704833984,-90.693115234375
0.5891082286834717,11.362909317016602,-70.90184783935547,101.41664123535156,-118.3864974975586,-94.25203704833984,-90.693115234375
0.5912766456604004,11.362691879272461,-70.90184783935547,101.41642761230469,-118.38627624511719,-94.25203704833984,-90.69290161132812
0.5934321880340576,11.362691879272461,-70.90184783935547,101.41642761230469,-118.38627624511719,-94.25203704833984,-90.69290161132812
0.5956065654754639,11.362691879272461,-70.90184783935547,101.41642761230469,-118.38627624511719,-94.25203704833984,-90.69290161132812
0.5978279113769531,11.362691879272461,-70.90184783935547,101.41642761230469,-118.38627624511719,-94.25203704833984,-90.69290161132812
0.5999531745910645,11.363126754760742,-70.90162658691406,101.41642761230469,-118.3864974975586,-94.25203704833984,-90.69290161132812
0.6021718978881836,11.363126754760742,-70.90162658691406,101.41642761230469,-118.3864974975586,-94.25203704833984,-90.69290161132812
0.6042912006378174,11.363126754760742,-70.90162658691406,101.41642761230469,-118.3864974975586,-94.25203704833984,-90.69290161132812
0.6064085960388184,11.363126754760742,-70.90162658691406,101.41642761230469,-118.3864974975586,-94.25203704833984,-90.69290161132812
0.6085293292999268,11.363126754760742,-70.90162658691406,101.41642761230469,-118.3864974975586,-94.25203704833984,-90.69290161132812
0.6106388568878174,11.362909317016602,-70.90184783935547,101.41664123535156,-118.3864974975586,-94.25225067138672,-90.69290161132812
0.6128208637237549,11.362909317016602,-70.90184783935547,101.41664123535156,-118.3864974975586,-94.25225067138672,-90.69290161132812
0.6150088310241699,11.362909317016602,-70.90184783935547,101.41664123535156,-118.3864974975586,-94.25225067138672,-90.69290161132812
0.6172149181365967,11.362909317016602,-70.90184783935547,101.41664123535156,-118.3864974975586,-94.25225067138672,-90.69290161132812
0.6196041107177734,11.362909317016602,-70.90184783935547,101.41642761230469,-118.3864974975586,-94.25225067138672,-90.693115234375
0.6217994689941406,11.362909317016602,-70.90184783935547,101.41642761230469,-118.3864974975586,-94.25225067138672,-90.693115234375
0.6240048408508301,11.362909317016602,-70.90184783935547,101.41642761230469,-118.3864974975586,-94.25225067138672,-90.693115234375
0.6262388229370117,11.362909317016602,-70.90184783935547,101.41642761230469,-118.3864974975586,-94.25225067138672,-90.693115234375
0.6283607482910156,11.362909317016602,-70.90184783935547,101.41642761230469,-118.3864974975586,-94.25225067138672,-90.693115234375
0.6305043697357178,11.362909317016602,-70.90184783935547,101.41664123535156,-118.38627624511719,-94.25247192382812,-90.693115234375
0.632662296295166,11.362909317016602,-70.90184783935547,101.41664123535156,-118.38627624511719,-94.25247192382812,-90.693115234375
0.6349375247955322,11.362909317016602,-70.90184783935547,101.41664123535156,-118.38627624511719,-94.25247192382812,-90.693115234375
0.6372406482696533,11.362909317016602,-70.90184783935547,101.41664123535156,-118.38627624511719,-94.25247192382812,-90.693115234375
0.6403937339782715,11.362909317016602,-70.90184783935547,101.41686248779297,-118.38606262207031,-94.25247192382812,-90.693115234375
0.642568826675415,11.362909317016602,-70.90184783935547,101.41686248779297,-118.38606262207031,-94.25247192382812,-90.693115234375
0.64485764503479,11.362909317016602,-70.90184783935547,101.41686248779297,-118.38606262207031,-94.25247192382812,-90.693115234375
0.6471691131591797,11.362909317016602,-70.90184783935547,101.41686248779297,-118.38606262207031,-94.25247192382812,-90.693115234375
0.6503841876983643,11.362909317016602,-70.90184783935547,101.41686248779297,-118.3858413696289,-94.25225067138672,-90.693115234375
0.6525466442108154,11.362909317016602,-70.90184783935547,101.41686248779297,-118.3858413696289,-94.25225067138672,-90.693115234375
0.6547579765319824,11.362909317016602,-70.90184783935547,101.41686248779297,-118.3858413696289,-94.25225067138672,-90.693115234375
0.6569592952728271,11.362909317016602,-70.90184783935547,101.41686248779297,-118.3858413696289,-94.25225067138672,-90.693115234375
0.6591424942016602,11.362909317016602,-70.90184783935547,101.41686248779297,-118.3858413696289,-94.25225067138672,-90.693115234375
0.6612725257873535,11.362909317016602,-70.90162658691406,101.41686248779297,-118.3858413696289,-94.25225067138672,-90.69290161132812
0.6633946895599365,11.362909317016602,-70.90162658691406,101.41686248779297,-118.3858413696289,-94.25225067138672,-90.69290161132812
0.6655535697937012,11.362909317016602,-70.90162658691406,101.41686248779297,-118.3858413696289,-94.25225067138672,-90.69290161132812
0.6678011417388916,11.362909317016602,-70.90162658691406,101.41686248779297,-118.3858413696289,-94.25225067138672,-90.69290161132812
0.6702017784118652,11.362691879272461,-70.90184783935547,101.41686248779297,-118.3858413696289,-94.25225067138672,-90.693115234375
0.6723859310150146,11.362691879272461,-70.90184783935547,101.41686248779297,-118.3858413696289,-94.25225067138672,-90.693115234375
0.6745610237121582,11.362691879272461,-70.90184783935547,101.41686248779297,-118.3858413696289,-94.25225067138672,-90.693115234375
0.6768584251403809,11.362691879272461,-70.90184783935547,101.41686248779297,-118.3858413696289,-94.25225067138672,-90.693115234375
0.6792054176330566,11.362691879272461,-70.90184783935547,101.41686248779297,-118.3858413696289,-94.25225067138672,-90.693115234375
0.6813850402832031,11.363126754760742,-70.90184783935547,101.41664123535156,-118.38606262207031,-94.25203704833984,-90.69290161132812
0.6835532188415527,11.363126754760742,-70.90184783935547,101.41664123535156,-118.38606262207031,-94.25203704833984,-90.69290161132812
0.6858289241790771,11.363126754760742,-70.90184783935547,101.41664123535156,-118.38606262207031,-94.25203704833984,-90.69290161132812
0.6880626678466797,11.363126754760742,-70.90184783935547,101.41664123535156,-118.38606262207031,-94.25203704833984,-90.69290161132812
0.6903893947601318,11.363126754760742,-70.90162658691406,101.41686248779297,-118.3858413696289,-94.25203704833984,-90.6933364868164
0.6925621032714844,11.363126754760742,-70.90162658691406,101.41686248779297,-118.3858413696289,-94.25203704833984,-90.6933364868164
0.6947791576385498,11.363126754760742,-70.90162658691406,101.41686248779297,-118.3858413696289,-94.25203704833984,-90.6933364868164
0.696969747543335,11.363126754760742,-70.90162658691406,101.41686248779297,-118.3858413696289,-94.25203704833984,-90.6933364868164
0.699101448059082,11.363126754760742,-70.90162658691406,101.41686248779297,-118.3858413696289,-94.25203704833984,-90.6933364868164
0.701221227645874,11.362909317016602,-70.90162658691406,101.41686248779297,-118.3858413696289,-94.25203704833984,-90.69290161132812
0.703338623046875,11.362909317016602,-70.90162658691406,101.41686248779297,-118.3858413696289,-94.25203704833984,-90.69290161132812
0.7054822444915771,11.362909317016602,-70.90162658691406,101.41686248779297,-118.3858413696289,-94.25203704833984,-90.69290161132812
0.7076349258422852,11.362909317016602,-70.90162658691406,101.41686248779297,-118.3858413696289,-94.25203704833984,-90.69290161132812
0.7102925777435303,11.363126754760742,-70.90184783935547,101.41664123535156,-118.38606262207031,-94.25181579589844,-90.693115234375
0.7124631404876709,11.363126754760742,-70.90184783935547,101.41664123535156,-118.38606262207031,-94.25181579589844,-90.693115234375
0.7146334648132324,11.363126754760742,-70.90184783935547,101.41664123535156,-118.38606262207031,-94.25181579589844,-90.693115234375
0.7168946266174316,11.363126754760742,-70.90184783935547,101.41664123535156,-118.38606262207031,-94.25181579589844,-90.693115234375
0.7192010879516602,11.363126754760742,-70.90184783935547,101.41664123535156,-118.38606262207031,-94.25181579589844,-90.693115234375
0.7213752269744873,11.363126754760742,-70.90141296386719,101.41686248779297,-118.3858413696289,-94.25160217285156,-90.693115234375
0.7235376834869385,11.363126754760742,-70.90141296386719,101.41686248779297,-118.3858413696289,-94.25160217285156,-90.693115234375
0.725818395614624,11.363126754760742,-70.90141296386719,101.41686248779297,-118.3858413696289,-94.25160217285156,-90.693115234375
0.7281062602996826,11.363126754760742,-70.90141296386719,101.41686248779297,-118.3858413696289,-94.25160217285156,-90.693115234375
0.730294942855835,11.363126754760742,-70.90141296386719,101.41664123535156,-118.38627624511719,-94.25138092041016,-90.693115234375
0.7324619293212891,11.363126754760742,-70.90141296386719,101.41664123535156,-118.38627624511719,-94.25138092041016,-90.693115234375
0.734637975692749,11.363126754760742,-70.90141296386719,101.41664123535156,-118.38627624511719,-94.25138092041016,-90.693115234375
0.7369303703308105,11.363126754760742,-70.90141296386719,101.41664123535156,-118.38627624511719,-94.25138092041016,-90.693115234375
0.7391912937164307,11.363126754760742,-70.90141296386719,101.41664123535156,-118.38627624511719,-94.25138092041016,-90.693115234375
0.7413535118103027,11.363344192504883,-70.90162658691406,101.41686248779297,-118.38627624511719,-94.25138092041016,-90.69290161132812
0.7435152530670166,11.363344192504883,-70.90162658691406,101.41686248779297,-118.38627624511719,-94.25138092041016,-90.69290161132812
0.7456910610198975,11.363344192504883,-70.90162658691406,101.41686248779297,-118.38627624511719,-94.25138092041016,-90.69290161132812
0.7478699684143066,11.363344192504883,-70.90162658691406,101.41686248779297,-118.38627624511719,-94.25138092041016,-90.69290161132812
0.7501392364501953,11.363344192504883,-70.90162658691406,101.41686248779297,-118.38606262207031,-94.25138092041016,-90.69290161132812
0.7523062229156494,11.363344192504883,-70.90162658691406,101.41686248779297,-118.38606262207031,-94.25138092041016,-90.69290161132812
0.7544405460357666,11.363344192504883,-70.90162658691406,101.41686248779297,-118.38606262207031,-94.25138092041016,-90.69290161132812
0.7565567493438721,11.363344192504883,-70.90162658691406,101.41686248779297,-118.38606262207031,-94.25138092041016,-90.69290161132812
0.7587440013885498,11.363344192504883,-70.90162658691406,101.41686248779297,-118.38606262207031,-94.25138092041016,-90.69290161132812
0.760988712310791,11.363344192504883,-70.90162658691406,101.41686248779297,-118.38606262207031,-94.25138092041016,-90.693115234375
0.7632620334625244,11.363344192504883,-70.90162658691406,101.41686248779297,-118.38606262207031,-94.25138092041016,-90.693115234375
0.7654027938842773,11.363344192504883,-70.90162658691406,101.41686248779297,-118.38606262207031,-94.25138092041016,-90.693115234375
0.7675442695617676,11.363344192504883,-70.90162658691406,101.41686248779297,-118.38606262207031,-94.25138092041016,-90.693115234375
0.7697255611419678,11.363344192504883,-70.90162658691406,101.41707611083984,-118.38606262207031,-94.25138092041016,-90.69290161132812
0.7719104290008545,11.363344192504883,-70.90162658691406,101.41707611083984,-118.38606262207031,-94.25138092041016,-90.69290161132812
0.7741110324859619,11.363344192504883,-70.90162658691406,101.41707611083984,-118.38606262207031,-94.25138092041016,-90.69290161132812
0.7762174606323242,11.363344192504883,-70.90162658691406,101.41707611083984,-118.38606262207031,-94.25138092041016,-90.69290161132812
0.778317928314209,11.363344192504883,-70.90162658691406,101.41707611083984,-118.38606262207031,-94.25138092041016,-90.69290161132812
0.7804205417633057,11.363344192504883,-70.90141296386719,101.41707611083984,-118.38606262207031,-94.25116729736328,-90.69290161132812
0.7825515270233154,11.363344192504883,-70.90141296386719,101.41707611083984,-118.38606262207031,-94.25116729736328,-90.69290161132812
0.7846982479095459,11.363344192504883,-70.90141296386719,101.41707611083984,-118.38606262207031,-94.25116729736328,-90.69290161132812
0.7869627475738525,11.363344192504883,-70.90141296386719,101.41707611083984,-118.38606262207031,-94.25116729736328,-90.69290161132812
0.7891976833343506,11.363344192504883,-70.90141296386719,101.41707611083984,-118.38606262207031,-94.25116729736328,-90.69290161132812
0.7913761138916016,11.363344192504883,-70.90141296386719,101.41664123535156,-118.38606262207031,-94.25138092041016,-90.693115234375
0.793543815612793,11.363344192504883,-70.90141296386719,101.41664123535156,-118.38606262207031,-94.25138092041016,-90.693115234375
0.795814037322998,11.363344192504883,-70.90141296386719,101.41664123535156,-118.38606262207031,-94.25138092041016,-90.693115234375
0.7981021404266357,11.363344192504883,-70.90141296386719,101.41664123535156,-118.38606262207031,-94.25138092041016,-90.693115234375
0.8002638816833496,11.363344192504883,-70.90141296386719,101.41664123535156,-118.38627624511719,-94.25116729736328,-90.69290161132812
0.8024196624755859,11.363344192504883,-70.90141296386719,101.41664123535156,-118.38627624511719,-94.25116729736328,-90.69290161132812
0.8045878410339355,11.363344192504883,-70.90141296386719,101.41664123535156,-118.38627624511719,-94.25116729736328,-90.69290161132812
0.8068742752075195,11.363344192504883,-70.90141296386719,101.41664123535156,-118.38627624511719,-94.25116729736328,-90.69290161132812
0.8091559410095215,11.363344192504883,-70.90141296386719,101.41664123535156,-118.38627624511719,-94.25116729736328,-90.69290161132812
0.8113250732421875,11.363126754760742,-70.90162658691406,101.41664123535156,-118.38606262207031,-94.25138092041016,-90.693115234375
0.8134880065917969,11.363126754760742,-70.90162658691406,101.41664123535156,-118.38606262207031,-94.25138092041016,-90.693115234375
0.8156728744506836,11.363126754760742,-70.90162658691406,101.41664123535156,-118.38606262207031,-94.25138092041016,-90.693115234375
0.817950963973999,11.363126754760742,-70.90162658691406,101.41664123535156,-118.38606262207031,-94.25138092041016,-90.693115234375
0.820225715637207,11.363126754760742,-70.90141296386719,101.41686248779297,-118.38627624511719,-94.25138092041016,-90.693115234375
0.8223817348480225,11.363126754760742,-70.90141296386719,101.41686248779297,-118.38627624511719,-94.25138092041016,-90.693115234375
0.8245499134063721,11.363126754760742,-70.90141296386719,101.41686248779297,-118.38627624511719,-94.25138092041016,-90.693115234375
0.8268301486968994,11.363126754760742,-70.90141296386719,101.41686248779297,-118.38627624511719,-94.25138092041016,-90.693115234375
0.8291161060333252,11.363126754760742,-70.90141296386719,101.41686248779297,-118.38627624511719,-94.25138092041016,-90.693115234375
0.8312811851501465,11.363344192504883,-70.90162658691406,101.41707611083984,-118.38627624511719,-94.25138092041016,-90.6933364868164
0.8334436416625977,11.363344192504883,-70.90162658691406,101.41707611083984,-118.38627624511719,-94.25138092041016,-90.6933364868164
0.835620641708374,11.363344192504883,-70.90162658691406,101.41707611083984,-118.38627624511719,-94.25138092041016,-90.6933364868164
0.8379037380218506,11.363344192504883,-70.90162658691406,101.41707611083984,-118.38627624511719,-94.25138092041016,-90.6933364868164
0.8402259349822998,11.363561630249023,-70.90162658691406,101.41664123535156,-118.38627624511719,-94.25116729736328,-90.69290161132812
0.8423805236816406,11.363561630249023,-70.90162658691406,101.41664123535156,-118.38627624511719,-94.25116729736328,-90.69290161132812
0.8446028232574463,11.363561630249023,-70.90162658691406,101.41664123535156,-118.38627624511719,-94.25116729736328,-90.69290161132812
0.8467798233032227,11.363561630249023,-70.90162658691406,101.41664123535156,-118.38627624511719,-94.25116729736328,-90.69290161132812
0.8491184711456299,11.363561630249023,-70.90162658691406,101.41664123535156,-118.38627624511719,-94.25116729736328,-90.69290161132812
0.8512661457061768,11.363561630249023,-70.90184783935547,101.41642761230469,-118.38671112060547,-94.25138092041016,-90.693115234375
0.853421688079834,11.363561630249023,-70.90184783935547,101.41642761230469,-118.38671112060547,-94.25138092041016,-90.693115234375
0.8555917739868164,11.363561630249023,-70.90184783935547,101.41642761230469,-118.38671112060547,-94.25138092041016,-90.693115234375
0.8577690124511719,11.363561630249023,-70.90184783935547,101.41642761230469,-118.38671112060547,-94.25138092041016,-90.693115234375
0.8602311611175537,11.363344192504883,-70.90184783935547,101.41620635986328,-118.3864974975586,-94.250732421875,-90.69290161132812
0.8623855113983154,11.363344192504883,-70.90184783935547,101.41620635986328,-118.3864974975586,-94.250732421875,-90.69290161132812
0.8645544052124023,11.363344192504883,-70.90184783935547,101.41620635986328,-118.3864974975586,-94.250732421875,-90.69290161132812
0.8667304515838623,11.363344192504883,-70.90184783935547,101.41620635986328,-118.3864974975586,-94.250732421875,-90.69290161132812
0.8690352439880371,11.363344192504883,-70.90184783935547,101.41620635986328,-118.3864974975586,-94.250732421875,-90.69290161132812
0.8712639808654785,11.363561630249023,-70.90184783935547,101.41620635986328,-118.3864974975586,-94.25094604492188,-90.69268035888672
0.8734347820281982,11.363561630249023,-70.90184783935547,101.41620635986328,-118.3864974975586,-94.25094604492188,-90.69268035888672
0.8756058216094971,11.363561630249023,-70.90184783935547,101.41620635986328,-118.3864974975586,-94.25094604492188,-90.69268035888672
0.8779013156890869,11.363561630249023,-70.90184783935547,101.41620635986328,-118.3864974975586,-94.25094604492188,-90.69268035888672
0.880253791809082,11.363344192504883,-70.90184783935547,101.41642761230469,-118.3864974975586,-94.250732421875,-90.693115234375
0.8824093341827393,11.363344192504883,-70.90184783935547,101.41642761230469,-118.3864974975586,-94.250732421875,-90.693115234375
0.8845779895782471,11.363344192504883,-70.90184783935547,101.41642761230469,-118.3864974975586,-94.250732421875,-90.693115234375
0.8868706226348877,11.363344192504883,-70.90184783935547,101.41642761230469,-118.3864974975586,-94.250732421875,-90.693115234375
0.889202356338501,11.363344192504883,-70.90184783935547,101.41642761230469,-118.3864974975586,-94.250732421875,-90.693115234375
0.8913700580596924,11.363561630249023,-70.90184783935547,101.41642761230469,-118.3864974975586,-94.25094604492188,-90.693115234375
0.8935387134552002,11.363561630249023,-70.90184783935547,101.41642761230469,-118.3864974975586,-94.25094604492188,-90.693115234375
0.8958170413970947,11.363561630249023,-70.90184783935547,101.41642761230469,-118.3864974975586,-94.25094604492188,-90.693115234375
0.8981196880340576,11.363561630249023,-70.90184783935547,101.41642761230469,-118.3864974975586,-94.25094604492188,-90.693115234375
0.9002766609191895,11.363561630249023,-70.90162658691406,101.41642761230469,-118.3864974975586,-94.250732421875,-90.69290161132812
0.9024498462677002,11.363561630249023,-70.90162658691406,101.41642761230469,-118.3864974975586,-94.250732421875,-90.69290161132812
0.9046146869659424,11.363561630249023,-70.90162658691406,101.41642761230469,-118.3864974975586,-94.250732421875,-90.69290161132812
0.9068634510040283,11.363561630249023,-70.90162658691406,101.41642761230469,-118.3864974975586,-94.250732421875,-90.69290161132812
0.9091920852661133,11.363561630249023,-70.90162658691406,101.41642761230469,-118.3864974975586,-94.250732421875,-90.69290161132812
0.9113593101501465,11.363561630249023,-70.90162658691406,101.41642761230469,-118.38671112060547,-94.25029754638672,-90.693115234375
0.9135301113128662,11.363561630249023,-70.90162658691406,101.41642761230469,-118.38671112060547,-94.25029754638672,-90.693115234375
0.9158143997192383,11.363561630249023,-70.90162658691406,101.41642761230469,-118.38671112060547,-94.25029754638672,-90.693115234375
0.9181180000305176,11.363561630249023,-70.90162658691406,101.41642761230469,-118.38671112060547,-94.25029754638672,-90.693115234375
0.920295000076294,11.363779067993164,-70.90184783935547,101.4159927368164,-118.38693237304688,-94.25007629394531,-90.693115234375
0.922450065612793,11.363779067993164,-70.90184783935547,101.4159927368164,-118.38693237304688,-94.25007629394531,-90.693115234375
0.9246196746826172,11.363779067993164,-70.90184783935547,101.4159927368164,-118.38693237304688,-94.25007629394531,-90.693115234375
0.9269051551818848,11.363779067993164,-70.90184783935547,101.4159927368164,-118.38693237304688,-94.25007629394531,-90.693115234375
0.9291994571685791,11.363779067993164,-70.90184783935547,101.4159927368164,-118.38693237304688,-94.25007629394531,-90.693115234375
0.9313669204711914,11.363779067993164,-70.90206146240234,101.4159927368164,-118.38714599609375,-94.25029754638672,-90.693115234375
0.9335293769836426,11.363779067993164,-70.90206146240234,101.4159927368164,-118.38714599609375,-94.25029754638672,-90.693115234375
0.935807466506958,11.363779067993164,-70.90206146240234,101.4159927368164,-118.38714599609375,-94.25029754638672,-90.693115234375
0.9381132125854492,11.363779067993164,-70.90206146240234,101.4159927368164,-118.38714599609375,-94.25029754638672,-90.693115234375
0.940277099609375,11.363779067993164,-70.90206146240234,101.415771484375,-118.38714599609375,-94.24986267089844,-90.693115234375
0.9424335956573486,11.363779067993164,-70.90206146240234,101.415771484375,-118.38714599609375,-94.24986267089844,-90.693115234375
0.9446535110473633,11.363779067993164,-70.90206146240234,101.415771484375,-118.38714599609375,-94.24986267089844,-90.693115234375
0.946847677230835,11.363779067993164,-70.90206146240234,101.415771484375,-118.38714599609375,-94.24986267089844,-90.693115234375
0.9490225315093994,11.363779067993164,-70.90206146240234,101.415771484375,-118.38714599609375,-94.24986267089844,-90.693115234375
0.951275110244751,11.364213943481445,-70.90206146240234,101.415771484375,-118.38736724853516,-94.24942779541016,-90.693115234375
0.9534070491790771,11.364213943481445,-70.90206146240234,101.415771484375,-118.38736724853516,-94.24942779541016,-90.693115234375
0.9555602073669434,11.364213943481445,-70.90206146240234,101.415771484375,-118.38736724853516,-94.24942779541016,-90.693115234375
0.9578146934509277,11.364213943481445,-70.90206146240234,101.415771484375,-118.38736724853516,-94.24942779541016,-90.693115234375
0.9601619243621826,11.364213943481445,-70.90228271484375,101.41555786132812,-118.38758087158203,-94.24942779541016,-90.69290161132812
0.962322473526001,11.364213943481445,-70.90228271484375,101.41555786132812,-118.38758087158203,-94.24942779541016,-90.69290161132812
0.9644865989685059,11.364213943481445,-70.90228271484375,101.41555786132812,-118.38758087158203,-94.24942779541016,-90.69290161132812
0.9666635990142822,11.364213943481445,-70.90228271484375,101.41555786132812,-118.38758087158203,-94.24942779541016,-90.69290161132812
0.9689595699310303,11.364213943481445,-70.90228271484375,101.41555786132812,-118.38758087158203,-94.24942779541016,-90.69290161132812
0.971235990524292,11.364213943481445,-70.90228271484375,101.415771484375,-118.38758087158203,-94.24942779541016,-90.693115234375
0.9733989238739014,11.364213943481445,-70.90228271484375,101.415771484375,-118.38758087158203,-94.24942779541016,-90.693115234375
0.9755752086639404,11.364213943481445,-70.90228271484375,101.415771484375,-118.38758087158203,-94.24942779541016,-90.693115234375
0.9778690338134766,11.364213943481445,-70.90228271484375,101.415771484375,-118.38758087158203,-94.24942779541016,-90.693115234375
0.9802165031433105,11.364213943481445,-70.90228271484375,101.4159927368164,-118.38736724853516,-94.24920654296875,-90.693115234375
0.9823710918426514,11.364213943481445,-70.90228271484375,101.4159927368164,-118.38736724853516,-94.24920654296875,-90.693115234375
0.984576940536499,11.364213943481445,-70.90228271484375,101.4159927368164,-118.38736724853516,-94.24920654296875,-90.693115234375
0.9867944717407227,11.364213943481445,-70.90228271484375,101.4159927368164,-118.38736724853516,-94.24920654296875,-90.693115234375
0.9890468120574951,11.364213943481445,-70.90228271484375,101.4159927368164,-118.38736724853516,-94.24920654296875,-90.693115234375
0.9912872314453125,11.364431381225586,-70.90228271484375,101.4159927368164,-118.38714599609375,-94.24942779541016,-90.693115234375
0.9934768676757812,11.364431381225586,-70.90228271484375,101.4159927368164,-118.38714599609375,-94.24942779541016,-90.693115234375
0.995654821395874,11.364431381225586,-70.90228271484375,101.4159927368164,-118.38714599609375,-94.24942779541016,-90.693115234375
0.9978911876678467,11.364431381225586,-70.90228271484375,101.4159927368164,-118.38714599609375,-94.24942779541016,-90.693115234375
1.000124216079712,11.364213943481445,-70.90206146240234,101.41642761230469,-118.38736724853516,-94.24920654296875,-90.693115234375
1.0022590160369873,11.364213943481445,-70.90206146240234,101.41642761230469,-118.38736724853516,-94.24920654296875,-90.693115234375
1.0043809413909912,11.364213943481445,-70.90206146240234,101.41642761230469,-118.38736724853516,-94.24920654296875,-90.693115234375
1.0064902305603027,11.364213943481445,-70.90206146240234,101.41642761230469,-118.38736724853516,-94.24920654296875,-90.693115234375
1.0086071491241455,11.364213943481445,-70.90206146240234,101.41642761230469,-118.38736724853516,-94.24920654296875,-90.693115234375
1.010721206665039,11.364213943481445,-70.90206146240234,101.4159927368164,-118.38714599609375,-94.24920654296875,-90.69290161132812
1.0129029750823975,11.364213943481445,-70.90206146240234,101.4159927368164,-118.38714599609375,-94.24920654296875,-90.69290161132812
1.015101671218872,11.364213943481445,-70.90206146240234,101.4159927368164,-118.38714599609375,-94.24920654296875,-90.69290161132812
1.0172309875488281,11.364213943481445,-70.90206146240234,101.4159927368164,-118.38714599609375,-94.24920654296875,-90.69290161132812
1.0196480751037598,11.364213943481445,-70.90206146240234,101.4159927368164,-118.38736724853516,-94.24920654296875,-90.693115234375
1.0218350887298584,11.364213943481445,-70.90206146240234,101.4159927368164,-118.38736724853516,-94.24920654296875,-90.693115234375
1.0239980220794678,11.364213943481445,-70.90206146240234,101.4159927368164,-118.38736724853516,-94.24920654296875,-90.693115234375
1.026174545288086,11.364213943481445,-70.90206146240234,101.4159927368164,-118.38736724853516,-94.24920654296875,-90.693115234375
1.0282509326934814,11.364213943481445,-70.90206146240234,101.4159927368164,-118.38736724853516,-94.24920654296875,-90.693115234375
1.0303328037261963,11.364213943481445,-70.90184783935547,101.4159927368164,-118.38736724853516,-94.24899291992188,-90.69290161132812
1.0323963165283203,11.364213943481445,-70.90184783935547,101.4159927368164,-118.38736724853516,-94.24899291992188,-90.69290161132812
1.0344948768615723,11.364213943481445,-70.90184783935547,101.4159927368164,-118.38736724853516,-94.24899291992188,-90.69290161132812
1.0365791320800781,11.364213943481445,-70.90184783935547,101.4159927368164,-118.38736724853516,-94.24899291992188,-90.69290161132812
1.038672924041748,11.364213943481445,-70.90184783935547,101.4159927368164,-118.38736724853516,-94.24899291992188,-90.69290161132812
1.0407612323760986,11.364649772644043,-70.90162658691406,101.4159927368164,-118.38736724853516,-94.24812316894531,-90.69290161132812
1.0428457260131836,11.364649772644043,-70.90162658691406,101.4159927368164,-118.38736724853516,-94.24812316894531,-90.69290161132812
1.0449306964874268,11.364649772644043,-70.90162658691406,101.4159927368164,-118.38736724853516,-94.24812316894531,-90.69290161132812
1.0470139980316162,11.364649772644043,-70.90162658691406,101.4159927368164,-118.38736724853516,-94.24812316894531,-90.69290161132812
1.0491747856140137,11.364649772644043,-70.90162658691406,101.4159927368164,-118.38736724853516,-94.24812316894531,-90.69290161132812
1.0513508319854736,11.364867210388184,-70.90184783935547,101.415771484375,-118.38758087158203,-94.24746704101562,-90.69290161132812
1.0536866188049316,11.364867210388184,-70.90184783935547,101.415771484375,-118.38758087158203,-94.24746704101562,-90.69290161132812
1.055816650390625,11.364867210388184,-70.90184783935547,101.415771484375,-118.38758087158203,-94.24746704101562,-90.69290161132812
1.057926893234253,11.364867210388184,-70.90184783935547,101.415771484375,-118.38758087158203,-94.24746704101562,-90.69290161132812
1.0600461959838867,11.365302085876465,-70.90206146240234,101.415771484375,-118.38780212402344,-94.24681091308594,-90.69290161132812
1.0621509552001953,11.365302085876465,-70.90206146240234,101.415771484375,-118.38780212402344,-94.24681091308594,-90.69290161132812
1.0642871856689453,11.365302085876465,-70.90206146240234,101.415771484375,-118.38780212402344,-94.24681091308594,-90.69290161132812
1.0664329528808594,11.365302085876465,-70.90206146240234,101.415771484375,-118.38780212402344,-94.24681091308594,-90.69290161132812
1.0685932636260986,11.365302085876465,-70.90206146240234,101.415771484375,-118.38780212402344,-94.24681091308594,-90.69290161132812
1.0707621574401855,11.365954399108887,-70.90184783935547,101.4159927368164,-118.38780212402344,-94.24637603759766,-90.693115234375
1.0730538368225098,11.365954399108887,-70.90184783935547,101.4159927368164,-118.38780212402344,-94.24637603759766,-90.693115234375
1.0752778053283691,11.365954399108887,-70.90184783935547,101.4159927368164,-118.38780212402344,-94.24637603759766,-90.693115234375
1.0774624347686768,11.365954399108887,-70.90184783935547,101.4159927368164,-118.38780212402344,-94.24637603759766,-90.693115234375
1.080413579940796,11.365954399108887,-70.90184783935547,101.4159927368164,-118.38780212402344,-94.2457275390625,-90.6933364868164
1.0825843811035156,11.365954399108887,-70.90184783935547,101.4159927368164,-118.38780212402344,-94.2457275390625,-90.6933364868164
1.084859848022461,11.365954399108887,-70.90184783935547,101.4159927368164,-118.38780212402344,-94.2457275390625,-90.6933364868164
1.087158203125,11.365954399108887,-70.90184783935547,101.4159927368164,-118.38780212402344,-94.2457275390625,-90.6933364868164
1.0902905464172363,11.365954399108887,-70.90184783935547,101.4159927368164,-118.38780212402344,-94.2455062866211,-90.693115234375
1.0924804210662842,11.365954399108887,-70.90184783935547,101.4159927368164,-118.38780212402344,-94.2455062866211,-90.693115234375
1.0946524143218994,11.365954399108887,-70.90184783935547,101.4159927368164,-118.38780212402344,-94.2455062866211,-90.693115234375
1.0967950820922852,11.365954399108887,-70.90184783935547,101.4159927368164,-118.38780212402344,-94.2455062866211,-90.693115234375
1.098905086517334,11.365954399108887,-70.90184783935547,101.4159927368164,-118.38780212402344,-94.2455062866211,-90.693115234375
1.1010091304779053,11.365954399108887,-70.90184783935547,101.4159927368164,-118.38780212402344,-94.2455062866211,-90.693115234375
1.103231430053711,11.365954399108887,-70.90184783935547,101.4159927368164,-118.38780212402344,-94.2455062866211,-90.693115234375
1.1053476333618164,11.365954399108887,-70.90184783935547,101.4159927368164,-118.38780212402344,-94.2455062866211,-90.693115234375
1.1074762344360352,11.365954399108887,-70.90184783935547,101.4159927368164,-118.38780212402344,-94.2455062866211,-90.693115234375
1.109832525253296,11.365736961364746,-70.90184783935547,101.4159927368164,-118.38780212402344,-94.24529266357422,-90.693115234375
1.1121068000793457,11.365736961364746,-70.90184783935547,101.4159927368164,-118.38780212402344,-94.24529266357422,-90.693115234375
1.1142735481262207,11.365736961364746,-70.90184783935547,101.4159927368164,-118.38780212402344,-94.24529266357422,-90.693115234375
1.1164450645446777,11.365736961364746,-70.90184783935547,101.4159927368164,-118.38780212402344,-94.24529266357422,-90.693115234375
1.1186211109161377,11.365736961364746,-70.90184783935547,101.4159927368164,-118.38780212402344,-94.24529266357422,-90.693115234375
1.120880126953125,11.365954399108887,-70.90184783935547,101.4159927368164,-118.38780212402344,-94.24507141113281,-90.693115234375
1.123171329498291,11.365954399108887,-70.90184783935547,101.4159927368164,-118.38780212402344,-94.24507141113281,-90.693115234375
1.1253435611724854,11.365954399108887,-70.90184783935547,101.4159927368164,-118.38780212402344,-94.24507141113281,-90.693115234375
1.1275160312652588,11.365954399108887,-70.90184783935547,101.4159927368164,-118.38780212402344,-94.24507141113281,-90.693115234375
1.1303071975708008,11.365954399108887,-70.90184783935547,101.4159927368164,-118.38780212402344,-94.24420166015625,-90.6933364868164
1.1324875354766846,11.365954399108887,-70.90184783935547,101.4159927368164,-118.38780212402344,-94.24420166015625,-90.6933364868164
1.1346571445465088,11.365954399108887,-70.90184783935547,101.4159927368164,-118.38780212402344,-94.24420166015625,-90.6933364868164
1.1369357109069824,11.365954399108887,-70.90184783935547,101.4159927368164,-118.38780212402344,-94.24420166015625,-90.6933364868164
1.1392185688018799,11.365954399108887,-70.90184783935547,101.4159927368164,-118.38780212402344,-94.24420166015625,-90.6933364868164
1.1413946151733398,11.365736961364746,-70.90184783935547,101.4159927368164,-118.38780212402344,-94.24311828613281,-90.693115234375
1.1435632705688477,11.365736961364746,-70.90184783935547,101.4159927368164,-118.38780212402344,-94.24311828613281,-90.693115234375
1.1458189487457275,11.365736961364746,-70.90184783935547,101.4159927368164,-118.38780212402344,-94.24311828613281,-90.693115234375
1.1480045318603516,11.365736961364746,-70.90184783935547,101.4159927368164,-118.38780212402344,-94.24311828613281,-90.693115234375
1.150186538696289,11.365954399108887,-70.90162658691406,101.41620635986328,-118.38780212402344,-94.24159240722656,-90.693115234375
1.152339220046997,11.365954399108887,-70.90162658691406,101.41620635986328,-118.38780212402344,-94.24159240722656,-90.693115234375
1.15447998046875,11.365954399108887,-70.90162658691406,101.41620635986328,-118.38780212402344,-94.24159240722656,-90.693115234375
1.1565873622894287,11.365954399108887,-70.90162658691406,101.41620635986328,-118.38780212402344,-94.24159240722656,-90.693115234375
1.1588404178619385,11.365954399108887,-70.90162658691406,101.41620635986328,-118.38780212402344,-94.24159240722656,-90.693115234375
1.1610839366912842,11.365954399108887,-70.90162658691406,101.4159927368164,-118.38780212402344,-94.23985290527344,-90.693115234375
1.1632590293884277,11.365954399108887,-70.90162658691406,101.4159927368164,-118.38780212402344,-94.23985290527344,-90.693115234375
1.1653993129730225,11.365954399108887,-70.90162658691406,101.4159927368164,-118.38780212402344,-94.23985290527344,-90.693115234375
1.1675620079040527,11.365954399108887,-70.90162658691406,101.4159927368164,-118.38780212402344,-94.23985290527344,-90.693115234375
1.170227289199829,11.365954399108887,-70.90162658691406,101.4159927368164,-118.38780212402344,-94.23745727539062,-90.693115234375
1.1723825931549072,11.365954399108887,-70.90162658691406,101.4159927368164,-118.38780212402344,-94.23745727539062,-90.693115234375
1.1745507717132568,11.365954399108887,-70.90162658691406,101.4159927368164,-118.38780212402344,-94.23745727539062,-90.693115234375
1.1768174171447754,11.365954399108887,-70.90162658691406,101.4159927368164,-118.38780212402344,-94.23745727539062,-90.693115234375
1.1791207790374756,11.365954399108887,-70.90162658691406,101.4159927368164,-118.38780212402344,-94.23745727539062,-90.693115234375
1.1812829971313477,11.365954399108887,-70.90206146240234,101.4159927368164,-118.38780212402344,-94.23419952392578,-90.693115234375
1.1834454536437988,11.365954399108887,-70.90206146240234,101.4159927368164,-118.38780212402344,-94.23419952392578,-90.693115234375
1.1856210231781006,11.365954399108887,-70.90206146240234,101.4159927368164,-118.38780212402344,-94.23419952392578,-90.693115234375
1.1879055500030518,11.365954399108887,-70.90206146240234,101.4159927368164,-118.38780212402344,-94.23419952392578,-90.693115234375
1.1901605129241943,11.365736961364746,-70.90184783935547,101.41555786132812,-118.38801574707031,-94.23049926757812,-90.693115234375
1.1923153400421143,11.365736961364746,-70.90184783935547,101.41555786132812,-118.38801574707031,-94.23049926757812,-90.693115234375
1.1944944858551025,11.365736961364746,-70.90184783935547,101.41555786132812,-118.38801574707031,-94.23049926757812,-90.693115234375
1.196669578552246,11.365736961364746,-70.90184783935547,101.41555786132812,-118.38801574707031,-94.23049926757812,-90.693115234375
1.1989643573760986,11.365736961364746,-70.90184783935547,101.41555786132812,-118.38801574707031,-94.23049926757812,-90.693115234375
1.201249599456787,11.365736961364746,-70.90228271484375,101.415771484375,-118.38823699951172,-94.22702026367188,-90.693115234375
1.2034533023834229,11.365736961364746,-70.90228271484375,101.415771484375,-118.38823699951172,-94.22702026367188,-90.693115234375
1.205629587173462,11.365736961364746,-70.90228271484375,101.415771484375,-118.38823699951172,-94.22702026367188,-90.693115234375
1.2079074382781982,11.365736961364746,-70.90228271484375,101.415771484375,-118.38823699951172,-94.22702026367188,-90.693115234375
1.2101666927337646,11.365736961364746,-70.90206146240234,101.415771484375,-118.38823699951172,-94.22440338134766,-90.69290161132812
1.2123205661773682,11.365736961364746,-70.90206146240234,101.415771484375,-118.38823699951172,-94.22440338134766,-90.69290161132812
1.2144932746887207,11.365736961364746,-70.90206146240234,101.415771484375,-118.38823699951172,-94.22440338134766,-90.69290161132812
1.2166686058044434,11.365736961364746,-70.90206146240234,101.415771484375,-118.38823699951172,-94.22440338134766,-90.69290161132812
1.2189605236053467,11.365736961364746,-70.90206146240234,101.415771484375,-118.38823699951172,-94.22440338134766,-90.69290161132812
1.2212278842926025,11.365736961364746,-70.90184783935547,101.415771484375,-118.38823699951172,-94.22114562988281,-90.693115234375
1.2233901023864746,11.365736961364746,-70.90184783935547,101.415771484375,-118.38823699951172,-94.22114562988281,-90.693115234375
1.2255637645721436,11.365736961364746,-70.90184783935547,101.415771484375,-118.38823699951172,-94.22114562988281,-90.693115234375
1.2278521060943604,11.365736961364746,-70.90184783935547,101.415771484375,-118.38823699951172,-94.22114562988281,-90.693115234375
1.2302727699279785,11.365954399108887,-70.90184783935547,101.415771484375,-118.38823699951172,-94.2165756225586,-90.69290161132812
1.2324275970458984,11.365954399108887,-70.90184783935547,101.415771484375,-118.38823699951172,-94.2165756225586,-90.69290161132812
1.2345983982086182,11.365954399108887,-70.90184783935547,101.415771484375,-118.38823699951172,-94.2165756225586,-90.69290161132812
1.236889362335205,11.365954399108887,-70.90184783935547,101.415771484375,-118.38823699951172,-94.2165756225586,-90.69290161132812
1.2391810417175293,11.365954399108887,-70.90184783935547,101.415771484375,-118.38823699951172,-94.2165756225586,-90.69290161132812
1.2413489818572998,11.365736961364746,-70.90184783935547,101.41555786132812,-118.388671875,-94.2115707397461,-90.69290161132812
1.2435109615325928,11.365736961364746,-70.90184783935547,101.41555786132812,-118.388671875,-94.2115707397461,-90.69290161132812
1.2457921504974365,11.365736961364746,-70.90184783935547,101.41555786132812,-118.388671875,-94.2115707397461,-90.69290161132812
1.2480895519256592,11.365736961364746,-70.90184783935547,101.41555786132812,-118.388671875,-94.2115707397461,-90.69290161132812
1.2505662441253662,11.365954399108887,-70.90184783935547,101.41555786132812,-118.388671875,-94.20635223388672,-90.693115234375
1.252837896347046,11.365954399108887,-70.90184783935547,101.41555786132812,-118.388671875,-94.20635223388672,-90.693115234375
1.2551207542419434,11.365954399108887,-70.90184783935547,101.41555786132812,-118.388671875,-94.20635223388672,-90.693115234375
1.2572765350341797,11.365954399108887,-70.90184783935547,101.41555786132812,-118.388671875,-94.20635223388672,-90.693115234375
1.2604234218597412,11.365954399108887,-70.90206146240234,101.41533660888672,-118.388671875,-94.20265197753906,-90.693115234375
1.2625930309295654,11.365954399108887,-70.90206146240234,101.41533660888672,-118.388671875,-94.20265197753906,-90.693115234375
1.2648837566375732,11.365954399108887,-70.90206146240234,101.41533660888672,-118.388671875,-94.20265197753906,-90.693115234375
1.2671921253204346,11.365954399108887,-70.90206146240234,101.41533660888672,-118.388671875,-94.20265197753906,-90.693115234375
1.2704575061798096,11.365954399108887,-70.90228271484375,101.41512298583984,-118.38910675048828,-94.19917297363281,-90.693115234375
1.2726221084594727,11.365954399108887,-70.90228271484375,101.41512298583984,-118.38910675048828,-94.19917297363281,-90.693115234375
1.2749080657958984,11.365954399108887,-70.90228271484375,101.41512298583984,-118.38910675048828,-94.19917297363281,-90.693115234375
1.277191400527954,11.365954399108887,-70.90228271484375,101.41512298583984,-118.38910675048828,-94.19917297363281,-90.693115234375
1.2793853282928467,11.365954399108887,-70.90228271484375,101.41512298583984,-118.38910675048828,-94.19917297363281,-90.693115234375
1.281559944152832,11.365736961364746,-70.90249633789062,101.41512298583984,-118.38910675048828,-94.19677734375,-90.693115234375
1.2838413715362549,11.365736961364746,-70.90249633789062,101.41512298583984,-118.38910675048828,-94.19677734375,-90.693115234375
1.2861311435699463,11.365736961364746,-70.90249633789062,101.41512298583984,-118.38910675048828,-94.19677734375,-90.693115234375
1.2882695198059082,11.365736961364746,-70.90249633789062,101.41512298583984,-118.38910675048828,-94.19677734375,-90.693115234375
1.2904422283172607,11.365954399108887,-70.90249633789062,101.41512298583984,-118.3888931274414,-94.19590759277344,-90.693115234375
1.2926075458526611,11.365954399108887,-70.90249633789062,101.41512298583984,-118.3888931274414,-94.19590759277344,-90.693115234375
1.2949011325836182,11.365954399108887,-70.90249633789062,101.41512298583984,-118.3888931274414,-94.19590759277344,-90.693115234375
1.297206163406372,11.365954399108887,-70.90249633789062,101.41512298583984,-118.3888931274414,-94.19590759277344,-90.693115234375
1.3004810810089111,11.365954399108887,-70.90206146240234,101.41512298583984,-118.3888931274414,-94.19590759277344,-90.693115234375
1.3026463985443115,11.365954399108887,-70.90206146240234,101.41512298583984,-118.3888931274414,-94.19590759277344,-90.693115234375
1.304903268814087,11.365954399108887,-70.90206146240234,101.41512298583984,-118.3888931274414,-94.19590759277344,-90.693115234375
1.3071846961975098,11.365954399108887,-70.90206146240234,101.41512298583984,-118.3888931274414,-94.19590759277344,-90.693115234375
1.3102827072143555,11.365736961364746,-70.90228271484375,101.41555786132812,-118.388671875,-94.19547271728516,-90.69290161132812
1.3124372959136963,11.365736961364746,-70.90228271484375,101.41555786132812,-118.388671875,-94.19547271728516,-90.69290161132812
1.3146066665649414,11.365736961364746,-70.90228271484375,101.41555786132812,-118.388671875,-94.19547271728516,-90.69290161132812
1.3168599605560303,11.365736961364746,-70.90228271484375,101.41555786132812,-118.388671875,-94.19547271728516,-90.69290161132812
1.3191640377044678,11.365736961364746,-70.90228271484375,101.41555786132812,-118.388671875,-94.19547271728516,-90.69290161132812
1.3213284015655518,11.365736961364746,-70.90228271484375,101.41555786132812,-118.3888931274414,-94.19503784179688,-90.693115234375
1.3234837055206299,11.365736961364746,-70.90228271484375,101.41555786132812,-118.3888931274414,-94.19503784179688,-90.693115234375
1.3256773948669434,11.365736961364746,-70.90228271484375,101.41555786132812,-118.3888931274414,-94.19503784179688,-90.693115234375
1.3279578685760498,11.365736961364746,-70.90228271484375,101.41555786132812,-118.3888931274414,-94.19503784179688,-90.693115234375
1.3302404880523682,11.365736961364746,-70.90249633789062,101.41512298583984,-118.388671875,-94.1946029663086,-90.693115234375
1.3323943614959717,11.365736961364746,-70.90249633789062,101.41512298583984,-118.388671875,-94.1946029663086,-90.693115234375
1.3345637321472168,11.365736961364746,-70.90249633789062,101.41512298583984,-118.388671875,-94.1946029663086,-90.693115234375
1.336845874786377,11.365736961364746,-70.90249633789062,101.41512298583984,-118.388671875,-94.1946029663086,-90.693115234375
1.3391704559326172,11.365736961364746,-70.90249633789062,101.41512298583984,-118.388671875,-94.1946029663086,-90.693115234375
1.3413691520690918,11.365736961364746,-70.90249633789062,101.41512298583984,-118.3888931274414,-94.19416809082031,-90.693115234375
1.343548059463501,11.365736961364746,-70.90249633789062,101.41512298583984,-118.3888931274414,-94.19416809082031,-90.693115234375
1.3457701206207275,11.365736961364746,-70.90249633789062,101.41512298583984,-118.3888931274414,-94.19416809082031,-90.693115234375
1.3479719161987305,11.365736961364746,-70.90249633789062,101.41512298583984,-118.3888931274414,-94.19416809082031,-90.693115234375
1.3503634929656982,11.365954399108887,-70.90228271484375,101.41512298583984,-118.3888931274414,-94.19329833984375,-90.693115234375
1.352487325668335,11.365954399108887,-70.90228271484375,101.41512298583984,-118.3888931274414,-94.19329833984375,-90.693115234375
1.3546347618103027,11.365954399108887,-70.90228271484375,101.41512298583984,-118.3888931274414,-94.19329833984375,-90.693115234375
1.3568885326385498,11.365954399108887,-70.90228271484375,101.41512298583984,-118.3888931274414,-94.19329833984375,-90.693115234375
1.3591277599334717,11.365954399108887,-70.90228271484375,101.41512298583984,-118.3888931274414,-94.19329833984375,-90.693115234375
1.3612706661224365,11.365954399108887,-70.90271759033203,101.41533660888672,-118.3888931274414,-94.19286346435547,-90.6933364868164
1.36342453956604,11.365954399108887,-70.90271759033203,101.41533660888672,-118.3888931274414,-94.19286346435547,-90.6933364868164
1.3655998706817627,11.365954399108887,-70.90271759033203,101.41533660888672,-118.3888931274414,-94.19286346435547,-90.6933364868164
1.3678796291351318,11.365954399108887,-70.90271759033203,101.41533660888672,-118.3888931274414,-94.19286346435547,-90.6933364868164
1.3703103065490723,11.365954399108887,-70.90249633789062,101.41512298583984,-118.388671875,-94.19242858886719,-90.693115234375
1.3724744319915771,11.365954399108887,-70.90249633789062,101.41512298583984,-118.388671875,-94.19242858886719,-90.693115234375
1.3746514320373535,11.365954399108887,-70.90249633789062,101.41512298583984,-118.388671875,-94.19242858886719,-90.693115234375
1.3769302368164062,11.365954399108887,-70.90249633789062,101.41512298583984,-118.388671875,-94.19242858886719,-90.693115234375
1.3792121410369873,11.365954399108887,-70.90249633789062,101.41512298583984,-118.388671875,-94.19242858886719,-90.693115234375
1.3813858032226562,11.365736961364746,-70.90249633789062,101.41512298583984,-118.388671875,-94.19155883789062,-90.693115234375
1.3835711479187012,11.365736961364746,-70.90249633789062,101.41512298583984,-118.388671875,-94.19155883789062,-90.693115234375
1.3858673572540283,11.365736961364746,-70.90249633789062,101.41512298583984,-118.388671875,-94.19155883789062,-90.693115234375
1.3881785869598389,11.365736961364746,-70.90249633789062,101.41512298583984,-118.388671875,-94.19155883789062,-90.693115234375
1.3903658390045166,11.365954399108887,-70.90249633789062,101.41512298583984,-118.388671875,-94.19090270996094,-90.693115234375
1.392531156539917,11.365954399108887,-70.90249633789062,101.41512298583984,-118.388671875,-94.19090270996094,-90.693115234375
1.394810676574707,11.365954399108887,-70.90249633789062,101.41512298583984,-118.388671875,-94.19090270996094,-90.693115234375
1.3971197605133057,11.365954399108887,-70.90249633789062,101.41512298583984,-118.388671875,-94.19090270996094,-90.693115234375
1.3993008136749268,11.365954399108887,-70.90249633789062,101.41512298583984,-118.388671875,-94.19090270996094,-90.693115234375
1.4014689922332764,11.365736961364746,-70.90228271484375,101.41533660888672,-118.3884506225586,-94.19046783447266,-90.693115234375
1.4036552906036377,11.365736961364746,-70.90228271484375,101.41533660888672,-118.3884506225586,-94.19046783447266,-90.693115234375
1.4059319496154785,11.365736961364746,-70.90228271484375,101.41533660888672,-118.3884506225586,-94.19046783447266,-90.693115234375
1.408186674118042,11.365736961364746,-70.90228271484375,101.41533660888672,-118.3884506225586,-94.19046783447266,-90.693115234375
1.4103593826293945,11.365519523620605,-70.90249633789062,101.41533660888672,-118.3884506225586,-94.1898193359375,-90.693115234375
1.4125216007232666,11.365519523620605,-70.90249633789062,101.41533660888672,-118.3884506225586,-94.1898193359375,-90.693115234375
1.4148082733154297,11.365519523620605,-70.90249633789062,101.41533660888672,-118.3884506225586,-94.1898193359375,-90.693115234375
1.4171252250671387,11.365519523620605,-70.90249633789062,101.41533660888672,-118.3884506225586,-94.1898193359375,-90.693115234375
1.4203073978424072,11.365736961364746,-70.90249633789062,101.41555786132812,-118.388671875,-94.18937683105469,-90.69290161132812
1.422461748123169,11.365736961364746,-70.90249633789062,101.41555786132812,-118.388671875,-94.18937683105469,-90.69290161132812
1.4246323108673096,11.365736961364746,-70.90249633789062,101.41555786132812,-118.388671875,-94.18937683105469,-90.69290161132812
1.4269092082977295,11.365736961364746,-70.90249633789062,101.41555786132812,-118.388671875,-94.18937683105469,-90.69290161132812
1.429136037826538,11.365736961364746,-70.90249633789062,101.41555786132812,-118.388671875,-94.18937683105469,-90.69290161132812
1.4312779903411865,11.365954399108887,-70.90271759033203,101.41533660888672,-118.3884506225586,-94.1889419555664,-90.693115234375
1.4334335327148438,11.365954399108887,-70.90271759033203,101.41533660888672,-118.3884506225586,-94.1889419555664,-90.693115234375
1.4356093406677246,11.365954399108887,-70.90271759033203,101.41533660888672,-118.3884506225586,-94.1889419555664,-90.693115234375
1.4378705024719238,11.365954399108887,-70.90271759033203,101.41533660888672,-118.3884506225586,-94.1889419555664,-90.693115234375
1.440279483795166,11.365954399108887,-70.90249633789062,101.41512298583984,-118.3884506225586,-94.18829345703125,-90.693115234375
1.4424364566802979,11.365954399108887,-70.90249633789062,101.41512298583984,-118.3884506225586,-94.18829345703125,-90.693115234375
1.4446260929107666,11.365954399108887,-70.90249633789062,101.41512298583984,-118.3884506225586,-94.18829345703125,-90.693115234375
1.446922779083252,11.365954399108887,-70.90249633789062,101.41512298583984,-118.3884506225586,-94.18829345703125,-90.693115234375
1.449207067489624,11.365954399108887,-70.90249633789062,101.41512298583984,-118.3884506225586,-94.18829345703125,-90.693115234375
1.4513719081878662,11.365954399108887,-70.90249633789062,101.41533660888672,-118.388671875,-94.18742370605469,-90.693115234375
1.4535305500030518,11.365954399108887,-70.90249633789062,101.41533660888672,-118.388671875,-94.18742370605469,-90.693115234375
1.4557299613952637,11.365954399108887,-70.90249633789062,101.41533660888672,-118.388671875,-94.18742370605469,-90.693115234375
1.4579010009765625,11.365954399108887,-70.90249633789062,101.41533660888672,-118.388671875,-94.18742370605469,-90.693115234375
1.4600746631622314,11.365954399108887,-70.90249633789062,101.41512298583984,-118.3884506225586,-94.186767578125,-90.6933364868164
1.4622070789337158,11.365954399108887,-70.90249633789062,101.41512298583984,-118.3884506225586,-94.186767578125,-90.6933364868164
1.4643068313598633,11.365954399108887,-70.90249633789062,101.41512298583984,-118.3884506225586,-94.186767578125,-90.6933364868164
1.4664173126220703,11.365954399108887,-70.90249633789062,101.41512298583984,-118.3884506225586,-94.186767578125,-90.6933364868164
1.468569278717041,11.365954399108887,-70.90249633789062,101.41512298583984,-118.3884506225586,-94.186767578125,-90.6933364868164
1.4708435535430908,11.366171836853027,-70.90271759033203,101.41533660888672,-118.3884506225586,-94.18633270263672,-90.693115234375
1.473059892654419,11.366171836853027,-70.90271759033203,101.41533660888672,-118.3884506225586,-94.18633270263672,-90.693115234375
1.4752593040466309,11.366171836853027,-70.90271759033203,101.41533660888672,-118.3884506225586,-94.18633270263672,-90.693115234375
1.4774096012115479,11.366171836853027,-70.90271759033203,101.41533660888672,-118.3884506225586,-94.18633270263672,-90.693115234375
1.4801068305969238,11.365736961364746,-70.90249633789062,101.41533660888672,-118.38823699951172,-94.18611907958984,-90.693115234375
1.482262372970581,11.365736961364746,-70.90249633789062,101.41533660888672,-118.38823699951172,-94.18611907958984,-90.693115234375
1.4844353199005127,11.365736961364746,-70.90249633789062,101.41533660888672,-118.38823699951172,-94.18611907958984,-90.693115234375
1.4866113662719727,11.365736961364746,-70.90249633789062,101.41533660888672,-118.38823699951172,-94.18611907958984,-90.693115234375
1.4888994693756104,11.365736961364746,-70.90249633789062,101.41533660888672,-118.38823699951172,-94.18611907958984,-90.693115234375
1.4912056922912598,11.365736961364746,-70.90249633789062,101.41533660888672,-118.3884506225586,-94.18611907958984,-90.693115234375
1.4933912754058838,11.365736961364746,-70.90249633789062,101.41533660888672,-118.3884506225586,-94.18611907958984,-90.693115234375
1.4955768585205078,11.365736961364746,-70.90249633789062,101.41533660888672,-118.3884506225586,-94.18611907958984,-90.693115234375
1.4978642463684082,11.365736961364746,-70.90249633789062,101.41533660888672,-118.3884506225586,-94.18611907958984,-90.693115234375
1.5004041194915771,11.365736961364746,-70.90249633789062,101.41512298583984,-118.38823699951172,-94.18655395507812,-90.69290161132812
1.5025768280029297,11.365736961364746,-70.90249633789062,101.41512298583984,-118.38823699951172,-94.18655395507812,-90.69290161132812
1.5048580169677734,11.365736961364746,-70.90249633789062,101.41512298583984,-118.38823699951172,-94.18655395507812,-90.69290161132812
1.5071613788604736,11.365736961364746,-70.90249633789062,101.41512298583984,-118.38823699951172,-94.18655395507812,-90.69290161132812
1.5103082656860352,11.365519523620605,-70.90249633789062,101.41533660888672,-118.38823699951172,-94.18633270263672,-90.693115234375
1.512463092803955,11.365519523620605,-70.90249633789062,101.41533660888672,-118.38823699951172,-94.18633270263672,-90.693115234375
1.514695167541504,11.365519523620605,-70.90249633789062,101.41533660888672,-118.38823699951172,-94.18633270263672,-90.693115234375
1.516972303390503,11.365519523620605,-70.90249633789062,101.41533660888672,-118.38823699951172,-94.18633270263672,-90.693115234375
1.5192146301269531,11.365519523620605,-70.90249633789062,101.41533660888672,-118.38823699951172,-94.18633270263672,-90.693115234375
1.5213747024536133,11.365519523620605,-70.90249633789062,101.41555786132812,-118.38823699951172,-94.18655395507812,-90.693115234375
1.5235512256622314,11.365519523620605,-70.90249633789062,101.41555786132812,-118.38823699951172,-94.18655395507812,-90.693115234375
1.5258045196533203,11.365519523620605,-70.90249633789062,101.41555786132812,-118.38823699951172,-94.18655395507812,-90.693115234375
1.528027057647705,11.365519523620605,-70.90249633789062,101.41555786132812,-118.38823699951172,-94.18655395507812,-90.693115234375
1.5301454067230225,11.365302085876465,-70.90249633789062,101.41533660888672,-118.38823699951172,-94.186767578125,-90.6933364868164
1.532273530960083,11.365302085876465,-70.90249633789062,101.41533660888672,-118.38823699951172,-94.186767578125,-90.6933364868164
1.5343971252441406,11.365302085876465,-70.90249633789062,101.41533660888672,-118.38823699951172,-94.186767578125,-90.6933364868164
1.5365450382232666,11.365302085876465,-70.90249633789062,101.41533660888672,-118.38823699951172,-94.186767578125,-90.6933364868164
1.5387005805969238,11.365302085876465,-70.90249633789062,101.41533660888672,-118.38823699951172,-94.186767578125,-90.6933364868164
1.5409715175628662,11.365302085876465,-70.90249633789062,101.41533660888672,-118.38823699951172,-94.186767578125,-90.6933364868164
1.5432281494140625,11.365302085876465,-70.90249633789062,101.41533660888672,-118.38823699951172,-94.186767578125,-90.6933364868164
1.545405626296997,11.365302085876465,-70.90249633789062,101.41533660888672,-118.38823699951172,-94.186767578125,-90.6933364868164
1.5475916862487793,11.365302085876465,-70.90249633789062,101.41533660888672,-118.38823699951172,-94.186767578125,-90.6933364868164
1.5503027439117432,11.365302085876465,-70.90249633789062,101.41533660888672,-118.38801574707031,-94.18655395507812,-90.693115234375
1.552534580230713,11.365302085876465,-70.90249633789062,101.41533660888672,-118.38801574707031,-94.18655395507812,-90.693115234375
1.554755449295044,11.365302085876465,-70.90249633789062,101.41533660888672,-118.38801574707031,-94.18655395507812,-90.693115234375
1.5569429397583008,11.365302085876465,-70.90249633789062,101.41533660888672,-118.38801574707031,-94.18655395507812,-90.693115234375
1.5602169036865234,11.365736961364746,-70.90249633789062,101.41533660888672,-118.38801574707031,-94.18655395507812,-90.693115234375
1.5623350143432617,11.365736961364746,-70.90249633789062,101.41533660888672,-118.38801574707031,-94.18655395507812,-90.693115234375
1.5644891262054443,11.365736961364746,-70.90249633789062,101.41533660888672,-118.38801574707031,-94.18655395507812,-90.693115234375
1.5666494369506836,11.365736961364746,-70.90249633789062,101.41533660888672,-118.38801574707031,-94.18655395507812,-90.693115234375
1.5688817501068115,11.365736961364746,-70.90249633789062,101.41533660888672,-118.38801574707031,-94.18655395507812,-90.693115234375
1.5712478160858154,11.365736961364746,-70.90271759033203,101.41533660888672,-118.38801574707031,-94.18633270263672,-90.693115234375
1.5734105110168457,11.365736961364746,-70.90271759033203,101.41533660888672,-118.38801574707031,-94.18633270263672,-90.693115234375
1.5755865573883057,11.365736961364746,-70.90271759033203,101.41533660888672,-118.38801574707031,-94.18633270263672,-90.693115234375
1.5778825283050537,11.365736961364746,-70.90271759033203,101.41533660888672,-118.38801574707031,-94.18633270263672,-90.693115234375
1.5803565979003906,11.365519523620605,-70.90249633789062,101.41533660888672,-118.38823699951172,-94.18655395507812,-90.693115234375
1.5825221538543701,11.365519523620605,-70.90249633789062,101.41533660888672,-118.38823699951172,-94.18655395507812,-90.693115234375
1.5846996307373047,11.365519523620605,-70.90249633789062,101.41533660888672,-118.38823699951172,-94.18655395507812,-90.693115234375
1.5870931148529053,11.365519523620605,-70.90249633789062,101.41533660888672,-118.38823699951172,-94.18655395507812,-90.693115234375
1.590207815170288,11.365736961364746,-70.90228271484375,101.41512298583984,-118.38823699951172,-94.18611907958984,-90.693115234375
1.592348575592041,11.365736961364746,-70.90228271484375,101.41512298583984,-118.38823699951172,-94.18611907958984,-90.693115234375
1.594635009765625,11.365736961364746,-70.90228271484375,101.41512298583984,-118.38823699951172,-94.18611907958984,-90.693115234375
1.5969042778015137,11.365736961364746,-70.90228271484375,101.41512298583984,-118.38823699951172,-94.18611907958984,-90.693115234375
1.5991487503051758,11.365736961364746,-70.90228271484375,101.41512298583984,-118.38823699951172,-94.18611907958984,-90.693115234375
1.601302146911621,11.365736961364746,-70.90228271484375,101.41512298583984,-118.38823699951172,-94.18611907958984,-90.693115234375
1.6034443378448486,11.365736961364746,-70.90271759033203,101.41533660888672,-118.38823699951172,-94.18633270263672,-90.693115234375
1.6056172847747803,11.365736961364746,-70.90271759033203,101.41533660888672,-118.38823699951172,-94.18633270263672,-90.693115234375
1.6079230308532715,11.365736961364746,-70.90271759033203,101.41533660888672,-118.38823699951172,-94.18633270263672,-90.693115234375
1.6102235317230225,11.365736961364746,-70.90271759033203,101.41533660888672,-118.38823699951172,-94.18633270263672,-90.693115234375
1.612400770187378,11.365736961364746,-70.90228271484375,101.41533660888672,-118.38823699951172,-94.18611907958984,-90.693115234375
1.6145977973937988,11.365736961364746,-70.90228271484375,101.41533660888672,-118.38823699951172,-94.18611907958984,-90.693115234375
1.6169397830963135,11.365736961364746,-70.90228271484375,101.41533660888672,-118.38823699951172,-94.18611907958984,-90.693115234375
1.6192834377288818,11.365736961364746,-70.90228271484375,101.41533660888672,-118.38823699951172,-94.18611907958984,-90.693115234375
1.6224815845489502,11.365736961364746,-70.90249633789062,101.41533660888672,-118.38823699951172,-94.18568420410156,-90.693115234375
1.6246893405914307,11.365736961364746,-70.90249633789062,101.41533660888672,-118.38823699951172,-94.18568420410156,-90.693115234375
1.6270248889923096,11.365736961364746,-70.90249633789062,101.41533660888672,-118.38823699951172,-94.18568420410156,-90.693115234375
1.6293377876281738,11.365736961364746,-70.90249633789062,101.41533660888672,-118.38823699951172,-94.18568420410156,-90.693115234375
1.6324987411499023,11.365736961364746,-70.90249633789062,101.41533660888672,-118.38823699951172,-94.18568420410156,-90.693115234375
1.6347019672393799,11.365736961364746,-70.90249633789062,101.41533660888672,-118.38823699951172,-94.18568420410156,-90.693115234375
1.6370532512664795,11.365736961364746,-70.90249633789062,101.41533660888672,-118.38823699951172,-94.18568420410156,-90.693115234375
1.6393601894378662,11.365736961364746,-70.90249633789062,101.41533660888672,-118.38823699951172,-94.18568420410156,-90.693115234375
1.6425306797027588,11.365954399108887,-70.90249633789062,101.41512298583984,-118.3884506225586,-94.18568420410156,-90.693115234375
1.6447398662567139,11.365954399108887,-70.90249633789062,101.41512298583984,-118.3884506225586,-94.18568420410156,-90.693115234375
1.6470997333526611,11.365954399108887,-70.90249633789062,101.41512298583984,-118.3884506225586,-94.18568420410156,-90.693115234375
1.6493253707885742,11.365954399108887,-70.90249633789062,101.41512298583984,-118.3884506225586,-94.18568420410156,-90.693115234375
1.6526222229003906,11.365736961364746,-70.90228271484375,101.41512298583984,-118.3888931274414,-94.18568420410156,-90.693115234375
1.6549620628356934,11.365736961364746,-70.90228271484375,101.41512298583984,-118.3888931274414,-94.18568420410156,-90.693115234375
1.657421350479126,11.365736961364746,-70.90228271484375,101.41512298583984,-118.3888931274414,-94.18568420410156,-90.693115234375
1.6596143245697021,11.365736961364746,-70.90228271484375,101.41512298583984,-118.3888931274414,-94.18568420410156,-90.693115234375
1.662461757659912,11.365954399108887,-70.90271759033203,101.41512298583984,-118.3888931274414,-94.18568420410156,-90.693115234375
1.6646323204040527,11.365954399108887,-70.90271759033203,101.41512298583984,-118.3888931274414,-94.18568420410156,-90.693115234375
1.6669178009033203,11.365954399108887,-70.90271759033203,101.41512298583984,-118.3888931274414,-94.18568420410156,-90.693115234375
1.669201135635376,11.365954399108887,-70.90271759033203,101.41512298583984,-118.3888931274414,-94.18568420410156,-90.693115234375
1.6723623275756836,11.365954399108887,-70.90249633789062,101.41512298583984,-118.388671875,-94.18568420410156,-90.6933364868164
1.6745274066925049,11.365954399108887,-70.90249633789062,101.41512298583984,-118.388671875,-94.18568420410156,-90.6933364868164
1.6768090724945068,11.365954399108887,-70.90249633789062,101.41512298583984,-118.388671875,-94.18568420410156,-90.6933364868164
1.679093599319458,11.365954399108887,-70.90249633789062,101.41512298583984,-118.388671875,-94.18568420410156,-90.6933364868164
1.6822338104248047,11.365954399108887,-70.90249633789062,101.41490173339844,-118.388671875,-94.18568420410156,-90.693115234375
1.6844091415405273,11.365954399108887,-70.90249633789062,101.41490173339844,-118.388671875,-94.18568420410156,-90.693115234375
1.686579942703247,11.365954399108887,-70.90249633789062,101.41490173339844,-118.388671875,-94.18568420410156,-90.693115234375
1.6887447834014893,11.365954399108887,-70.90249633789062,101.41490173339844,-118.388671875,-94.18568420410156,-90.693115234375
1.6910247802734375,11.365954399108887,-70.90249633789062,101.41490173339844,-118.388671875,-94.18568420410156,-90.693115234375
