Ultramotiv/Mauris-Progress-/All_other_stuff/robot_movement_20250925_163806.csv
joint_1,joint_2,joint_3,joint_4,joint_5,joint_6,tcp_rx,tcp_ry,tcp_rz,tcp_x,tcp_y,tcp_z,timestamp
-6.599,-86.024,130.377,-127.678,-88.897,67.285,176.397,-5.73,16.233,-583.205,-94.65,350.141,0.0
-6.599,-86.023,130.377,-127.678,-88.897,67.285,176.397,-5.73,16.233,-583.206,-94.65,350.138,0.101
-6.598,-86.024,130.377,-127.678,-88.897,67.284,176.397,-5.73,16.233,-583.203,-94.653,350.142,0.202
-6.599,-86.024,130.377,-127.678,-88.897,67.284,176.397,-5.73,16.233,-583.207,-94.65,350.142,0.303
-6.599,-86.024,130.377,-127.678,-88.897,67.285,176.397,-5.73,16.233,-583.205,-94.648,350.141,0.404
-6.599,-86.024,130.377,-127.678,-88.897,67.285,176.397,-5.73,16.233,-583.205,-94.65,350.141,0.505
-6.599,-86.024,130.377,-127.678,-88.897,67.285,176.397,-5.73,16.233,-583.204,-94.65,350.143,0.606
-6.599,-86.024,130.377,-127.678,-88.897,67.285,176.397,-5.73,16.233,-583.203,-94.648,350.139,0.707
-6.599,-86.024,130.377,-127.678,-88.897,67.285,176.397,-5.73,16.233,-583.204,-94.65,350.14,0.808
-6.599,-86.023,130.377,-127.678,-88.897,67.284,176.397,-5.73,16.233,-583.208,-94.65,350.141,0.908
-6.599,-86.023,130.377,-127.678,-88.897,67.284,176.397,-5.73,16.233,-583.206,-94.65,350.138,1.009
-6.599,-86.024,130.377,-127.678,-88.897,67.285,176.397,-5.73,16.233,-583.207,-94.648,350.142,1.11
-6.599,-86.024,130.377,-127.678,-88.897,67.285,176.397,-5.731,16.233,-583.201,-94.649,350.137,1.211
-6.599,-86.024,130.377,-127.678,-88.897,67.285,176.397,-5.73,16.233,-583.205,-94.65,350.141,1.312
-6.599,-86.023,130.377,-127.678,-88.897,67.284,176.397,-5.73,16.233,-583.206,-94.65,350.138,1.413
-6.599,-86.023,130.377,-127.678,-88.897,67.285,176.397,-5.731,16.233,-583.205,-94.65,350.138,1.514
-6.599,-86.023,130.377,-127.678,-88.897,67.285,176.397,-5.73,16.233,-583.206,-94.65,350.139,1.615
-6.599,-86.024,130.377,-127.678,-88.897,67.285,176.397,-5.73,16.233,-583.204,-94.65,350.14,1.716
-6.599,-86.024,130.377,-127.678,-88.897,67.285,176.397,-5.73,16.233,-583.205,-94.65,350.141,1.816
-6.599,-86.024,130.377,-127.678,-88.897,67.285,176.397,-5.73,16.233,-583.205,-94.65,350.141,1.917
-6.599,-86.024,130.377,-127.678,-88.897,67.285,176.397,-5.73,16.233,-583.205,-94.65,350.141,2.018
-6.599,-86.024,130.377,-127.678,-88.897,67.284,176.397,-5.73,16.233,-583.205,-94.65,350.141,2.118
-6.599,-86.024,130.377,-127.678,-88.897,67.284,176.397,-5.731,16.233,-583.202,-94.651,350.138,2.219
-6.599,-86.023,130.377,-127.678,-88.897,67.285,176.397,-5.73,16.233,-583.206,-94.648,350.139,2.32
-6.598,-86.023,130.377,-127.678,-88.897,67.285,176.397,-5.73,16.233,-583.204,-94.653,350.137,2.421
-6.599,-86.024,130.377,-127.678,-88.897,67.285,176.398,-5.73,16.233,-583.205,-94.65,350.143,2.522
-6.599,-86.023,130.377,-127.678,-88.897,67.284,176.397,-5.73,16.233,-583.206,-94.65,350.139,2.623
-6.599,-86.023,130.377,-127.678,-88.897,67.284,176.397,-5.73,16.233,-583.206,-94.648,350.138,2.724
-6.599,-86.023,130.377,-127.678,-88.897,67.284,176.397,-5.73,16.233,-583.208,-94.65,350.14,2.824
-6.599,-86.024,130.377,-127.678,-88.897,67.284,176.397,-5.73,16.233,-583.205,-94.65,350.141,2.925
-6.599,-86.024,130.377,-127.678,-88.897,67.285,176.398,-5.73,16.233,-583.206,-94.648,350.141,3.026
-6.599,-86.024,130.377,-127.678,-88.897,67.284,176.397,-5.73,16.233,-583.204,-94.65,350.143,3.127
-6.599,-86.023,130.377,-127.678,-88.897,67.285,176.397,-5.73,16.233,-583.206,-94.65,350.138,3.228
-6.599,-86.023,130.377,-127.678,-88.897,67.284,176.397,-5.73,16.233,-583.208,-94.65,350.14,3.328
-6.599,-86.024,130.377,-127.678,-88.897,67.285,176.397,-5.73,16.233,-583.205,-94.65,350.141,3.429
-6.599,-86.024,130.377,-127.678,-88.897,67.285,176.397,-5.73,16.233,-583.205,-94.65,350.141,3.53
-6.599,-86.024,130.377,-127.678,-88.897,67.284,176.397,-5.73,16.233,-583.205,-94.648,350.141,3.631
-6.599,-86.024,130.376,-127.679,-88.897,67.285,176.398,-5.728,16.233,-583.216,-94.647,350.151,3.732
-6.599,-86.025,130.374,-127.68,-88.897,67.285,176.399,-5.725,16.233,-583.227,-94.648,350.178,3.833
-6.598,-86.028,130.363,-127.686,-88.892,67.284,176.403,-5.704,16.233,-583.335,-94.651,350.327,3.934
-6.597,-86.042,130.105,-127.702,-88.89,67.284,176.513,-5.438,16.223,-585.678,-94.393,352.835,4.034
-6.597,-86.061,129.076,-127.724,-88.888,67.284,176.928,-4.45,16.187,-594.958,-93.323,362.544,4.135
-6.597,-86.079,127.247,-127.744,-88.891,67.284,177.654,-2.73,16.141,-611.016,-91.459,380.018,4.236
-6.597,-86.113,125.156,-127.744,-88.89,67.284,178.475,-0.769,16.116,-628.588,-89.427,400.737,4.336
-6.598,-86.128,122.983,-127.746,-88.89,67.284,179.32,1.25,16.119,-646.113,-87.396,422.723,4.437
-6.597,-86.131,120.77,-127.746,-88.89,67.284,-179.823,3.295,16.154,-663.147,-85.431,445.679,4.538
-6.597,-86.136,118.4,-127.758,-88.889,67.284,-178.896,5.496,16.225,-680.412,-83.435,471.012,4.639
-6.597,-86.152,115.813,-127.758,-88.89,67.284,-177.877,7.894,16.343,-697.958,-81.403,499.572,4.739
-6.597,-86.192,113.119,-127.755,-88.891,67.285,-176.794,10.407,16.516,-714.697,-79.47,530.409,4.84
-6.597,-86.289,110.592,-127.746,-88.893,67.284,-175.74,12.809,16.727,-728.664,-77.848,560.78,4.941
-6.598,-86.553,108.536,-127.718,-88.896,67.284,-174.798,14.91,16.952,-737.661,-76.796,588.276,5.042
-6.597,-87.154,107.076,-127.626,-88.897,67.285,-173.975,16.714,17.176,-740.207,-76.507,613.172,5.143
-6.597,-88.155,106.02,-127.583,-88.898,67.285,-173.118,18.555,17.435,-737.072,-76.863,638.563,5.243
-6.597,-89.279,105.379,-127.566,-88.898,67.285,-172.361,20.15,17.686,-730.452,-77.632,660.531,5.344
-6.598,-90.502,104.79,-127.327,-88.898,67.285,-171.665,21.582,17.933,-721.94,-78.605,682.433,5.445
-6.598,-91.749,104.182,-126.222,-88.899,67.285,-171.328,22.263,18.058,-711.841,-79.769,702.516,5.546
-6.599,-92.899,103.806,-123.723,-88.901,67.285,-171.761,21.378,17.896,-700.151,-81.109,714.739,5.646
-6.599,-93.898,103.664,-119.932,-88.902,67.285,-172.922,18.963,17.495,-687.513,-82.57,718.8,5.747
-6.6,-94.792,103.653,-115.651,-88.902,67.285,-174.354,15.876,17.065,-674.415,-84.069,718.76,5.848
-6.6,-95.606,103.625,-111.627,-88.903,67.284,-175.663,12.957,16.74,-661.836,-85.531,718.719,5.949
-6.6,-96.459,103.492,-108.049,-88.908,67.285,-176.703,10.573,16.526,-649.295,-86.968,721.56,6.049
-6.6,-97.341,103.052,-104.469,-88.908,67.285,-177.6,8.496,16.376,-636.835,-88.405,728.567,6.15
-6.6,-98.22,102.28,-100.71,-88.905,67.285,-178.431,6.555,16.268,-624.418,-89.847,739.256,6.251
-6.6,-98.966,101.422,-97.107,-88.903,67.285,-179.212,4.714,16.192,-613.129,-91.164,749.952,6.351
-6.599,-99.54,100.635,-93.518,-88.902,67.285,179.923,2.658,16.137,-602.866,-92.36,758.052,6.452
-6.6,-99.992,100.03,-89.804,-88.905,67.285,178.899,0.207,16.11,-592.789,-93.512,762.546,6.554
-6.599,-100.224,99.579,-87.17,-88.904,67.285,178.146,-1.592,16.12,-586.308,-94.269,765.239,6.655
-6.599,-100.461,98.997,-85.624,-88.903,67.285,177.863,-2.263,16.13,-581.927,-94.783,771.7,6.756
-6.599,-100.556,98.631,-85.416,-88.902,67.285,177.96,-2.029,16.127,-581.145,-94.873,776.683,6.857
-6.599,-100.537,98.625,-85.416,-88.9,67.285,177.953,-2.041,16.127,-581.355,-94.857,776.559,6.957
-6.599,-100.513,98.634,-85.417,-88.9,67.284,177.941,-2.07,16.128,-581.586,-94.825,776.22,7.058
-6.599,-100.467,98.664,-85.416,-88.899,67.285,177.911,-2.14,16.129,-582.008,-94.78,775.407,7.159
-6.599,-100.394,98.711,-85.416,-88.899,67.285,177.864,-2.251,16.131,-582.692,-94.704,774.112,7.26
-6.599,-100.35,98.742,-85.414,-88.899,67.284,177.834,-2.322,16.132,-583.086,-94.658,773.293,7.361
-6.599,-100.33,98.752,-85.413,-88.9,67.284,177.823,-2.351,16.133,-583.273,-94.635,772.972,7.461
-6.599,-100.327,98.755,-85.412,-88.9,67.284,177.82,-2.357,16.133,-583.302,-94.631,772.904,7.562
-6.599,-100.327,98.756,-85.412,-88.9,67.285,177.82,-2.359,16.133,-583.299,-94.631,772.892,7.663
-6.599,-100.327,98.757,-85.411,-88.9,67.285,177.82,-2.36,16.133,-583.294,-94.633,772.882,7.764
-6.599,-100.327,98.757,-85.411,-88.901,67.285,177.82,-2.361,16.133,-583.295,-94.63,772.871,7.865
-6.599,-100.327,98.758,-85.411,-88.901,67.284,177.82,-2.362,16.133,-583.294,-94.632,772.866,7.966
-6.599,-100.327,98.758,-85.411,-88.901,67.285,177.819,-2.362,16.133,-583.293,-94.631,772.86,8.067
-6.599,-100.327,98.758,-85.411,-88.901,67.284,177.819,-2.362,16.133,-583.293,-94.63,772.858,8.167
-6.599,-100.326,98.759,-85.411,-88.9,67.284,177.819,-2.363,16.133,-583.294,-94.631,772.85,8.268
-6.599,-100.326,98.759,-85.411,-88.9,67.285,177.818,-2.363,16.133,-583.294,-94.632,772.848,8.369
-6.599,-100.326,98.759,-85.411,-88.9,67.285,177.818,-2.363,16.133,-583.293,-94.634,772.845,8.469
-6.599,-100.326,98.76,-85.411,-88.9,67.284,177.818,-2.363,16.133,-583.293,-94.632,772.84,8.57
-6.599,-100.326,98.76,-85.411,-88.9,67.284,177.818,-2.364,16.133,-583.295,-94.632,772.833,8.671
-6.599,-100.326,98.76,-85.411,-88.9,67.285,177.818,-2.364,16.133,-583.292,-94.634,772.835,8.772
-6.599,-100.326,98.76,-85.411,-88.9,67.285,177.818,-2.364,16.133,-583.293,-94.634,772.83,8.872
-6.599,-100.326,98.761,-85.41,-88.9,67.285,177.818,-2.365,16.133,-583.293,-94.634,772.827,8.973
-6.599,-100.326,98.761,-85.411,-88.9,67.285,177.818,-2.365,16.133,-583.293,-94.632,772.825,9.074
-6.599,-100.326,98.761,-85.41,-88.9,67.284,177.817,-2.365,16.133,-583.292,-94.632,772.819,9.176
-6.599,-100.327,98.761,-85.411,-88.9,67.285,177.818,-2.365,16.133,-583.288,-94.632,772.824,9.276
-6.599,-100.327,98.761,-85.411,-88.9,67.284,177.818,-2.365,16.133,-583.283,-94.633,772.825,9.377
-6.599,-100.327,98.762,-85.411,-88.9,67.284,177.817,-2.365,16.133,-583.285,-94.633,772.82,9.478
-6.599,-100.327,98.762,-85.41,-88.9,67.284,177.817,-2.365,16.133,-583.285,-94.633,772.82,9.578
-6.599,-100.327,98.762,-85.411,-88.9,67.284,177.818,-2.365,16.133,-583.282,-94.635,772.817,9.679
-6.599,-100.327,98.762,-85.41,-88.9,67.285,177.817,-2.365,16.133,-583.284,-94.636,772.815,9.78
-6.599,-100.326,98.763,-85.411,-88.9,67.284,177.817,-2.366,16.133,-583.288,-94.632,772.806,9.881
-6.599,-100.326,98.763,-85.41,-88.9,67.285,177.816,-2.367,16.133,-583.289,-94.635,772.8,9.981
-6.599,-100.326,98.763,-85.411,-88.9,67.284,177.817,-2.367,16.133,-583.289,-94.634,772.801,10.082
-6.599,-100.326,98.763,-85.41,-88.9,67.285,177.817,-2.367,16.133,-583.292,-94.632,772.798,10.183
-6.599,-100.326,98.763,-85.411,-88.9,67.284,177.816,-2.367,16.133,-583.29,-94.633,772.798,10.283
-6.599,-100.326,98.763,-85.41,-88.9,67.284,177.816,-2.367,16.133,-583.289,-94.632,772.795,10.384
-6.599,-100.326,98.763,-85.41,-88.9,67.285,177.816,-2.367,16.133,-583.289,-94.632,772.795,10.485
-6.599,-100.326,98.763,-85.41,-88.9,67.284,177.816,-2.367,16.133,-583.288,-94.632,772.793,10.586
-6.599,-100.326,98.764,-85.41,-88.9,67.285,177.816,-2.368,16.133,-583.288,-94.635,772.79,10.687
-6.599,-100.326,98.764,-85.41,-88.9,67.285,177.816,-2.368,16.133,-583.29,-94.633,772.785,10.788
-6.599,-100.326,98.764,-85.41,-88.9,67.284,177.816,-2.368,16.133,-583.287,-94.635,772.785,10.889
-6.599,-100.326,98.764,-85.41,-88.9,67.285,177.816,-2.368,16.133,-583.287,-94.634,772.785,10.99
-6.599,-100.326,98.764,-85.41,-88.9,67.285,177.816,-2.368,16.133,-583.287,-94.635,772.785,11.09
-6.599,-100.326,98.764,-85.41,-88.9,67.285,177.816,-2.368,16.133,-583.289,-94.635,772.78,11.191
-6.599,-100.326,98.764,-85.41,-88.9,67.284,177.816,-2.369,16.133,-583.289,-94.632,772.777,11.292
-6.599,-100.326,98.764,-85.411,-88.9,67.285,177.816,-2.368,16.133,-583.287,-94.635,772.78,11.393
-6.598,-100.326,98.765,-85.41,-88.9,67.285,177.816,-2.369,16.133,-583.285,-94.637,772.774,11.494
-6.599,-100.326,98.765,-85.41,-88.9,67.284,177.816,-2.369,16.133,-583.285,-94.633,772.771,11.594
-6.599,-100.326,98.765,-85.41,-88.9,67.284,177.816,-2.369,16.133,-583.287,-94.632,772.767,11.695
-6.599,-100.326,98.765,-85.411,-88.9,67.285,177.816,-2.369,16.133,-583.288,-94.632,772.77,11.796
-6.599,-100.326,98.766,-85.411,-88.9,67.284,177.816,-2.369,16.133,-583.287,-94.635,772.764,11.898
-6.599,-100.326,98.765,-85.41,-88.9,67.285,177.816,-2.369,16.133,-583.287,-94.632,772.767,11.999
-6.599,-100.326,98.766,-85.41,-88.9,67.284,177.815,-2.37,16.133,-583.287,-94.635,772.764,12.1
